;FLAVOR:Marlin
;TIME:5497
;Filament used: 3.84094m
;Layer height: 0.2
;MINX:76.046
;MINY:80.384
;MINZ:0.2
;MAXX:143.954
;MAXY:139.614
;MAXZ:16
;TARGET_MACHINE.NAME:Creality Ender-3
;Generated with Cura_SteamEngine 5.10.2
M140 S90
M105
M190 S90
M104 S245
M105
M109 S245
; Ender 3 Custom Start G-code
G92 E0 ; Reset Extruder
G28 ; Home all axes
G1 Z2.0 F3000 ; Move Z Axis up little to prevent scratching of Heat Bed
G1 X0.1 Y20 Z0.3 F5000.0 ; Move to start position
G1 X0.1 Y200.0 Z0.3 F1500.0 E15 ; Draw the first line
G1 X0.4 Y200.0 Z0.3 F5000.0 ; Move to side a little
G1 X0.4 Y20 Z0.3 F1500.0 E30 ; Draw the second line
G92 E0 ; Reset Extruder
G1 Z2.0 F3000 ; Move Z Axis up little to prevent scratching of Heat Bed
G1 X5 Y20 Z0.3 F5000.0 ; Move over to prevent blob squish
M82 ;absolute extrusion mode
G92 E0
G92 E0
G1 F2700 E-5
;LAYER_COUNT:80
;LAYER:0
M107
G0 F6000 X79.503 Y82.382 Z0.2
;TYPE:SKIRT
G1 F2700 E0
G1 F1200 X81.678 Y81.142 E0.08327
G1 X83.596 Y80.537 E0.15016
G1 X84.69 Y80.424 E0.18674
G1 X134.5 Y80.384 E1.84343
G1 X136.951 Y80.576 E1.9252
G1 X139.733 Y81.832 E2.02672
G1 X141.987 Y83.859 E2.12755
G1 X143.247 Y86.092 E2.21283
G1 X143.838 Y87.966 E2.27818
G1 X143.951 Y89.065 E2.31493
G1 X143.954 Y130.938 E3.70763
G1 X143.767 Y132.614 E3.76372
G1 X142.552 Y135.357 E3.8635
G1 X140.493 Y137.63 E3.96551
G1 X138.315 Y138.851 E4.04855
G1 X136.337 Y139.487 E4.11766
G1 X134.521 Y139.614 E4.17821
G1 X84.687 Y139.579 E5.83569
G1 X83.011 Y139.392 E5.89178
G1 X80.252 Y138.173 E5.99211
G1 X78.007 Y136.122 E6.09324
G1 X76.767 Y133.947 E6.17652
G1 X76.162 Y132.029 E6.24341
G1 X76.049 Y130.935 E6.27999
G1 X76.046 Y89.062 E7.67269
G1 X76.233 Y87.386 E7.72878
G1 X77.452 Y84.627 E7.8291
G1 X79.503 Y82.382 E7.93024
G0 F6000 X79.757 Y82.697
G1 F1200 X81.835 Y81.512 E8.0098
G1 X83.679 Y80.931 E8.07411
G1 X84.731 Y80.822 E8.10928
G1 X134.5 Y80.784 E9.76461
G1 X136.85 Y80.97 E9.84301
G1 X139.512 Y82.171 E9.94015
G1 X141.671 Y84.113 E10.03673
G1 X142.877 Y86.25 E10.11834
G1 X143.444 Y88.049 E10.18108
G1 X143.553 Y89.106 E10.21642
G1 X143.556 Y130.894 E11.6063
G1 X143.376 Y132.509 E11.66034
G1 X142.212 Y135.137 E11.75594
G1 X140.241 Y137.312 E11.85357
G1 X138.153 Y138.483 E11.93319
G1 X136.26 Y139.091 E11.99932
G1 X134.521 Y139.214 E12.0573
G1 X84.731 Y139.181 E13.71333
G1 X83.116 Y139.001 E13.76737
G1 X80.473 Y137.833 E13.86348
G1 X78.322 Y135.868 E13.96038
G1 X77.137 Y133.79 E14.03995
G1 X76.556 Y131.946 E14.10425
G1 X76.447 Y130.894 E14.13943
G1 X76.444 Y89.106 E15.5293
G1 X76.624 Y87.491 E15.58335
G1 X77.792 Y84.848 E15.67946
G1 X79.757 Y82.697 E15.77636
G0 F6000 X80.009 Y83.014
G1 F1200 X82 Y81.879 E15.85258
G1 X83.757 Y81.325 E15.91386
G1 X84.772 Y81.22 E15.9478
G1 X134.5 Y81.184 E17.60176
G1 X136.748 Y81.363 E17.67676
G1 X139.292 Y82.511 E17.76959
G1 X141.355 Y84.367 E17.86189
G1 X142.507 Y86.408 E17.93984
G1 X143.05 Y88.132 E17.99996
G1 X143.155 Y89.147 E18.0339
G1 X143.158 Y130.85 E19.42094
G1 X142.985 Y132.404 E19.47295
G1 X141.872 Y134.917 E19.56436
G1 X139.989 Y136.994 E19.65761
G1 X137.991 Y138.115 E19.73381
G1 X136.184 Y138.695 E19.79693
G1 X134.521 Y138.814 E19.85238
G1 X84.775 Y138.783 E21.50694
G1 X83.221 Y138.61 E21.55895
G1 X80.694 Y137.493 E21.65084
G1 X78.639 Y135.616 E21.74341
G1 X77.504 Y133.625 E21.81963
G1 X76.95 Y131.868 E21.88091
G1 X76.845 Y130.853 E21.91485
G1 X76.842 Y89.15 E23.30189
G1 X77.015 Y87.596 E23.3539
G1 X78.132 Y85.069 E23.44579
G1 X80.009 Y83.014 E23.53836
G0 F6000 X80.261 Y83.331
G1 F1200 X82.161 Y82.248 E23.6111
G1 X83.84 Y81.719 E23.66965
G1 X84.813 Y81.618 E23.70219
G1 X134.5 Y81.584 E25.35478
G1 X136.646 Y81.756 E25.42639
G1 X139.072 Y82.851 E25.51492
G1 X141.039 Y84.621 E25.60293
G1 X142.139 Y86.57 E25.67736
G1 X142.656 Y88.21 E25.73456
G1 X142.757 Y89.188 E25.76726
G1 X142.76 Y130.806 E27.15148
G1 X142.594 Y132.299 E27.20144
G1 X141.532 Y134.697 E27.28867
G1 X139.737 Y136.676 E27.37753
G1 X137.829 Y137.747 E27.45031
G1 X136.107 Y138.299 E27.51045
G1 X134.521 Y138.414 E27.56334
G1 X84.819 Y138.385 E29.21644
G1 X83.326 Y138.219 E29.2664
G1 X80.915 Y137.153 E29.35408
G1 X78.956 Y135.364 E29.44232
G1 X77.873 Y133.464 E29.51506
G1 X77.344 Y131.785 E29.57361
G1 X77.243 Y130.812 E29.60614
G1 X77.24 Y89.194 E30.99036
G1 X77.406 Y87.701 E31.04033
G1 X78.472 Y85.29 E31.12801
G1 X80.261 Y83.331 E31.21624
G0 F6000 X80.513 Y83.648
G1 F1200 X82.326 Y82.615 E31.28565
G1 X83.918 Y82.113 E31.34117
G1 X84.854 Y82.016 E31.37246
G1 X134.5 Y81.984 E33.0237
G1 X136.544 Y82.149 E33.0919
G1 X138.852 Y83.191 E33.17613
G1 X140.723 Y84.875 E33.25985
G1 X141.769 Y86.728 E33.33062
G1 X142.262 Y88.293 E33.3852
G1 X142.359 Y89.229 E33.4165
G1 X142.362 Y130.762 E34.79789
G1 X142.203 Y132.194 E34.84581
G1 X141.192 Y134.477 E34.92885
G1 X139.485 Y136.358 E35.01334
G1 X137.667 Y137.379 E35.08269
G1 X136.03 Y137.903 E35.13986
G1 X134.521 Y138.014 E35.19018
G1 X84.863 Y137.987 E36.84181
G1 X83.431 Y137.828 E36.88973
G1 X81.136 Y136.813 E36.9732
G1 X79.273 Y135.112 E37.05711
G1 X78.24 Y133.299 E37.12651
G1 X77.738 Y131.707 E37.18203
G1 X77.641 Y130.771 E37.21333
G1 X77.638 Y89.238 E38.59472
G1 X77.797 Y87.806 E38.64264
G1 X78.812 Y85.511 E38.7261
G1 X80.513 Y83.648 E38.81001
G0 F6000 X80.765 Y83.965
G1 F1200 X82.487 Y82.984 E38.87593
G1 X84.001 Y82.507 E38.92872
G1 X84.895 Y82.414 E38.95862
G1 X134.5 Y82.384 E40.60849
G1 X136.443 Y82.543 E40.67333
G1 X138.631 Y83.53 E40.75316
G1 X140.407 Y85.129 E40.83265
G1 X141.401 Y86.89 E40.8999
G1 X141.868 Y88.371 E40.95155
G1 X141.961 Y89.27 E40.98161
G1 X141.964 Y130.718 E42.36018
G1 X141.812 Y132.089 E42.40606
G1 X140.852 Y134.257 E42.48492
G1 X139.233 Y136.04 E42.56502
G1 X137.505 Y137.011 E42.63095
G1 X135.954 Y137.507 E42.68511
G1 X134.521 Y137.614 E42.7329
G1 X84.907 Y137.589 E44.38307
G1 X83.536 Y137.437 E44.42895
G1 X81.357 Y136.473 E44.5082
G1 X79.59 Y134.86 E44.58777
G1 X78.609 Y133.138 E44.65369
G1 X78.132 Y131.624 E44.70649
G1 X78.039 Y130.73 E44.73638
G1 X78.036 Y89.282 E46.11495
G1 X78.188 Y87.911 E46.16083
G1 X79.152 Y85.732 E46.24008
G1 X80.765 Y83.965 E46.31965
G0 F6000 X81.017 Y84.282
G1 F1200 X82.652 Y83.351 E46.38223
G1 X84.079 Y82.901 E46.432
G1 X84.936 Y82.812 E46.46065
G1 X134.5 Y82.784 E48.10916
G1 X136.341 Y82.936 E48.1706
G1 X138.411 Y83.87 E48.24613
G1 X140.091 Y85.383 E48.32133
G1 X141.031 Y87.048 E48.38492
G1 X141.474 Y88.454 E48.43395
G1 X141.563 Y89.311 E48.46261
G1 X141.564 Y130.718 E49.83981
G1 X141.422 Y131.981 E49.88208
G1 X140.512 Y134.037 E49.95687
G1 X138.981 Y135.722 E50.03259
G1 X137.343 Y136.643 E50.09509
G1 X135.877 Y137.111 E50.14627
G1 X134.521 Y137.214 E50.1915
G1 X84.907 Y137.189 E51.84167
G1 X83.644 Y137.047 E51.88394
G1 X81.578 Y136.133 E51.95908
G1 X79.907 Y134.608 E52.03433
G1 X78.976 Y132.973 E52.09691
G1 X78.526 Y131.546 E52.14667
G1 X78.437 Y130.689 E52.17533
G1 X78.436 Y89.282 E53.55253
G1 X78.578 Y88.019 E53.5948
G1 X79.492 Y85.953 E53.66994
G1 X81.017 Y84.282 E53.74519
G0 F6000 X81.269 Y84.599
G1 F1200 X82.813 Y83.72 E53.80428
G1 X84.162 Y83.295 E53.85132
G1 X84.977 Y83.21 E53.87857
G1 X134.5 Y83.184 E55.52572
G1 X136.239 Y83.329 E55.58376
G1 X138.191 Y84.21 E55.65499
G1 X139.775 Y85.637 E55.7259
G1 X140.663 Y87.21 E55.78598
G1 X141.08 Y88.532 E55.83208
G1 X141.165 Y89.352 E55.8595
G1 X141.166 Y130.673 E57.23384
G1 X141.031 Y131.876 E57.27411
G1 X140.172 Y133.817 E57.3447
G1 X138.729 Y135.404 E57.41605
G1 X137.181 Y136.275 E57.47512
G1 X135.801 Y136.715 E57.5233
G1 X134.521 Y136.814 E57.566
G1 X84.952 Y136.791 E59.21467
G1 X83.749 Y136.656 E59.25493
G1 X81.799 Y135.793 E59.32586
G1 X80.224 Y134.356 E59.39677
G1 X79.345 Y132.812 E59.45586
G1 X78.92 Y131.463 E59.5029
G1 X78.835 Y130.648 E59.53016
G1 X78.834 Y89.327 E60.9045
G1 X78.969 Y88.124 E60.94476
G1 X79.832 Y86.174 E61.01569
G1 X81.269 Y84.599 E61.0866
G0 F6000 X81.523 Y84.915
G1 F1200 X82.978 Y84.087 E61.14228
G1 X84.24 Y83.689 E61.18629
G1 X85.018 Y83.608 E61.21231
G1 X134.5 Y83.584 E62.85809
G1 X136.137 Y83.722 E62.91273
G1 X137.971 Y84.55 E62.97966
G1 X139.459 Y85.891 E63.04628
G1 X140.293 Y87.368 E63.10269
G1 X140.686 Y88.615 E63.14618
G1 X140.767 Y89.393 E63.1722
G1 X140.768 Y130.628 E64.54368
G1 X140.64 Y131.771 E64.58193
G1 X139.832 Y133.597 E64.64835
G1 X138.477 Y135.086 E64.71531
G1 X137.019 Y135.907 E64.77096
G1 X135.724 Y136.32 E64.81617
G1 X134.521 Y136.414 E64.8563
G1 X84.997 Y136.393 E66.50348
G1 X83.854 Y136.265 E66.54173
G1 X82.022 Y135.454 E66.60837
G1 X80.54 Y134.102 E66.67509
G1 X79.712 Y132.647 E66.73077
G1 X79.314 Y131.385 E66.77478
G1 X79.233 Y130.607 E66.8008
G1 X79.232 Y89.372 E68.17228
G1 X79.36 Y88.229 E68.21053
G1 X80.171 Y86.397 E68.27717
G1 X81.523 Y84.915 E68.34389
G0 F6000 X81.777 Y85.231
G1 F1200 X83.139 Y84.456 E68.39601
G1 X84.323 Y84.083 E68.4373
G1 X85.06 Y84.006 E68.46195
G1 X134.5 Y83.984 E70.10633
G1 X136.035 Y84.115 E70.15757
G1 X137.751 Y84.89 E70.22019
G1 X139.143 Y86.145 E70.28253
G1 X139.923 Y87.526 E70.33528
G1 X140.292 Y88.698 E70.37615
G1 X140.369 Y89.435 E70.4008
G1 X140.37 Y130.584 E71.76942
G1 X140.249 Y131.666 E71.80563
G1 X139.492 Y133.376 E71.86783
G1 X138.223 Y134.77 E71.93053
G1 X136.86 Y135.538 E71.98256
G1 X135.649 Y135.924 E72.02484
G1 X134.521 Y136.014 E72.06247
G1 X85.041 Y135.995 E73.70818
G1 X83.959 Y135.874 E73.7444
G1 X82.245 Y135.115 E73.80674
G1 X80.856 Y133.848 E73.86927
G1 X80.081 Y132.486 E73.92139
G1 X79.708 Y131.302 E73.96268
G1 X79.631 Y130.565 E73.98733
G1 X79.63 Y89.416 E75.35595
G1 X79.751 Y88.334 E75.39216
G1 X80.51 Y86.62 E75.45451
G1 X81.777 Y85.231 E75.51704
G0 F6000 X82.031 Y85.547
G1 F1200 X83.304 Y84.823 E75.56575
G1 X84.401 Y84.477 E75.60401
G1 X85.101 Y84.404 E75.62741
G1 X134.5 Y84.384 E77.27043
G1 X135.935 Y84.508 E77.31834
G1 X137.528 Y85.228 E77.37648
G1 X138.827 Y86.399 E77.43465
G1 X139.555 Y87.688 E77.48389
G1 X139.898 Y88.776 E77.52183
G1 X139.971 Y89.476 E77.54524
G1 X139.972 Y130.54 E78.91103
G1 X139.858 Y131.561 E78.9452
G1 X139.152 Y133.155 E79.00319
G1 X137.97 Y134.453 E79.06158
G1 X136.699 Y135.17 E79.11011
G1 X135.574 Y135.528 E79.14938
G1 X134.521 Y135.614 E79.18452
G1 X85.085 Y135.597 E80.82877
G1 X84.064 Y135.483 E80.86294
G1 X82.468 Y134.776 E80.921
G1 X81.172 Y133.594 E80.97934
G1 X80.448 Y132.321 E81.02804
G1 X80.102 Y131.224 E81.0663
G1 X80.029 Y130.524 E81.08971
G1 X80.028 Y89.46 E82.45551
G1 X80.142 Y88.439 E82.48967
G1 X80.849 Y86.843 E82.54773
G1 X82.031 Y85.547 E82.60607
G0 F6000 X82.285 Y85.863
G1 F1200 X83.465 Y85.192 E82.65122
G1 X84.484 Y84.871 E82.68676
G1 X85.143 Y84.802 E82.70879
G1 X134.5 Y84.784 E84.35041
G1 X135.832 Y84.9 E84.39489
G1 X137.305 Y85.566 E84.44865
G1 X138.511 Y86.653 E84.50265
G1 X139.185 Y87.846 E84.54823
G1 X139.504 Y88.859 E84.58355
G1 X139.573 Y89.518 E84.60559
G1 X139.574 Y130.496 E85.96852
G1 X139.467 Y131.456 E86.00065
G1 X138.812 Y132.934 E86.05442
G1 X137.717 Y134.136 E86.1085
G1 X136.538 Y134.802 E86.15354
G1 X135.499 Y135.132 E86.1898
G1 X134.521 Y135.214 E86.22244
G1 X85.129 Y135.199 E87.86522
G1 X84.169 Y135.092 E87.89735
G1 X82.691 Y134.437 E87.95112
G1 X81.488 Y133.34 E88.00527
G1 X80.817 Y132.16 E88.05042
G1 X80.496 Y131.141 E88.08595
G1 X80.427 Y130.482 E88.10799
G1 X80.426 Y89.504 E89.47092
G1 X80.533 Y88.544 E89.50305
G1 X81.188 Y87.066 E89.55682
G1 X82.285 Y85.863 E89.61097
G0 F6000 X82.537 Y86.18
G1 F1200 X83.63 Y85.559 E89.65278
G1 X84.562 Y85.265 E89.68529
G1 X85.185 Y85.2 E89.70612
G1 X134.5 Y85.184 E91.34634
G1 X135.726 Y85.292 E91.38728
G1 X137.085 Y85.906 E91.43688
G1 X138.195 Y86.907 E91.48659
G1 X138.817 Y88.008 E91.52865
G1 X139.11 Y88.937 E91.56105
G1 X139.175 Y89.56 E91.58188
G1 X139.176 Y130.452 E92.94196
G1 X139.076 Y131.351 E92.97204
G1 X138.472 Y132.713 E93.0216
G1 X137.464 Y133.819 E93.07137
G1 X136.377 Y134.434 E93.11291
G1 X135.424 Y134.736 E93.14616
G1 X134.521 Y134.814 E93.1763
G1 X85.173 Y134.801 E94.81763
G1 X84.274 Y134.701 E94.84771
G1 X82.912 Y134.097 E94.89727
G1 X81.805 Y133.088 E94.94708
G1 X81.184 Y131.995 E94.9889
G1 X80.89 Y131.063 E95.0214
G1 X80.825 Y130.44 E95.04223
G1 X80.824 Y89.548 E96.40231
G1 X80.924 Y88.649 E96.43239
G1 X81.528 Y87.287 E96.48195
G1 X82.537 Y86.18 E96.53176
G0 F6000 X82.789 Y86.497
G1 F1200 X83.791 Y85.928 E96.57009
G1 X84.645 Y85.659 E96.59987
G1 X85.227 Y85.598 E96.61933
G1 X134.5 Y85.584 E98.25816
G1 X135.623 Y85.684 E98.29566
G1 X136.862 Y86.244 E98.34088
G1 X137.879 Y87.161 E98.38643
G1 X138.447 Y88.166 E98.42482
G1 X138.716 Y89.02 E98.4546
G1 X138.777 Y89.602 E98.47407
G1 X138.778 Y130.408 E99.83128
G1 X138.685 Y131.246 E99.85932
G1 X138.132 Y132.492 E99.90466
G1 X137.211 Y133.503 E99.95015
G1 X136.216 Y134.066 E99.98817
G1 X135.345 Y134.342 E100.01856
G1 X134.521 Y134.414 E100.04607
G1 X85.217 Y134.403 E101.68593
G1 X84.379 Y134.31 E101.71398
G1 X83.133 Y133.757 E101.75932
G1 X82.122 Y132.836 E101.8048
G1 X81.553 Y131.834 E101.84313
G1 X81.284 Y130.98 E101.87291
G1 X81.223 Y130.398 E101.89237
G1 X81.222 Y89.592 E103.24958
G1 X81.315 Y88.754 E103.27763
G1 X81.868 Y87.508 E103.32297
G1 X82.789 Y86.497 E103.36845
G0 F6000 X83.042 Y86.813
G1 F1200 X83.953 Y86.296 E103.40329
G1 X84.723 Y86.053 E103.43015
G1 X85.269 Y85.996 E103.44841
G1 X134.5 Y85.984 E105.08584
G1 X135.52 Y86.076 E105.1199
G1 X136.639 Y86.582 E105.16075
G1 X137.563 Y87.415 E105.20212
G1 X138.079 Y88.328 E105.23701
G1 X138.322 Y89.098 E105.26386
G1 X138.379 Y89.644 E105.28212
G1 X138.38 Y130.364 E106.63647
G1 X138.294 Y131.141 E106.66247
G1 X137.792 Y132.271 E106.7036
G1 X136.958 Y133.187 E106.7448
G1 X136.055 Y133.698 E106.77931
G1 X135.265 Y133.948 E106.80687
G1 X134.521 Y134.014 E106.83171
G1 X85.261 Y134.005 E108.47011
G1 X84.484 Y133.919 E108.49611
G1 X83.354 Y133.417 E108.53723
G1 X82.438 Y132.583 E108.57844
G1 X81.921 Y131.672 E108.61328
G1 X81.678 Y130.902 E108.64013
G1 X81.621 Y130.356 E108.65839
G1 X81.62 Y89.636 E110.01274
G1 X81.706 Y88.859 E110.03874
G1 X82.208 Y87.729 E110.07987
G1 X83.042 Y86.813 E110.12107
G0 F6000 X83.295 Y87.129
G1 F1200 X84.111 Y86.666 E110.15228
G1 X84.806 Y86.447 E110.17651
G1 X85.311 Y86.394 E110.1934
G1 X134.5 Y86.384 E111.82943
G1 X135.414 Y86.468 E111.85996
G1 X136.419 Y86.922 E111.89664
G1 X137.247 Y87.669 E111.93373
G1 X137.709 Y88.486 E111.96495
G1 X137.928 Y89.181 E111.98918
G1 X137.981 Y89.686 E112.00607
G1 X137.982 Y130.32 E113.35757
G1 X137.903 Y131.037 E113.38156
G1 X137.453 Y132.049 E113.41839
G1 X136.705 Y132.871 E113.45536
G1 X135.894 Y133.33 E113.48635
G1 X135.186 Y133.554 E113.51105
G1 X134.521 Y133.614 E113.53326
G1 X85.305 Y133.607 E115.17019
G1 X84.588 Y133.528 E115.19418
G1 X83.576 Y133.078 E115.23102
G1 X82.754 Y132.33 E115.26799
G1 X82.291 Y131.514 E115.29919
G1 X82.072 Y130.819 E115.32343
G1 X82.019 Y130.314 E115.34031
G1 X82.018 Y89.68 E116.69181
G1 X82.097 Y88.963 E116.7158
G1 X82.547 Y87.951 E116.75264
G1 X83.295 Y87.129 E116.7896
G0 F6000 X83.548 Y87.445
G1 F1200 X84.269 Y87.036 E116.81717
G1 X84.889 Y86.841 E116.83879
G1 X85.353 Y86.792 E116.85431
G1 X134.5 Y86.784 E118.48894
G1 X135.309 Y86.86 E118.51597
G1 X136.198 Y87.261 E118.54841
G1 X136.931 Y87.923 E118.58126
G1 X137.339 Y88.644 E118.60881
G1 X137.534 Y89.264 E118.63043
G1 X137.583 Y89.728 E118.64595
G1 X137.584 Y130.276 E119.99458
G1 X137.512 Y130.933 E120.01656
G1 X137.114 Y131.827 E120.04911
G1 X136.452 Y132.555 E120.08184
G1 X135.733 Y132.962 E120.10932
G1 X135.107 Y133.16 E120.13115
G1 X134.521 Y133.214 E120.15073
G1 X85.349 Y133.209 E121.78619
G1 X84.692 Y133.137 E121.80818
G1 X83.798 Y132.739 E121.84072
G1 X83.07 Y132.077 E121.87345
G1 X82.661 Y131.356 E121.90102
G1 X82.466 Y130.736 E121.92264
G1 X82.417 Y130.272 E121.93816
G1 X82.416 Y89.724 E123.28679
G1 X82.488 Y89.067 E123.30877
G1 X82.886 Y88.173 E123.34132
G1 X83.548 Y87.445 E123.37405
G0 F6000 X83.801 Y87.761
G1 F1200 X84.431 Y87.404 E123.39813
G1 X84.967 Y87.235 E123.41683
G1 X85.395 Y87.19 E123.43114
G1 X134.5 Y87.184 E125.06438
G1 X135.204 Y87.252 E125.0879
G1 X135.977 Y87.6 E125.1161
G1 X136.615 Y88.177 E125.14471
G1 X136.971 Y88.806 E125.16875
G1 X137.14 Y89.342 E125.18744
G1 X137.185 Y89.77 E125.20175
G1 X137.186 Y130.233 E126.54756
G1 X137.121 Y130.829 E126.5675
