;FLAVOR:Marlin
;TIME:5492
;Filament used: 3.84048m
;Layer height: 0.2
;MINX:83.546
;MINY:87.884
;MINZ:0.2
;MAXX:151.454
;MAXY:147.114
;MAXZ:16
;TARGET_MACHINE.NAME:Creality Ender-3
;Generated with Cura_SteamEngine 5.10.2
M140 S90
M105
M190 S90
M104 S245
M105
M109 S245
; Ender 3 Custom Start G-code
G92 E0 ; Reset Extruder
G28 ; Home all axes
G1 Z2.0 F3000 ; Move Z Axis up little to prevent scratching of Heat Bed
G1 X0.1 Y20 Z0.3 F5000.0 ; Move to start position
G1 X0.1 Y200.0 Z0.3 F1500.0 E15 ; Draw the first line
G1 X0.4 Y200.0 Z0.3 F5000.0 ; Move to side a little
G1 X0.4 Y20 Z0.3 F1500.0 E30 ; Draw the second line
G92 E0 ; Reset Extruder
G1 Z2.0 F3000 ; Move Z Axis up little to prevent scratching of Heat Bed
G1 X5 Y20 Z0.3 F5000.0 ; Move over to prevent blob squish
M82 ;absolute extrusion mode
G92 E0
G92 E0
G1 F2700 E-5
;LAYER_COUNT:80
;LAYER:0
M107
G0 F6000 X87.003 Y89.882 Z0.2
;TYPE:SKIRT
G1 F2700 E0
G1 F1200 X89.178 Y88.642 E0.08327
G1 X91.096 Y88.037 E0.15016
G1 X92.19 Y87.924 E0.18674
G1 X142 Y87.884 E1.84343
G1 X144.451 Y88.076 E1.9252
G1 X147.233 Y89.332 E2.02672
G1 X149.487 Y91.359 E2.12755
G1 X150.747 Y93.592 E2.21283
G1 X151.338 Y95.466 E2.27818
G1 X151.451 Y96.565 E2.31493
G1 X151.454 Y138.438 E3.70763
G1 X151.267 Y140.114 E3.76372
G1 X150.052 Y142.857 E3.8635
G1 X147.993 Y145.13 E3.96551
G1 X145.815 Y146.351 E4.04855
G1 X143.837 Y146.987 E4.11766
G1 X142.021 Y147.114 E4.17821
G1 X92.187 Y147.079 E5.83569
G1 X90.511 Y146.892 E5.89178
G1 X87.752 Y145.673 E5.99211
G1 X85.507 Y143.622 E6.09324
G1 X84.267 Y141.447 E6.17652
G1 X83.662 Y139.529 E6.24341
G1 X83.549 Y138.435 E6.27999
G1 X83.546 Y96.562 E7.67269
G1 X83.733 Y94.886 E7.72878
G1 X84.952 Y92.127 E7.8291
G1 X87.003 Y89.882 E7.93024
G0 F6000 X87.257 Y90.197
G1 F1200 X89.335 Y89.012 E8.0098
G1 X91.179 Y88.431 E8.07411
G1 X92.231 Y88.322 E8.10928
G1 X142 Y88.284 E9.76461
G1 X144.35 Y88.47 E9.84301
G1 X147.012 Y89.671 E9.94015
G1 X149.171 Y91.613 E10.03673
G1 X150.377 Y93.75 E10.11834
G1 X150.944 Y95.549 E10.18108
G1 X151.053 Y96.606 E10.21642
G1 X151.056 Y138.394 E11.6063
G1 X150.876 Y140.009 E11.66034
G1 X149.712 Y142.637 E11.75594
G1 X147.741 Y144.812 E11.85357
G1 X145.653 Y145.983 E11.93319
G1 X143.76 Y146.591 E11.99932
G1 X142.021 Y146.714 E12.0573
G1 X92.231 Y146.681 E13.71333
G1 X90.616 Y146.501 E13.76737
G1 X87.973 Y145.333 E13.86348
G1 X85.822 Y143.368 E13.96038
G1 X84.637 Y141.29 E14.03995
G1 X84.056 Y139.446 E14.10425
G1 X83.947 Y138.394 E14.13943
G1 X83.944 Y96.606 E15.5293
G1 X84.124 Y94.991 E15.58335
G1 X85.292 Y92.348 E15.67946
G1 X87.257 Y90.197 E15.77636
G0 F6000 X87.509 Y90.514
G1 F1200 X89.5 Y89.379 E15.85258
G1 X91.257 Y88.825 E15.91386
G1 X92.272 Y88.72 E15.9478
G1 X142 Y88.684 E17.60176
G1 X144.248 Y88.863 E17.67676
G1 X146.792 Y90.011 E17.76959
G1 X148.855 Y91.867 E17.86189
G1 X150.007 Y93.908 E17.93984
G1 X150.55 Y95.632 E17.99996
G1 X150.655 Y96.647 E18.0339
G1 X150.658 Y138.35 E19.42094
G1 X150.485 Y139.904 E19.47295
G1 X149.372 Y142.417 E19.56436
G1 X147.489 Y144.494 E19.65761
G1 X145.491 Y145.615 E19.73381
G1 X143.684 Y146.195 E19.79693
G1 X142.021 Y146.314 E19.85238
G1 X92.275 Y146.283 E21.50694
G1 X90.721 Y146.11 E21.55895
G1 X88.194 Y144.993 E21.65084
G1 X86.139 Y143.116 E21.74341
G1 X85.004 Y141.125 E21.81963
G1 X84.45 Y139.368 E21.88091
G1 X84.345 Y138.353 E21.91485
G1 X84.342 Y96.65 E23.30189
G1 X84.515 Y95.096 E23.3539
G1 X85.632 Y92.569 E23.44579
G1 X87.509 Y90.514 E23.53836
G0 F6000 X87.761 Y90.831
G1 F1200 X89.661 Y89.748 E23.6111
G1 X91.34 Y89.219 E23.66965
G1 X92.313 Y89.118 E23.70219
G1 X142 Y89.084 E25.35478
G1 X144.146 Y89.256 E25.42639
G1 X146.572 Y90.351 E25.51492
G1 X148.539 Y92.121 E25.60293
G1 X149.639 Y94.07 E25.67736
G1 X150.156 Y95.71 E25.73456
G1 X150.257 Y96.688 E25.76726
G1 X150.26 Y138.306 E27.15148
G1 X150.094 Y139.799 E27.20144
G1 X149.032 Y142.197 E27.28867
G1 X147.237 Y144.176 E27.37753
G1 X145.329 Y145.247 E27.45031
G1 X143.607 Y145.799 E27.51045
G1 X142.021 Y145.914 E27.56334
G1 X92.319 Y145.885 E29.21644
G1 X90.826 Y145.719 E29.2664
G1 X88.415 Y144.653 E29.35408
G1 X86.456 Y142.864 E29.44232
G1 X85.373 Y140.964 E29.51506
G1 X84.844 Y139.285 E29.57361
G1 X84.743 Y138.312 E29.60614
G1 X84.74 Y96.694 E30.99036
G1 X84.906 Y95.201 E31.04033
G1 X85.972 Y92.79 E31.12801
G1 X87.761 Y90.831 E31.21624
G0 F6000 X88.013 Y91.148
G1 F1200 X89.826 Y90.115 E31.28565
G1 X91.418 Y89.613 E31.34117
G1 X92.354 Y89.516 E31.37246
G1 X142 Y89.484 E33.0237
G1 X144.044 Y89.649 E33.0919
G1 X146.352 Y90.691 E33.17613
G1 X148.223 Y92.375 E33.25985
G1 X149.269 Y94.228 E33.33062
G1 X149.762 Y95.793 E33.3852
G1 X149.859 Y96.729 E33.4165
G1 X149.862 Y138.262 E34.79789
G1 X149.703 Y139.694 E34.84581
G1 X148.692 Y141.977 E34.92885
G1 X146.985 Y143.858 E35.01334
G1 X145.167 Y144.879 E35.08269
G1 X143.53 Y145.403 E35.13986
G1 X142.021 Y145.514 E35.19018
G1 X92.363 Y145.487 E36.84181
G1 X90.931 Y145.328 E36.88973
G1 X88.636 Y144.313 E36.9732
G1 X86.773 Y142.612 E37.05711
G1 X85.74 Y140.799 E37.12651
G1 X85.238 Y139.207 E37.18203
G1 X85.141 Y138.271 E37.21333
G1 X85.138 Y96.738 E38.59472
G1 X85.297 Y95.306 E38.64264
G1 X86.312 Y93.011 E38.7261
G1 X88.013 Y91.148 E38.81001
G0 F6000 X88.265 Y91.465
G1 F1200 X89.987 Y90.484 E38.87593
G1 X91.501 Y90.007 E38.92872
G1 X92.395 Y89.914 E38.95862
G1 X142 Y89.884 E40.60849
G1 X143.943 Y90.043 E40.67333
G1 X146.131 Y91.03 E40.75316
G1 X147.907 Y92.629 E40.83265
G1 X148.901 Y94.39 E40.8999
G1 X149.368 Y95.871 E40.95155
G1 X149.461 Y96.77 E40.98161
G1 X149.464 Y138.218 E42.36018
G1 X149.312 Y139.589 E42.40606
G1 X148.352 Y141.757 E42.48492
G1 X146.733 Y143.54 E42.56502
G1 X145.005 Y144.511 E42.63095
G1 X143.454 Y145.007 E42.68511
G1 X142.021 Y145.114 E42.7329
G1 X92.407 Y145.089 E44.38307
G1 X91.036 Y144.937 E44.42895
G1 X88.857 Y143.973 E44.5082
G1 X87.09 Y142.36 E44.58777
G1 X86.109 Y140.638 E44.65369
G1 X85.632 Y139.124 E44.70649
G1 X85.539 Y138.23 E44.73638
G1 X85.536 Y96.782 E46.11495
G1 X85.688 Y95.411 E46.16083
G1 X86.652 Y93.232 E46.24008
G1 X88.265 Y91.465 E46.31965
G0 F6000 X88.517 Y91.782
G1 F1200 X90.152 Y90.851 E46.38223
G1 X91.579 Y90.401 E46.432
G1 X92.436 Y90.312 E46.46065
G1 X142 Y90.284 E48.10916
G1 X143.841 Y90.436 E48.1706
G1 X145.911 Y91.37 E48.24613
G1 X147.591 Y92.883 E48.32133
G1 X148.531 Y94.548 E48.38492
G1 X148.974 Y95.954 E48.43395
G1 X149.063 Y96.811 E48.46261
G1 X149.064 Y138.218 E49.83981
G1 X148.922 Y139.481 E49.88208
G1 X148.012 Y141.537 E49.95687
G1 X146.481 Y143.222 E50.03259
G1 X144.843 Y144.143 E50.09509
G1 X143.377 Y144.611 E50.14627
G1 X142.021 Y144.714 E50.1915
G1 X92.407 Y144.689 E51.84167
G1 X91.144 Y144.547 E51.88394
G1 X89.078 Y143.633 E51.95908
G1 X87.407 Y142.108 E52.03433
G1 X86.476 Y140.473 E52.09691
G1 X86.026 Y139.046 E52.14667
G1 X85.937 Y138.189 E52.17533
G1 X85.936 Y96.782 E53.55253
G1 X86.078 Y95.519 E53.5948
G1 X86.992 Y93.453 E53.66994
G1 X88.517 Y91.782 E53.74519
G0 F6000 X88.769 Y92.099
G1 F1200 X90.313 Y91.22 E53.80428
G1 X91.662 Y90.795 E53.85132
G1 X92.477 Y90.71 E53.87857
G1 X142 Y90.684 E55.52572
G1 X143.739 Y90.829 E55.58376
G1 X145.691 Y91.71 E55.65499
G1 X147.275 Y93.137 E55.7259
G1 X148.163 Y94.71 E55.78598
G1 X148.58 Y96.032 E55.83208
G1 X148.665 Y96.852 E55.8595
G1 X148.666 Y138.173 E57.23384
G1 X148.531 Y139.376 E57.27411
G1 X147.672 Y141.317 E57.3447
G1 X146.229 Y142.904 E57.41605
G1 X144.681 Y143.775 E57.47512
G1 X143.301 Y144.215 E57.5233
G1 X142.021 Y144.314 E57.566
G1 X92.452 Y144.291 E59.21467
G1 X91.249 Y144.156 E59.25493
G1 X89.299 Y143.293 E59.32586
G1 X87.724 Y141.856 E59.39677
G1 X86.845 Y140.312 E59.45586
G1 X86.42 Y138.963 E59.5029
G1 X86.335 Y138.148 E59.53016
G1 X86.334 Y96.827 E60.9045
G1 X86.469 Y95.624 E60.94476
G1 X87.332 Y93.674 E61.01569
G1 X88.769 Y92.099 E61.0866
G0 F6000 X89.023 Y92.415
G1 F1200 X90.478 Y91.587 E61.14228
G1 X91.74 Y91.189 E61.18629
G1 X92.518 Y91.108 E61.21231
G1 X142 Y91.084 E62.85809
G1 X143.637 Y91.222 E62.91273
G1 X145.471 Y92.05 E62.97966
G1 X146.959 Y93.391 E63.04628
G1 X147.793 Y94.868 E63.10269
G1 X148.186 Y96.115 E63.14618
G1 X148.267 Y96.893 E63.1722
G1 X148.268 Y138.128 E64.54368
G1 X148.14 Y139.271 E64.58193
G1 X147.332 Y141.097 E64.64835
G1 X145.977 Y142.586 E64.71531
G1 X144.519 Y143.407 E64.77096
G1 X143.224 Y143.82 E64.81617
G1 X142.021 Y143.914 E64.8563
G1 X92.497 Y143.893 E66.50348
G1 X91.354 Y143.765 E66.54173
G1 X89.522 Y142.954 E66.60837
G1 X88.04 Y141.602 E66.67509
G1 X87.212 Y140.147 E66.73077
G1 X86.814 Y138.885 E66.77478
G1 X86.733 Y138.107 E66.8008
G1 X86.732 Y96.872 E68.17228
G1 X86.86 Y95.729 E68.21053
G1 X87.671 Y93.897 E68.27717
G1 X89.023 Y92.415 E68.34389
G0 F6000 X89.277 Y92.731
G1 F1200 X90.639 Y91.956 E68.39601
G1 X91.823 Y91.583 E68.4373
G1 X92.56 Y91.506 E68.46195
G1 X142 Y91.484 E70.10633
G1 X143.535 Y91.615 E70.15757
G1 X145.251 Y92.39 E70.22019
G1 X146.643 Y93.645 E70.28253
G1 X147.423 Y95.026 E70.33528
G1 X147.792 Y96.198 E70.37615
G1 X147.869 Y96.935 E70.4008
G1 X147.87 Y138.084 E71.76942
G1 X147.749 Y139.166 E71.80563
G1 X146.992 Y140.876 E71.86783
G1 X145.723 Y142.27 E71.93053
G1 X144.36 Y143.038 E71.98256
G1 X143.149 Y143.424 E72.02484
G1 X142.021 Y143.514 E72.06247
G1 X92.541 Y143.495 E73.70818
G1 X91.459 Y143.374 E73.7444
G1 X89.745 Y142.615 E73.80674
G1 X88.356 Y141.348 E73.86927
G1 X87.581 Y139.986 E73.92139
G1 X87.208 Y138.802 E73.96268
G1 X87.131 Y138.065 E73.98733
G1 X87.13 Y96.916 E75.35595
G1 X87.251 Y95.834 E75.39216
G1 X88.01 Y94.12 E75.45451
G1 X89.277 Y92.731 E75.51704
G0 F6000 X89.531 Y93.047
G1 F1200 X90.804 Y92.323 E75.56575
G1 X91.901 Y91.977 E75.60401
G1 X92.601 Y91.904 E75.62741
G1 X142 Y91.884 E77.27043
G1 X143.435 Y92.008 E77.31834
G1 X145.028 Y92.728 E77.37648
G1 X146.327 Y93.899 E77.43465
G1 X147.055 Y95.188 E77.48389
G1 X147.398 Y96.276 E77.52183
G1 X147.471 Y96.976 E77.54524
G1 X147.472 Y138.04 E78.91103
G1 X147.358 Y139.061 E78.9452
G1 X146.652 Y140.655 E79.00319
G1 X145.47 Y141.953 E79.06158
G1 X144.199 Y142.67 E79.11011
G1 X143.074 Y143.028 E79.14938
G1 X142.021 Y143.114 E79.18452
G1 X92.585 Y143.097 E80.82877
G1 X91.564 Y142.983 E80.86294
G1 X89.968 Y142.276 E80.921
G1 X88.672 Y141.094 E80.97934
G1 X87.948 Y139.821 E81.02804
G1 X87.602 Y138.724 E81.0663
G1 X87.529 Y138.024 E81.08971
G1 X87.528 Y96.96 E82.45551
G1 X87.642 Y95.939 E82.48967
G1 X88.349 Y94.343 E82.54773
G1 X89.531 Y93.047 E82.60607
G0 F6000 X89.785 Y93.363
G1 F1200 X90.965 Y92.692 E82.65122
G1 X91.984 Y92.371 E82.68676
G1 X92.643 Y92.302 E82.70879
G1 X142 Y92.284 E84.35041
G1 X143.332 Y92.4 E84.39489
G1 X144.805 Y93.066 E84.44865
G1 X146.011 Y94.153 E84.50265
G1 X146.685 Y95.346 E84.54823
G1 X147.004 Y96.359 E84.58355
G1 X147.073 Y97.018 E84.60559
G1 X147.074 Y137.996 E85.96852
G1 X146.967 Y138.956 E86.00065
G1 X146.312 Y140.434 E86.05442
G1 X145.217 Y141.636 E86.1085
G1 X144.038 Y142.302 E86.15354
G1 X142.999 Y142.632 E86.1898
G1 X142.021 Y142.714 E86.22244
G1 X92.629 Y142.699 E87.86522
G1 X91.669 Y142.592 E87.89735
G1 X90.191 Y141.937 E87.95112
G1 X88.988 Y140.84 E88.00527
G1 X88.317 Y139.66 E88.05042
G1 X87.996 Y138.641 E88.08595
G1 X87.927 Y137.982 E88.10799
G1 X87.926 Y97.004 E89.47092
G1 X88.033 Y96.044 E89.50305
G1 X88.688 Y94.566 E89.55682
G1 X89.785 Y93.363 E89.61097
G0 F6000 X90.037 Y93.68
G1 F1200 X91.13 Y93.059 E89.65278
G1 X92.062 Y92.765 E89.68529
G1 X92.685 Y92.7 E89.70612
G1 X142 Y92.684 E91.34634
G1 X143.226 Y92.792 E91.38728
G1 X144.585 Y93.406 E91.43688
G1 X145.695 Y94.407 E91.48659
G1 X146.317 Y95.508 E91.52865
G1 X146.61 Y96.437 E91.56105
G1 X146.675 Y97.06 E91.58188
G1 X146.676 Y137.952 E92.94196
G1 X146.576 Y138.851 E92.97204
G1 X145.972 Y140.213 E93.0216
G1 X144.964 Y141.319 E93.07137
G1 X143.877 Y141.934 E93.11291
G1 X142.924 Y142.236 E93.14616
G1 X142.021 Y142.314 E93.1763
G1 X92.673 Y142.301 E94.81763
G1 X91.774 Y142.201 E94.84771
G1 X90.412 Y141.597 E94.89727
G1 X89.305 Y140.588 E94.94708
G1 X88.684 Y139.495 E94.9889
G1 X88.39 Y138.563 E95.0214
G1 X88.325 Y137.94 E95.04223
G1 X88.324 Y97.048 E96.40231
G1 X88.424 Y96.149 E96.43239
G1 X89.028 Y94.787 E96.48195
G1 X90.037 Y93.68 E96.53176
G0 F6000 X90.289 Y93.997
G1 F1200 X91.291 Y93.428 E96.57009
G1 X92.145 Y93.159 E96.59987
G1 X92.727 Y93.098 E96.61933
G1 X142 Y93.084 E98.25816
G1 X143.123 Y93.184 E98.29566
G1 X144.362 Y93.744 E98.34088
G1 X145.379 Y94.661 E98.38643
G1 X145.947 Y95.666 E98.42482
G1 X146.216 Y96.52 E98.4546
G1 X146.277 Y97.102 E98.47407
G1 X146.278 Y137.908 E99.83128
G1 X146.185 Y138.746 E99.85932
G1 X145.632 Y139.992 E99.90466
G1 X144.711 Y141.003 E99.95015
G1 X143.716 Y141.566 E99.98817
G1 X142.845 Y141.842 E100.01856
G1 X142.021 Y141.914 E100.04607
G1 X92.717 Y141.903 E101.68593
G1 X91.879 Y141.81 E101.71398
G1 X90.633 Y141.257 E101.75932
G1 X89.622 Y140.336 E101.8048
G1 X89.053 Y139.334 E101.84313
G1 X88.784 Y138.48 E101.87291
G1 X88.723 Y137.898 E101.89237
G1 X88.722 Y97.092 E103.24958
G1 X88.815 Y96.254 E103.27763
G1 X89.368 Y95.008 E103.32297
G1 X90.289 Y93.997 E103.36845
G0 F6000 X90.542 Y94.313
G1 F1200 X91.453 Y93.796 E103.40329
G1 X92.223 Y93.553 E103.43015
G1 X92.769 Y93.496 E103.44841
G1 X142 Y93.484 E105.08584
G1 X143.02 Y93.576 E105.1199
G1 X144.139 Y94.082 E105.16075
G1 X145.063 Y94.915 E105.20212
G1 X145.579 Y95.828 E105.23701
G1 X145.822 Y96.598 E105.26386
G1 X145.879 Y97.144 E105.28212
G1 X145.88 Y137.864 E106.63647
G1 X145.794 Y138.641 E106.66247
G1 X145.292 Y139.771 E106.7036
G1 X144.458 Y140.687 E106.7448
G1 X143.555 Y141.198 E106.77931
G1 X142.765 Y141.448 E106.80687
G1 X142.021 Y141.514 E106.83171
G1 X92.761 Y141.505 E108.47011
G1 X91.984 Y141.419 E108.49611
G1 X90.854 Y140.917 E108.53723
G1 X89.938 Y140.083 E108.57844
G1 X89.421 Y139.172 E108.61328
G1 X89.178 Y138.402 E108.64013
G1 X89.121 Y137.856 E108.65839
G1 X89.12 Y97.136 E110.01274
G1 X89.206 Y96.359 E110.03874
G1 X89.708 Y95.229 E110.07987
G1 X90.542 Y94.313 E110.12107
G0 F6000 X90.795 Y94.629
G1 F1200 X91.611 Y94.166 E110.15228
G1 X92.306 Y93.947 E110.17651
G1 X92.811 Y93.894 E110.1934
G1 X142 Y93.884 E111.82943
G1 X142.914 Y93.968 E111.85996
G1 X143.919 Y94.422 E111.89664
G1 X144.747 Y95.169 E111.93373
G1 X145.209 Y95.986 E111.96495
G1 X145.428 Y96.681 E111.98918
G1 X145.481 Y97.186 E112.00607
G1 X145.482 Y137.82 E113.35757
G1 X145.403 Y138.537 E113.38156
G1 X144.953 Y139.549 E113.41839
G1 X144.205 Y140.371 E113.45536
G1 X143.394 Y140.83 E113.48635
G1 X142.686 Y141.054 E113.51105
G1 X142.021 Y141.114 E113.53326
G1 X92.805 Y141.107 E115.17019
G1 X92.088 Y141.028 E115.19418
G1 X91.076 Y140.578 E115.23102
G1 X90.254 Y139.83 E115.26799
G1 X89.791 Y139.014 E115.29919
G1 X89.572 Y138.319 E115.32343
G1 X89.519 Y137.814 E115.34031
G1 X89.518 Y97.18 E116.69181
G1 X89.597 Y96.463 E116.7158
G1 X90.047 Y95.451 E116.75264
G1 X90.795 Y94.629 E116.7896
G0 F6000 X91.048 Y94.945
G1 F1200 X91.769 Y94.536 E116.81717
G1 X92.389 Y94.341 E116.83879
G1 X92.853 Y94.292 E116.85431
G1 X142 Y94.284 E118.48894
G1 X142.809 Y94.36 E118.51597
G1 X143.698 Y94.761 E118.54841
G1 X144.431 Y95.423 E118.58126
G1 X144.839 Y96.144 E118.60881
G1 X145.034 Y96.764 E118.63043
G1 X145.083 Y97.228 E118.64595
G1 X145.084 Y137.776 E119.99458
G1 X145.012 Y138.433 E120.01656
G1 X144.614 Y139.327 E120.04911
G1 X143.952 Y140.055 E120.08184
G1 X143.233 Y140.462 E120.10932
G1 X142.607 Y140.66 E120.13115
G1 X142.021 Y140.714 E120.15073
G1 X92.849 Y140.709 E121.78619
G1 X92.192 Y140.637 E121.80818
G1 X91.298 Y140.239 E121.84072
G1 X90.57 Y139.577 E121.87345
G1 X90.161 Y138.856 E121.90102
G1 X89.966 Y138.236 E121.92264
G1 X89.917 Y137.772 E121.93816
G1 X89.916 Y97.224 E123.28679
G1 X89.988 Y96.567 E123.30877
G1 X90.386 Y95.673 E123.34132
G1 X91.048 Y94.945 E123.37405
G0 F6000 X91.301 Y95.261
G1 F1200 X91.931 Y94.904 E123.39813
G1 X92.467 Y94.735 E123.41683
G1 X92.895 Y94.69 E123.43114
G1 X142 Y94.684 E125.06438
G1 X142.704 Y94.752 E125.0879
G1 X143.477 Y95.1 E125.1161
G1 X144.115 Y95.677 E125.14471
G1 X144.471 Y96.306 E125.16875
G1 X144.64 Y96.842 E125.18744
G1 X144.685 Y97.27 E125.20175
G1 X144.686 Y137.733 E126.54756
G1 X144.621 Y138.329 E126.5675
G1 X144.275 Y139.105 E126.59576
