;FLAVOR:Marlin
;TIME:5305
;Filament used: 3.75245m
;Layer height: 0.2
;MINX:79.503
;MINY:83.877
;MINZ:0.2
;MAXX:155.497
;MAXY:151.122
;MAXZ:16
;TARGET_MACHINE.NAME:Creality Ender-3
;Generated with Cura_SteamEngine 5.9.0
M140 S50
M105
M190 S50
M104 S200
M105
M109 S200
M82 ;absolute extrusion mode
; Ender 3 Custom Start G-code
G92 E0 ; Reset Extruder
G28 ; Home all axes
G1 Z2.0 F3000 ; Move Z Axis up little to prevent scratching of Heat Bed
G1 X0.1 Y20 Z0.3 F5000.0 ; Move to start position
G1 X0.1 Y200.0 Z0.3 F1500.0 E15 ; Draw the first line
G1 X0.4 Y200.0 Z0.3 F5000.0 ; Move to side a little
G1 X0.4 Y20 Z0.3 F1500.0 E30 ; Draw the second line
G92 E0 ; Reset Extruder
G1 Z2.0 F3000 ; Move Z Axis up little to prevent scratching of Heat Bed
G1 X5 Y20 Z0.3 F5000.0 ; Move over to prevent blob squish
G92 E0
G92 E0
G1 F2700 E-5
;LAYER_COUNT:80
;LAYER:0
M107
G0 F6000 X92.43 Y151.122 Z0.2
;TYPE:SKIRT
G1 F2700 E0
G1 F1200 X91.725 Y151.11 E0.02345
G1 X90.753 Y151.05 E0.05584
G1 X89.835 Y150.913 E0.08671
G1 X89.356 Y150.818 E0.10296
G1 X88.412 Y150.585 E0.13529
G1 X87.556 Y150.294 E0.16537
G1 X86.643 Y149.9 E0.19844
G1 X85.753 Y149.446 E0.23167
G1 X84.987 Y148.968 E0.2617
G1 X83.876 Y148.104 E0.30851
G1 X83.588 Y147.847 E0.32135
G1 X82.916 Y147.19 E0.35261
G1 X82.21 Y146.363 E0.38877
G1 X81.991 Y146.077 E0.40075
G1 X81.434 Y145.279 E0.43312
G1 X80.967 Y144.469 E0.46422
G1 X80.569 Y143.632 E0.49505
G1 X80.205 Y142.728 E0.52746
G1 X79.941 Y141.864 E0.55751
G1 X79.748 Y141.007 E0.58672
G1 X79.601 Y140.116 E0.61676
G1 X79.522 Y138.98 E0.65463
G1 X79.503 Y137.856 E0.69202
G1 X79.503 Y96.805 E2.05739
G1 X79.515 Y96.096 E2.08097
G1 X79.575 Y95.127 E2.11326
G1 X79.706 Y94.236 E2.14322
G1 X79.787 Y93.817 E2.15741
G1 X80.014 Y92.872 E2.18973
G1 X80.309 Y91.989 E2.2207
G1 X80.556 Y91.395 E2.24209
G1 X80.73 Y91.01 E2.25615
G1 X81.171 Y90.143 E2.2885
G1 X81.672 Y89.341 E2.31995
G1 X82.506 Y88.27 E2.3651
G1 X82.75 Y87.995 E2.37733
G1 X83.445 Y87.282 E2.41044
G1 X84.278 Y86.572 E2.44685
G1 X84.565 Y86.353 E2.45886
G1 X85.365 Y85.798 E2.49124
G1 X86.148 Y85.348 E2.52128
G1 X86.982 Y84.95 E2.55201
G1 X87.885 Y84.585 E2.58441
G1 X88.778 Y84.312 E2.61547
G1 X89.597 Y84.127 E2.64339
G1 X90.488 Y83.979 E2.67343
G1 X91.645 Y83.897 E2.71201
G1 X92.783 Y83.878 E2.74987
G1 X142.417 Y83.877 E4.4007
G1 X143.275 Y83.89 E4.42924
G1 X144.247 Y83.95 E4.46163
G1 X145.165 Y84.087 E4.4925
G1 X145.644 Y84.182 E4.50874
G1 X146.588 Y84.415 E4.54108
G1 X147.444 Y84.706 E4.57115
G1 X148.038 Y84.955 E4.59258
G1 X148.404 Y85.123 E4.60597
G1 X149.271 Y85.568 E4.63838
G1 X150.104 Y86.095 E4.67117
G1 X151.085 Y86.864 E4.71263
G1 X151.39 Y87.134 E4.72618
G1 X152.091 Y87.817 E4.75873
G1 X152.767 Y88.608 E4.79333
G1 X152.986 Y88.891 E4.80524
G1 X153.545 Y89.687 E4.83759
G1 X154.029 Y90.524 E4.86975
G1 X154.409 Y91.316 E4.89896
G1 X154.771 Y92.207 E4.93095
G1 X155.065 Y93.163 E4.96422
G1 X155.251 Y93.989 E4.99238
G1 X155.402 Y94.918 E5.02368
G1 X155.478 Y96.024 E5.06055
G1 X155.497 Y97.144 E5.09781
G1 X155.497 Y138.195 E6.46317
G1 X155.485 Y138.9 E6.48662
G1 X155.425 Y139.872 E6.51901
G1 X155.287 Y140.793 E6.54999
G1 X155.197 Y141.25 E6.56548
G1 X154.965 Y142.196 E6.59788
G1 X154.664 Y143.083 E6.62903
G1 X154.274 Y143.984 E6.66169
G1 X153.82 Y144.874 E6.69492
G1 X153.294 Y145.71 E6.72777
G1 X152.48 Y146.747 E6.77162
G1 X152.237 Y147.02 E6.78377
G1 X151.541 Y147.731 E6.81686
G1 X150.748 Y148.407 E6.85152
G1 X150.461 Y148.627 E6.86355
G1 X149.663 Y149.186 E6.89596
G1 X148.853 Y149.653 E6.92705
G1 X147.991 Y150.063 E6.9588
G1 X147.071 Y150.429 E6.99173
G1 X145.739 Y150.801 E7.03773
G1 X145.403 Y150.873 E7.04916
G1 X144.512 Y151.021 E7.0792
G1 X143.355 Y151.103 E7.11778
G1 X142.231 Y151.122 E7.15517
G1 X92.43 Y151.122 E8.81156
G0 F6000 X92.436 Y150.722
G1 F1200 X142.224 Y150.722 E10.46751
G1 X143.348 Y150.703 E10.5049
G1 X144.446 Y150.626 E10.54151
G1 X145.337 Y150.478 E10.57155
G1 X145.656 Y150.41 E10.5824
G1 X146.963 Y150.044 E10.62754
G1 X147.842 Y149.692 E10.65904
G1 X148.653 Y149.306 E10.68891
G1 X149.463 Y148.839 E10.72001
G1 X150.231 Y148.3 E10.75121
G1 X150.504 Y148.09 E10.76267
G1 X151.282 Y147.427 E10.79667
G1 X151.938 Y146.754 E10.82793
G1 X152.181 Y146.481 E10.84008
G1 X152.979 Y145.463 E10.8831
G1 X153.481 Y144.662 E10.91455
G1 X153.907 Y143.825 E10.94578
G1 X154.285 Y142.954 E10.97736
G1 X154.586 Y142.067 E11.00852
G1 X154.808 Y141.155 E11.03974
G1 X154.891 Y140.734 E11.05401
G1 X155.029 Y139.813 E11.08498
G1 X155.086 Y138.876 E11.1162
G1 X155.097 Y138.189 E11.13906
G1 X155.097 Y97.151 E12.50399
G1 X155.078 Y96.031 E12.54124
G1 X155.003 Y94.946 E12.57742
G1 X154.856 Y94.054 E12.60748
G1 X154.675 Y93.251 E12.63486
G1 X154.4 Y92.358 E12.66594
G1 X154.038 Y91.467 E12.69793
G1 X153.668 Y90.697 E12.72634
G1 X153.199 Y89.888 E12.75744
G1 X152.659 Y89.121 E12.78864
G1 X152.451 Y88.853 E12.79993
G1 X151.787 Y88.077 E12.83389
G1 X151.111 Y87.421 E12.86522
G1 X150.838 Y87.179 E12.87736
G1 X149.857 Y86.41 E12.91882
G1 X149.058 Y85.906 E12.95024
G1 X148.222 Y85.479 E12.98146
G1 X147.872 Y85.319 E12.99426
G1 X147.315 Y85.085 E13.01435
G1 X146.459 Y84.794 E13.04442
G1 X145.548 Y84.57 E13.07563
G1 X145.106 Y84.483 E13.09061
G1 X144.188 Y84.346 E13.12148
G1 X143.251 Y84.289 E13.1527
G1 X142.411 Y84.277 E13.18064
G1 X92.783 Y84.278 E14.83128
G1 X91.652 Y84.297 E14.8689
G1 X90.554 Y84.374 E14.90551
G1 X89.663 Y84.522 E14.93555
G1 X88.895 Y84.695 E14.96173
G1 X88.002 Y84.968 E14.99279
G1 X87.132 Y85.321 E15.02402
G1 X86.347 Y85.695 E15.05294
G1 X85.564 Y86.145 E15.08298
G1 X84.794 Y86.681 E15.11418
G1 X84.521 Y86.89 E15.12562
G1 X83.705 Y87.586 E15.16129
G1 X83.037 Y88.274 E15.19318
G1 X82.806 Y88.535 E15.20478
G1 X81.988 Y89.587 E15.2491
G1 X81.511 Y90.354 E15.27914
G1 X81.087 Y91.191 E15.31035
G1 X80.92 Y91.56 E15.32382
G1 X80.679 Y92.142 E15.34477
G1 X80.394 Y92.998 E15.37478
G1 X80.176 Y93.91 E15.40597
G1 X80.099 Y94.311 E15.41955
G1 X79.971 Y95.185 E15.44893
G1 X79.914 Y96.12 E15.48008
G1 X79.903 Y96.811 E15.50307
G1 X79.903 Y137.849 E16.868
G1 X79.922 Y138.973 E16.90539
G1 X79.996 Y140.051 E16.94133
G1 X80.143 Y140.942 E16.97136
G1 X80.324 Y141.747 E16.9988
G1 X80.588 Y142.611 E17.02885
G1 X80.94 Y143.482 E17.0601
G1 X81.314 Y144.269 E17.08908
G1 X81.781 Y145.079 E17.12018
G1 X82.319 Y145.848 E17.15139
G1 X82.527 Y146.119 E17.16275
G1 X83.196 Y146.904 E17.19706
G1 X83.868 Y147.561 E17.22832
G1 X84.142 Y147.805 E17.24052
G1 X85.199 Y148.629 E17.2851
G1 X85.965 Y149.107 E17.31513
G1 X86.802 Y149.533 E17.34636
G1 X87.685 Y149.915 E17.37836
G1 X88.541 Y150.206 E17.40843
G1 X89.452 Y150.43 E17.43964
G1 X89.894 Y150.517 E17.45462
G1 X90.812 Y150.654 E17.48549
G1 X91.749 Y150.711 E17.51671
G1 X92.436 Y150.722 E17.53957
G0 F6000 X92.442 Y150.322
G1 F1200 X91.773 Y150.312 E17.56182
G1 X90.871 Y150.258 E17.59187
G1 X89.953 Y150.121 E17.62274
G1 X89.547 Y150.041 E17.63651
G1 X88.67 Y149.827 E17.66653
G1 X87.814 Y149.536 E17.6966
G1 X86.983 Y149.176 E17.72672
G1 X86.177 Y148.768 E17.75677
G1 X85.411 Y148.29 E17.7868
G1 X84.408 Y147.506 E17.82914
G1 X84.147 Y147.274 E17.84076
G1 X83.5 Y146.644 E17.87079
G1 X82.844 Y145.875 E17.90441
G1 X82.646 Y145.618 E17.9152
G1 X82.127 Y144.879 E17.94524
G1 X81.675 Y144.097 E17.97528
G1 X81.311 Y143.331 E18.00349
G1 X80.971 Y142.494 E18.03354
G1 X80.707 Y141.63 E18.06358
G1 X80.538 Y140.877 E18.08925
G1 X80.391 Y139.986 E18.11929
G1 X80.322 Y138.966 E18.15329
G1 X80.303 Y137.842 E18.19068
G1 X80.303 Y96.817 E19.55518
G1 X80.313 Y96.144 E19.57756
G1 X80.367 Y95.243 E19.60759
G1 X80.492 Y94.386 E19.63639
G1 X80.565 Y94.003 E19.64936
G1 X80.774 Y93.124 E19.67941
G1 X81.059 Y92.268 E19.70942
G1 X81.285 Y91.724 E19.72901
G1 X81.444 Y91.371 E19.74189
G1 X81.851 Y90.565 E19.77192
G1 X82.328 Y89.798 E19.80196
G1 X83.106 Y88.8 E19.84405
G1 X83.337 Y88.539 E19.85564
G1 X83.965 Y87.89 E19.88568
G1 X84.765 Y87.207 E19.92066
G1 X85.023 Y87.009 E19.93148
G1 X85.763 Y86.492 E19.9615
G1 X86.546 Y86.042 E19.99154
G1 X87.283 Y85.691 E20.01869
G1 X88.119 Y85.35 E20.04872
G1 X88.983 Y85.085 E20.07878
G1 X89.729 Y84.917 E20.10421
G1 X90.62 Y84.769 E20.13425
G1 X91.659 Y84.697 E20.16889
G1 X92.783 Y84.678 E20.20628
G1 X142.406 Y84.677 E21.85675
G1 X143.227 Y84.688 E21.88406
G1 X144.129 Y84.742 E21.91412
G1 X145.047 Y84.879 E21.94499
G1 X145.453 Y84.959 E21.95875
G1 X146.33 Y85.173 E21.98877
G1 X147.186 Y85.464 E22.01885
G1 X147.706 Y85.683 E22.03761
G1 X148.04 Y85.835 E22.04982
G1 X148.845 Y86.245 E22.07986
G1 X149.61 Y86.725 E22.1099
G1 X150.573 Y87.479 E22.15058
G1 X150.833 Y87.709 E22.16213
G1 X151.483 Y88.337 E22.19219
G1 X152.135 Y89.098 E22.22552
G1 X152.332 Y89.352 E22.23621
G1 X152.853 Y90.089 E22.26623
G1 X153.307 Y90.87 E22.29628
G1 X153.677 Y91.64 E22.32469
G1 X154.018 Y92.476 E22.35472
G1 X154.285 Y93.339 E22.38476
G1 X154.461 Y94.119 E22.41136
G1 X154.608 Y95.011 E22.44143
G1 X154.678 Y96.038 E22.47566
G1 X154.697 Y97.158 E22.51292
G1 X154.697 Y138.183 E23.87742
G1 X154.687 Y138.852 E23.89967
G1 X154.633 Y139.754 E23.92973
G1 X154.498 Y140.657 E23.96009
G1 X154.419 Y141.061 E23.97379
G1 X154.207 Y141.939 E24.00383
G1 X153.918 Y142.795 E24.03388
G1 X153.55 Y143.644 E24.06465
G1 X153.142 Y144.45 E24.0947
G1 X152.664 Y145.216 E24.12473
G1 X151.882 Y146.215 E24.16693
G1 X151.651 Y146.475 E24.17849
G1 X151.022 Y147.123 E24.20853
G1 X150.26 Y147.773 E24.24184
G1 X150.001 Y147.973 E24.25273
G1 X149.263 Y148.493 E24.28275
G1 X148.481 Y148.945 E24.3128
G1 X147.692 Y149.321 E24.34187
G1 X146.855 Y149.659 E24.37189
G1 X145.573 Y150.019 E24.41618
G1 X145.271 Y150.083 E24.42645
G1 X144.38 Y150.231 E24.45649
G1 X143.341 Y150.303 E24.49113
G1 X142.217 Y150.322 E24.52852
G1 X92.442 Y150.322 E26.18404
G1 F2700 E21.18404
;MESH:d1mini-base.stl
G0 F6000 X92.443 Y139.98
G0 X117.5 Y138.713
;TYPE:WALL-INNER
G1 F2700 E26.18404
G1 F1200 X143.006 Y138.71 E27.03237
G1 X143.061 Y138.672 E27.0346
G1 X143.088 Y138.555 E27.03859
G1 X143.086 Y96.366 E28.4418
G1 X143.048 Y96.312 E28.444
G1 X142.928 Y96.284 E28.4481
G1 X91.99 Y96.286 E30.1423
G1 X91.936 Y96.324 E30.1445
G1 X91.908 Y96.444 E30.1486
G1 X91.908 Y138.619 E31.55134
G1 X91.953 Y138.689 E31.55411
G1 X92.068 Y138.716 E31.55804
G1 X117.5 Y138.713 E32.40391
G0 F6000 X117.5 Y139.114
;TYPE:WALL-OUTER
G1 F1200 X143.055 Y139.112 E33.25387
G1 X143.355 Y138.956 E33.26512
G1 X143.433 Y138.839 E33.2698
G1 X143.488 Y138.601 E33.27792
G1 X143.488 Y96.317 E34.68429
G1 X143.332 Y96.017 E34.69554
G1 X143.215 Y95.939 E34.70022
G1 X142.973 Y95.884 E34.70847
G1 X91.941 Y95.884 E36.4058
G1 X91.641 Y96.04 E36.41705
G1 X91.563 Y96.157 E36.42172
G1 X91.508 Y96.399 E36.42998
G1 X91.508 Y138.681 E37.83628
G1 X91.666 Y138.981 E37.84756
G1 X91.782 Y139.061 E37.85225
G1 X92.023 Y139.116 E37.86047
G1 X117.5 Y139.114 E38.70784
G0 F6000 X117.5 Y138.352
;TYPE:SKIN
G1 F1200 X92.268 Y138.352 E39.54706
G1 X92.268 Y96.644 E40.93427
G1 X142.728 Y96.644 E42.61258
G1 X142.728 Y138.352 E43.99979
G1 X117.5 Y138.352 E44.83888
G0 F6000 X117.5 Y138.614
G0 X92.897 Y138.615
G0 X92.897 Y138.152
G1 F1200 X92.468 Y137.723 E44.85906
G0 F6000 X92.468 Y137.158
G1 F1200 X93.463 Y138.152 E44.90583
G0 F6000 X94.028 Y138.152
G1 F1200 X92.468 Y136.592 E44.97921
G0 F6000 X92.468 Y136.026
G1 F1200 X94.594 Y138.152 E45.07921
G0 F6000 X95.16 Y138.152
G1 F1200 X92.468 Y135.46 E45.20584
G0 F6000 X92.468 Y134.895
G1 F1200 X95.725 Y138.152 E45.35904
G0 F6000 X96.291 Y138.152
G1 F1200 X92.468 Y134.329 E45.53886
G0 F6000 X92.468 Y133.763
G1 F1200 X96.857 Y138.152 E45.7453
G0 F6000 X97.422 Y138.152
G1 F1200 X92.468 Y133.198 E45.97832
G0 F6000 X92.468 Y132.632
G1 F1200 X97.988 Y138.152 E46.23797
G0 F6000 X98.554 Y138.152
G1 F1200 X92.468 Y132.066 E46.52423
G0 F6000 X92.468 Y131.501
G1 F1200 X99.119 Y138.152 E46.83708
G0 F6000 X99.685 Y138.152
G1 F1200 X92.468 Y130.935 E47.17654
G0 F6000 X92.468 Y130.369
G1 F1200 X100.251 Y138.152 E47.54263
G0 F6000 X100.816 Y138.152
G1 F1200 X92.468 Y129.804 E47.9353
G0 F6000 X92.468 Y129.238
G1 F1200 X101.382 Y138.152 E48.35458
G0 F6000 X101.948 Y138.152
G1 F1200 X92.468 Y128.672 E48.80049
G0 F6000 X92.468 Y128.107
G1 F1200 X102.514 Y138.152 E49.273
G0 F6000 X103.079 Y138.152
G1 F1200 X92.468 Y127.541 E49.77211
G0 F6000 X92.468 Y126.975
G1 F1200 X103.645 Y138.152 E50.29784
G0 F6000 X104.211 Y138.152
G1 F1200 X92.468 Y126.409 E50.8502
G0 F6000 X92.468 Y125.844
G1 F1200 X104.776 Y138.152 E51.42913
G0 F6000 X105.342 Y138.152
G1 F1200 X92.468 Y125.278 E52.03468
G0 F6000 X92.468 Y124.712
G1 F1200 X105.908 Y138.152 E52.66686
G0 F6000 X106.473 Y138.152
G1 F1200 X92.468 Y124.147 E53.32561
G0 F6000 X92.468 Y123.581
G1 F1200 X107.039 Y138.152 E54.01099
G0 F6000 X107.605 Y138.152
G1 F1200 X92.468 Y123.015 E54.72298
G0 F6000 X92.468 Y122.45
G1 F1200 X108.17 Y138.152 E55.46156
G0 F6000 X108.736 Y138.152
G1 F1200 X92.468 Y121.884 E56.22675
G0 F6000 X92.468 Y121.318
G1 F1200 X109.302 Y138.152 E57.01857
G0 F6000 X109.867 Y138.152
G1 F1200 X92.468 Y120.753 E57.83697
G0 F6000 X92.468 Y120.187
G1 F1200 X110.433 Y138.152 E58.68199
G0 F6000 X110.999 Y138.152
G1 F1200 X92.468 Y119.621 E59.55363
G0 F6000 X92.468 Y119.056
G1 F1200 X111.564 Y138.152 E60.45185
G0 F6000 X112.13 Y138.152
G1 F1200 X92.468 Y118.49 E61.37669
G0 F6000 X92.468 Y117.924
G1 F1200 X112.696 Y138.152 E62.32815
G0 F6000 X113.262 Y138.152
G1 F1200 X92.468 Y117.359 E63.30621
G0 F6000 X92.468 Y116.793
G1 F1200 X113.827 Y138.152 E64.31088
G0 F6000 X114.393 Y138.152
G1 F1200 X92.468 Y116.227 E65.34216
G0 F6000 X92.468 Y115.661
G1 F1200 X114.959 Y138.152 E66.40007
G0 F6000 X115.524 Y138.152
G1 F1200 X92.468 Y115.096 E67.48455
G0 F6000 X92.468 Y114.53
G1 F1200 X116.09 Y138.152 E68.59566
G0 F6000 X116.656 Y138.152
G1 F1200 X92.468 Y113.964 E69.73339
G0 F6000 X92.468 Y113.399
G1 F1200 X117.221 Y138.152 E70.89769
G0 F6000 X117.787 Y138.152
G1 F1200 X92.468 Y112.833 E72.08862
G0 F6000 X92.468 Y112.267
G1 F1200 X118.353 Y138.152 E73.30617
G0 F6000 X118.918 Y138.152
G1 F1200 X92.468 Y111.702 E74.5503
G0 F6000 X92.468 Y111.136
G1 F1200 X119.484 Y138.152 E75.82105
G0 F6000 X120.05 Y138.152
G1 F1200 X92.468 Y110.57 E77.11842
G0 F6000 X92.468 Y110.005
G1 F1200 X120.615 Y138.152 E78.44237
G0 F6000 X121.181 Y138.152
G1 F1200 X92.468 Y109.439 E79.79294
G0 F6000 X92.468 Y108.873
G1 F1200 X121.747 Y138.152 E81.17014
G0 F6000 X122.313 Y138.152
G1 F1200 X92.468 Y108.308 E82.57393
G0 F6000 X92.468 Y107.742
G1 F1200 X122.878 Y138.152 E84.00432
G0 F6000 X123.444 Y138.152
G1 F1200 X92.468 Y107.176 E85.46134
G0 F6000 X92.468 Y106.61
G1 F1200 X124.01 Y138.152 E86.94498
G0 F6000 X124.575 Y138.152
G1 F1200 X92.468 Y106.045 E88.45519
G0 F6000 X92.468 Y105.479
G1 F1200 X125.141 Y138.152 E89.99203
G0 F6000 X125.707 Y138.152
G1 F1200 X92.468 Y104.913 E91.55549
G0 F6000 X92.468 Y104.348
G1 F1200 X126.272 Y138.152 E93.14553
G0 F6000 X126.838 Y138.152
G1 F1200 X92.468 Y103.782 E94.76219
G0 F6000 X92.468 Y103.216
G1 F1200 X127.404 Y138.152 E96.40547
G0 F6000 X127.969 Y138.152
G1 F1200 X92.468 Y102.651 E98.07533
G0 F6000 X92.468 Y102.085
G1 F1200 X128.535 Y138.152 E99.77181
G0 F6000 X129.101 Y138.152
G1 F1200 X92.468 Y101.519 E101.49491
G0 F6000 X92.468 Y100.954
G1 F1200 X129.666 Y138.152 E103.24459
G0 F6000 X130.232 Y138.152
G1 F1200 X92.468 Y100.388 E105.02089
G0 F6000 X92.468 Y99.822
G1 F1200 X130.798 Y138.152 E106.82382
G0 F6000 X131.363 Y138.152
G1 F1200 X92.468 Y99.257 E108.65332
G0 F6000 X92.468 Y98.691
G1 F1200 X131.929 Y138.152 E110.50945
G0 F6000 X132.495 Y138.152
G1 F1200 X92.468 Y98.125 E112.39219
G0 F6000 X92.468 Y97.56
G1 F1200 X133.061 Y138.152 E114.30154
G0 F6000 X133.626 Y138.152
G1 F1200 X92.468 Y96.994 E116.23749
G0 F6000 X92.885 Y96.845
G1 F1200 X134.192 Y138.152 E118.18044
G0 F6000 X134.758 Y138.152
G1 F1200 X93.451 Y96.845 E120.1234
G0 F6000 X94.016 Y96.845
G1 F1200 X135.323 Y138.152 E122.06635
G0 F6000 X135.889 Y138.152
G1 F1200 X94.582 Y96.845 E124.00931
G0 F6000 X95.148 Y96.845
G1 F1200 X136.455 Y138.152 E125.95226
G0 F6000 X137.02 Y138.152
G1 F1200 X95.713 Y96.845 E127.89521
G0 F6000 X96.279 Y96.845
G1 F1200 X137.586 Y138.152 E129.83817
G0 F6000 X138.152 Y138.152
G1 F1200 X96.845 Y96.845 E131.78112
