;FLAVOR:Marlin
;TIME:3783
;Filament used: 2.37151m
;Layer height: 0.2
;MINX:79.501
;MINY:83.876
;MINZ:0.2
;MAXX:155.499
;MAXY:151.124
;MAXZ:5.2
;TARGET_MACHINE.NAME:Creality Ender-3
;Generated with Cura_SteamEngine 5.9.0
M140 S50
M105
M190 S50
M104 S200
M105
M109 S200
M82 ;absolute extrusion mode
; Ender 3 Custom Start G-code
G92 E0 ; Reset Extruder
G28 ; Home all axes
G1 Z2.0 F3000 ; Move Z Axis up little to prevent scratching of Heat Bed
G1 X0.1 Y20 Z0.3 F5000.0 ; Move to start position
G1 X0.1 Y200.0 Z0.3 F1500.0 E15 ; Draw the first line
G1 X0.4 Y200.0 Z0.3 F5000.0 ; Move to side a little
G1 X0.4 Y20 Z0.3 F1500.0 E30 ; Draw the second line
G92 E0 ; Reset Extruder
G1 Z2.0 F3000 ; Move Z Axis up little to prevent scratching of Heat Bed
G1 X5 Y20 Z0.3 F5000.0 ; Move over to prevent blob squish
G92 E0
G92 E0
G1 F2700 E-5
;LAYER_COUNT:26
;LAYER:0
M107
G0 F6000 X95.207 Y151.123 Z0.2
;TYPE:SKIRT
G1 F2700 E0
G1 F1200 X94.469 Y151.111 E0.02455
G1 X93.497 Y151.052 E0.05694
G1 X92.534 Y150.906 E0.08933
G1 X91.587 Y150.675 E0.12175
G1 X90.731 Y150.387 E0.15179
G1 X89.775 Y149.969 E0.1865
G1 X88.924 Y149.499 E0.21883
G1 X88.173 Y148.997 E0.24888
G1 X87.36 Y148.342 E0.2836
G1 X86.725 Y147.732 E0.31289
G1 X85.827 Y146.796 E0.35603
G1 X83.957 Y144.901 E0.44458
G1 X82.837 Y143.815 E0.49647
G1 X82.171 Y143.105 E0.52884
G1 X81.569 Y142.339 E0.56125
G1 X81.038 Y141.523 E0.59363
G1 X80.582 Y140.663 E0.626
G1 X80.203 Y139.766 E0.65839
G1 X79.905 Y138.838 E0.69081
G1 X79.691 Y137.889 E0.72317
G1 X79.561 Y136.929 E0.75539
G1 X79.516 Y136.124 E0.7822
G1 X79.502 Y135.276 E0.81041
G1 X79.501 Y99.756 E1.99181
G1 X79.514 Y98.872 E2.02122
G1 X79.573 Y97.9 E2.0536
G1 X79.719 Y96.937 E2.086
G1 X79.95 Y95.99 E2.11842
G1 X80.238 Y95.134 E2.14846
G1 X80.656 Y94.178 E2.18316
G1 X81.126 Y93.327 E2.2155
G1 X81.628 Y92.576 E2.24554
G1 X82.283 Y91.763 E2.28027
G1 X82.893 Y91.128 E2.30955
G1 X83.293 Y90.744 E2.328
G1 X85.115 Y88.945 E2.41316
G1 X86.748 Y87.247 E2.49151
G1 X87.455 Y86.578 E2.52389
G1 X88.219 Y85.974 E2.55628
G1 X89.034 Y85.44 E2.58869
G1 X89.891 Y84.981 E2.62102
G1 X90.788 Y84.597 E2.65347
G1 X91.713 Y84.295 E2.68584
G1 X92.592 Y84.09 E2.71586
G1 X93.622 Y83.945 E2.75045
G1 X94.44 Y83.897 E2.77771
G1 X95.615 Y83.876 E2.81679
G1 X139.647 Y83.876 E4.28131
G1 X140.529 Y83.889 E4.31064
G1 X141.501 Y83.948 E4.34303
G1 X142.464 Y84.094 E4.37543
G1 X143.412 Y84.325 E4.40788
G1 X144.268 Y84.613 E4.43792
G1 X145.224 Y85.032 E4.47264
G1 X146.077 Y85.503 E4.50504
G1 X146.883 Y86.048 E4.53741
G1 X147.638 Y86.659 E4.56971
G1 X148.242 Y87.237 E4.59752
G1 X149.15 Y88.18 E4.64106
G1 X151.039 Y90.095 E4.73052
G1 X152.16 Y91.181 E4.78243
G1 X152.826 Y91.89 E4.81479
G1 X153.427 Y92.655 E4.84714
G1 X153.96 Y93.472 E4.87959
G1 X154.416 Y94.332 E4.91197
G1 X154.796 Y95.229 E4.94437
G1 X155.094 Y96.156 E4.97675
G1 X155.309 Y97.106 E5.00915
G1 X155.439 Y98.065 E5.04134
G1 X155.484 Y98.875 E5.06832
G1 X155.498 Y99.724 E5.09656
G1 X155.499 Y135.244 E6.27796
G1 X155.486 Y136.128 E6.30737
G1 X155.427 Y137.1 E6.33975
G1 X155.281 Y138.063 E6.37215
G1 X155.05 Y139.01 E6.40457
G1 X154.762 Y139.866 E6.43461
G1 X154.344 Y140.822 E6.46931
G1 X153.874 Y141.673 E6.50165
G1 X153.372 Y142.424 E6.53169
G1 X152.717 Y143.237 E6.56642
G1 X152.107 Y143.872 E6.5957
G1 X151.707 Y144.256 E6.61415
G1 X149.885 Y146.055 E6.69931
G1 X148.265 Y147.74 E6.77705
G1 X147.545 Y148.422 E6.81004
G1 X146.781 Y149.026 E6.84243
G1 X145.966 Y149.56 E6.87484
G1 X145.109 Y150.019 E6.90717
G1 X144.212 Y150.403 E6.93962
G1 X143.287 Y150.705 E6.97199
G1 X142.408 Y150.91 E7.00201
G1 X141.378 Y151.055 E7.0366
G1 X140.56 Y151.103 E7.06386
G1 X139.372 Y151.124 E7.10338
G1 X95.207 Y151.123 E8.57231
G0 F6000 X95.213 Y150.723
G1 F1200 X94.493 Y150.712 E8.59626
G1 X93.556 Y150.656 E8.62748
G1 X92.628 Y150.517 E8.65869
G1 X91.715 Y150.296 E8.68993
G1 X90.859 Y150.008 E8.71997
G1 X89.968 Y149.618 E8.75232
G1 X89.146 Y149.166 E8.78352
G1 X88.395 Y148.664 E8.81357
G1 X87.637 Y148.053 E8.84595
G1 X87.014 Y147.455 E8.87467
G1 X86.116 Y146.519 E8.91781
G1 X84.242 Y144.62 E9.00655
G1 X83.128 Y143.541 E9.05813
G1 X82.485 Y142.858 E9.08933
G1 X81.904 Y142.12 E9.12057
G1 X81.391 Y141.335 E9.15176
G1 X80.95 Y140.507 E9.18297
G1 X80.584 Y139.643 E9.21417
G1 X80.295 Y138.749 E9.24542
G1 X80.087 Y137.835 E9.2766
G1 X79.96 Y136.907 E9.30775
G1 X79.916 Y136.117 E9.33407
G1 X79.902 Y135.276 E9.36205
G1 X79.901 Y99.762 E10.54325
G1 X79.913 Y98.896 E10.57205
G1 X79.969 Y97.959 E10.60327
G1 X80.108 Y97.031 E10.63448
G1 X80.329 Y96.118 E10.66573
G1 X80.617 Y95.262 E10.69576
G1 X81.007 Y94.371 E10.72811
G1 X81.459 Y93.549 E10.75931
G1 X81.961 Y92.798 E10.78936
G1 X82.572 Y92.04 E10.82174
G1 X83.17 Y91.417 E10.85046
G1 X83.57 Y91.033 E10.86891
G1 X85.396 Y89.23 E10.95426
G1 X87.023 Y87.537 E11.03235
G1 X87.704 Y86.891 E11.06357
G1 X88.439 Y86.308 E11.09477
G1 X89.223 Y85.792 E11.12599
G1 X90.049 Y85.348 E11.15718
G1 X90.912 Y84.977 E11.18843
G1 X91.804 Y84.685 E11.21964
G1 X92.683 Y84.48 E11.24966
G1 X93.645 Y84.344 E11.28198
G1 X94.447 Y84.297 E11.3087
G1 X95.622 Y84.276 E11.34778
G1 X139.641 Y84.276 E12.81186
G1 X140.505 Y84.288 E12.8406
G1 X141.442 Y84.344 E12.87182
G1 X142.37 Y84.483 E12.90303
G1 X143.284 Y84.704 E12.93431
G1 X144.14 Y84.992 E12.96435
G1 X145.031 Y85.382 E12.9967
G1 X145.854 Y85.835 E13.02794
G1 X146.632 Y86.359 E13.05914
G1 X147.361 Y86.948 E13.09031
G1 X147.965 Y87.526 E13.11812
G1 X148.865 Y88.461 E13.16128
G1 X150.754 Y90.376 E13.25075
G1 X151.869 Y91.455 E13.30235
G1 X152.512 Y92.138 E13.33355
G1 X153.092 Y92.874 E13.36472
G1 X153.607 Y93.66 E13.39598
G1 X154.048 Y94.488 E13.42718
G1 X154.415 Y95.352 E13.4584
G1 X154.704 Y96.245 E13.48962
G1 X154.913 Y97.16 E13.52083
G1 X155.04 Y98.087 E13.55195
G1 X155.084 Y98.882 E13.57844
G1 X155.098 Y99.724 E13.60645
G1 X155.099 Y135.238 E14.78765
G1 X155.087 Y136.104 E14.81645
G1 X155.031 Y137.041 E14.84767
G1 X154.892 Y137.969 E14.87888
G1 X154.671 Y138.882 E14.91013
G1 X154.383 Y139.738 E14.94016
G1 X153.993 Y140.629 E14.97251
G1 X153.541 Y141.451 E15.00371
G1 X153.039 Y142.202 E15.03376
G1 X152.428 Y142.96 E15.06614
G1 X151.83 Y143.583 E15.09486
G1 X151.43 Y143.967 E15.11331
G1 X149.604 Y145.77 E15.19866
G1 X147.977 Y147.463 E15.27675
G1 X147.296 Y148.109 E15.30797
G1 X146.561 Y148.692 E15.33917
G1 X145.777 Y149.208 E15.37039
G1 X144.951 Y149.652 E15.40158
G1 X144.088 Y150.023 E15.43283
G1 X143.196 Y150.315 E15.46404
G1 X142.317 Y150.52 E15.49406
G1 X141.355 Y150.656 E15.52638
G1 X140.553 Y150.703 E15.5531
G1 X139.372 Y150.724 E15.59238
G1 X95.213 Y150.723 E17.06112
G0 F6000 X95.219 Y150.323
G1 F1200 X94.516 Y150.313 E17.0845
G1 X93.614 Y150.26 E17.11456
G1 X92.721 Y150.128 E17.14458
G1 X91.843 Y149.917 E17.17461
G1 X90.987 Y149.629 E17.20465
G1 X90.16 Y149.267 E17.23468
G1 X89.368 Y148.833 E17.26472
G1 X88.617 Y148.331 E17.29476
G1 X87.914 Y147.764 E17.3248
G1 X87.303 Y147.178 E17.35296
G1 X86.405 Y146.242 E17.3961
G1 X84.527 Y144.339 E17.48502
G1 X83.419 Y143.266 E17.53633
G1 X82.799 Y142.61 E17.56635
G1 X82.239 Y141.901 E17.5964
G1 X81.744 Y141.146 E17.62642
G1 X81.318 Y140.35 E17.65645
G1 X80.964 Y139.519 E17.68649
G1 X80.685 Y138.66 E17.71653
G1 X80.483 Y137.78 E17.74656
G1 X80.359 Y136.885 E17.77662
G1 X80.316 Y136.11 E17.80243
G1 X80.302 Y135.276 E17.83018
G1 X80.301 Y99.767 E19.01121
G1 X80.312 Y98.919 E19.03942
G1 X80.365 Y98.017 E19.06947
G1 X80.497 Y97.124 E19.09949
G1 X80.708 Y96.246 E19.12953
G1 X80.996 Y95.39 E19.15957
G1 X81.358 Y94.563 E19.18959
G1 X81.792 Y93.771 E19.21963
G1 X82.294 Y93.02 E19.24967
G1 X82.861 Y92.317 E19.27971
G1 X83.447 Y91.706 E19.30787
G1 X83.847 Y91.322 E19.32631
G1 X85.677 Y89.515 E19.41185
G1 X87.299 Y87.827 E19.48971
G1 X87.953 Y87.204 E19.51976
G1 X88.659 Y86.642 E19.54977
G1 X89.413 Y86.144 E19.57982
G1 X90.207 Y85.715 E19.60984
G1 X91.037 Y85.357 E19.6399
G1 X91.895 Y85.075 E19.66994
G1 X92.774 Y84.87 E19.69996
G1 X93.668 Y84.743 E19.73
G1 X94.454 Y84.697 E19.75618
G1 X95.629 Y84.676 E19.79527
G1 X139.636 Y84.676 E21.25895
G1 X140.482 Y84.687 E21.28709
G1 X141.384 Y84.74 E21.31714
G1 X142.277 Y84.872 E21.34717
G1 X143.156 Y85.083 E21.37723
G1 X144.012 Y85.371 E21.40727
G1 X144.839 Y85.733 E21.4373
G1 X145.631 Y86.167 E21.46734
G1 X146.381 Y86.67 E21.49737
G1 X147.084 Y87.237 E21.52741
G1 X147.688 Y87.815 E21.55522
G1 X148.58 Y88.742 E21.598
G1 X150.469 Y90.657 E21.68747
G1 X151.578 Y91.73 E21.73879
G1 X152.198 Y92.386 E21.76882
G1 X152.758 Y93.094 E21.79884
G1 X153.254 Y93.849 E21.82889
G1 X153.68 Y94.645 E21.85891
G1 X154.035 Y95.476 E21.88897
G1 X154.314 Y96.335 E21.91901
G1 X154.517 Y97.215 E21.94905
G1 X154.641 Y98.109 E21.97907
G1 X154.684 Y98.889 E22.00505
G1 X154.698 Y99.724 E22.03282
G1 X154.699 Y135.233 E23.21386
G1 X154.688 Y136.081 E23.24206
G1 X154.635 Y136.983 E23.27212
G1 X154.503 Y137.876 E23.30214
G1 X154.292 Y138.754 E23.33217
G1 X154.004 Y139.61 E23.36221
G1 X153.642 Y140.437 E23.39224
G1 X153.208 Y141.229 E23.42228
G1 X152.706 Y141.98 E23.45232
G1 X152.139 Y142.683 E23.48236
G1 X151.553 Y143.294 E23.51052
G1 X151.153 Y143.678 E23.52896
G1 X149.323 Y145.485 E23.6145
G1 X147.701 Y147.173 E23.69236
G1 X147.047 Y147.796 E23.7224
G1 X146.341 Y148.358 E23.75242
G1 X145.587 Y148.856 E23.78247
G1 X144.793 Y149.285 E23.81249
G1 X143.963 Y149.643 E23.84255
G1 X143.105 Y149.925 E23.87259
G1 X142.226 Y150.13 E23.90261
G1 X141.332 Y150.257 E23.93264
G1 X140.546 Y150.303 E23.95883
G1 X139.372 Y150.324 E23.99789
G1 X95.219 Y150.323 E25.46642
G1 F2700 E20.46642
;MESH:d1mini-top.stl
G0 F6000 X96.17 Y139.986
G0 X117.5 Y138.72
;TYPE:WALL-INNER
G1 F2700 E25.46642
G1 F1200 X138.571 Y138.719 E26.16724
G1 X138.492 Y138.43 E26.17721
G1 X138.416 Y137.971 E26.19268
G1 X138.4 Y137.593 E26.20527
G1 X138.416 Y137.277 E26.21579
G1 X138.48 Y136.873 E26.2294
G1 X138.598 Y136.442 E26.24426
G1 X138.739 Y136.095 E26.25672
G1 X138.934 Y135.73 E26.27048
G1 X139.151 Y135.422 E26.28301
G1 X139.402 Y135.132 E26.29577
G1 X139.669 Y134.876 E26.30807
G1 X139.997 Y134.632 E26.32167
G1 X140.346 Y134.424 E26.33518
G1 X140.699 Y134.269 E26.348
G1 X141.068 Y134.145 E26.36095
G1 X141.442 Y134.067 E26.37366
G1 X141.77 Y134.031 E26.38463
G1 X142.226 Y134.031 E26.3998
G1 X142.622 Y134.078 E26.41306
G1 X143.097 Y134.191 E26.4293
G1 X143.1 Y100.814 E27.53943
G1 X142.554 Y100.929 E27.55798
G1 X142.226 Y100.965 E27.56896
G1 X141.77 Y100.965 E27.58413
G1 X141.38 Y100.919 E27.59719
G1 X141.006 Y100.834 E27.60994
G1 X140.706 Y100.734 E27.62046
G1 X140.283 Y100.539 E27.63595
G1 X139.948 Y100.334 E27.64902
G1 X139.646 Y100.1 E27.66172
G1 X139.398 Y99.864 E27.67311
G1 X139.112 Y99.527 E27.68781
G1 X138.897 Y99.204 E27.70072
G1 X138.714 Y98.85 E27.71397
G1 X138.576 Y98.492 E27.72673
G1 X138.48 Y98.124 E27.73938
G1 X138.416 Y97.722 E27.75292
G1 X138.4 Y97.341 E27.7656
G1 X138.416 Y97.025 E27.77613
G1 X138.492 Y96.568 E27.79153
G1 X138.571 Y96.276 E27.8016
G1 X96.425 Y96.276 E29.20338
G1 X96.521 Y96.634 E29.21571
G1 X96.579 Y97.018 E29.22862
G1 X96.599 Y97.41 E29.24168
G1 X96.58 Y97.73 E29.25234
G1 X96.506 Y98.187 E29.26774
G1 X96.398 Y98.558 E29.28059
G1 X96.282 Y98.85 E29.29104
G1 X96.064 Y99.262 E29.30654
G1 X95.848 Y99.574 E29.31916
G1 X95.611 Y99.855 E29.33139
G1 X95.304 Y100.139 E29.3453
G1 X94.994 Y100.373 E29.35822
G1 X94.655 Y100.57 E29.37126
G1 X94.29 Y100.734 E29.38457
G1 X93.928 Y100.851 E29.39722
G1 X93.554 Y100.929 E29.40993
G1 X93.226 Y100.965 E29.4209
G1 X92.77 Y100.965 E29.43607
G1 X92.381 Y100.919 E29.4491
G1 X91.9 Y100.815 E29.46547
G1 X91.9 Y134.183 E30.57529
G1 X92.442 Y134.067 E30.59373
G1 X92.77 Y134.031 E30.6047
G1 X93.226 Y134.031 E30.61987
G1 X93.616 Y134.077 E30.63293
G1 X93.997 Y134.165 E30.64593
G1 X94.346 Y134.288 E30.65824
G1 X94.715 Y134.458 E30.67175
G1 X95.051 Y134.665 E30.68488
G1 X95.299 Y134.853 E30.69523
G1 X95.611 Y135.145 E30.70944
G1 X95.882 Y135.47 E30.72352
G1 X96.101 Y135.795 E30.73655
G1 X96.282 Y136.15 E30.74981
G1 X96.417 Y136.499 E30.76225
G1 X96.506 Y136.807 E30.77292
G1 X96.579 Y137.269 E30.78847
G1 X96.599 Y137.662 E30.80156
G1 X96.58 Y137.978 E30.81209
G1 X96.522 Y138.365 E30.82511
G1 X96.425 Y138.72 E30.83735
G1 X117.5 Y138.72 E31.5383
G1 F2700 E26.5383
G0 F6000 X113.47 Y138.52
G0 X113.47 Y119.018
G0 X113.47 Y118.838
G1 F2700 E31.5383
G1 F1200 X113.026 Y118.838 E31.55307
G1 X112.609 Y118.695 E31.56773
G1 X112.271 Y118.437 E31.58188
G1 X112.025 Y118.08 E31.5963
G1 X111.894 Y117.633 E31.61179
G1 X111.951 Y117.097 E31.62972
G1 X112.165 Y116.683 E31.64522
G1 X112.496 Y116.369 E31.66039
G1 X112.878 Y116.193 E31.67438
G1 X113.319 Y116.142 E31.68915
G1 X113.748 Y116.236 E31.70375
G1 X114.119 Y116.459 E31.71815
G1 X114.402 Y116.782 E31.73243
G1 X114.57 Y117.204 E31.74754
G1 X114.598 Y117.646 E31.76227
G1 X114.484 Y118.063 E31.77665
G1 X114.229 Y118.439 E31.79176
G1 X113.861 Y118.706 E31.80688
G1 X113.47 Y118.838 E31.82061
G0 F6000 X113.385 Y118.44
;TYPE:WALL-OUTER
G1 F1200 X113.111 Y118.44 E31.82972
G1 X112.784 Y118.327 E31.84123
G1 X112.565 Y118.157 E31.85045
G1 X112.389 Y117.903 E31.86073
G1 X112.305 Y117.605 E31.87102
G1 X112.342 Y117.208 E31.88429
G1 X112.482 Y116.937 E31.89443
G1 X112.713 Y116.708 E31.90525
G1 X113.009 Y116.579 E31.91599
G1 X113.315 Y116.549 E31.92622
G1 X113.584 Y116.608 E31.93537
G1 X113.872 Y116.78 E31.94653
G1 X114.061 Y117.003 E31.95625
G1 X114.176 Y117.292 E31.9666
G1 X114.194 Y117.615 E31.97736
G1 X114.117 Y117.89 E31.98686
G1 X113.95 Y118.14 E31.99686
G1 X113.681 Y118.344 E32.00809
G1 X113.385 Y118.44 E32.01844
G1 F2700 E27.01844
G0 F6000 X113.385 Y118.75
G0 X113.499 Y119.019
G0 X113.499 Y138.52
G0 X117.5 Y139.12
G1 F2700 E32.01844
G1 F1200 X139.167 Y139.12 E32.73908
G1 X138.986 Y138.721 E32.75366
G1 X138.878 Y138.325 E32.76731
G1 X138.818 Y137.974 E32.77915
G1 X138.8 Y137.613 E32.79117
G1 X138.818 Y137.275 E32.80243
G1 X138.874 Y136.939 E32.81376
G1 X138.97 Y136.59 E32.8258
G1 X139.094 Y136.279 E32.83694
G1 X139.263 Y135.958 E32.849
G1 X139.455 Y135.682 E32.86018
G1 X139.68 Y135.42 E32.87167
G1 X139.929 Y135.18 E32.88317
G1 X140.207 Y134.973 E32.8947
G1 X140.51 Y134.789 E32.90649
G1 X140.814 Y134.653 E32.91757
G1 X141.153 Y134.536 E32.9295
G1 X141.465 Y134.468 E32.94012
G1 X141.814 Y134.429 E32.9518
G1 X142.182 Y134.429 E32.96404
G1 X142.533 Y134.468 E32.97578
G1 X142.95 Y134.565 E32.99002
G1 X143.5 Y134.784 E33.00971
G1 X143.5 Y100.218 E34.15938
G1 X142.932 Y100.44 E34.17967
G1 X142.531 Y100.528 E34.19332
G1 X142.182 Y100.567 E34.205
G1 X141.814 Y100.567 E34.21724
G1 X141.465 Y100.528 E34.22892
G1 X141.153 Y100.46 E34.23954
G1 X140.812 Y100.346 E34.2515
G1 X140.489 Y100.196 E34.26334
G1 X140.19 Y100.016 E34.27495
G1 X139.938 Y99.824 E34.28549
G1 X139.679 Y99.579 E34.29735
G1 X139.442 Y99.301 E34.3095
G1 X139.262 Y99.037 E34.32012
G1 X139.095 Y98.722 E34.33198
G1 X138.962 Y98.388 E34.34394
G1 X138.878 Y98.077 E34.35466
G1 X138.818 Y97.726 E34.3665
G1 X138.8 Y97.382 E34.37796
G1 X138.818 Y97.022 E34.38994
G1 X138.878 Y96.672 E34.40176
G1 X138.97 Y96.336 E34.41334
G1 X139.158 Y95.876 E34.42987
G1 X95.829 Y95.876 E35.871
G1 X96.009 Y96.274 E35.88553
G1 X96.126 Y96.696 E35.90009
G1 X96.18 Y97.043 E35.91177
G1 X96.2 Y97.385 E35.92317
G1 X96.178 Y97.723 E35.93443
G1 X96.121 Y98.079 E35.94642
G1 X96.033 Y98.391 E35.95721
G1 X95.901 Y98.722 E35.96906
G1 X95.734 Y99.037 E35.98092
G1 X95.542 Y99.317 E35.99221
G1 X95.317 Y99.583 E36.0038
G1 X95.059 Y99.823 E36.01552
G1 X94.79 Y100.029 E36.02679
G1 X94.506 Y100.197 E36.03776
G1 X94.164 Y100.354 E36.05028
G1 X93.843 Y100.46 E36.06152
G1 X93.531 Y100.528 E36.07214
G1 X93.182 Y100.567 E36.08382
G1 X92.814 Y100.567 E36.09606
G1 X92.465 Y100.528 E36.10774
G1 X92.077 Y100.444 E36.12094
G1 X91.5 Y100.22 E36.14153
G1 X91.5 Y134.777 E37.2909
G1 X92.068 Y134.556 E37.31117
G1 X92.464 Y134.468 E37.32466
G1 X92.814 Y134.429 E37.33638
G1 X93.182 Y134.429 E37.34862
G1 X93.531 Y134.468 E37.3603
G1 X93.843 Y134.536 E37.37092
G1 X94.182 Y134.653 E37.38285
G1 X94.508 Y134.8 E37.39474
G1 X94.792 Y134.972 E37.40578
G1 X95.057 Y135.172 E37.41683
G1 X95.324 Y135.424 E37.42904
G1 X95.542 Y135.683 E37.4403
G1 X95.746 Y135.979 E37.45225
