;FLAVOR:Marlin
;TIME:3852
;Filament used: 2.39613m
;Layer height: 0.2
;MINX:79.502
;MINY:83.877
;MINZ:0.2
;MAXX:155.498
;MAXY:151.123
;MAXZ:5.2
;TARGET_MACHINE.NAME:Creality Ender-3
;Generated with Cura_SteamEngine 5.9.0
M140 S50
M105
M190 S50
M104 S200
M105
M109 S200
M82 ;absolute extrusion mode
; Ender 3 Custom Start G-code
G92 E0 ; Reset Extruder
G28 ; Home all axes
G1 Z2.0 F3000 ; Move Z Axis up little to prevent scratching of Heat Bed
G1 X0.1 Y20 Z0.3 F5000.0 ; Move to start position
G1 X0.1 Y200.0 Z0.3 F1500.0 E15 ; Draw the first line
G1 X0.4 Y200.0 Z0.3 F5000.0 ; Move to side a little
G1 X0.4 Y20 Z0.3 F1500.0 E30 ; Draw the second line
G92 E0 ; Reset Extruder
G1 Z2.0 F3000 ; Move Z Axis up little to prevent scratching of Heat Bed
G1 X5 Y20 Z0.3 F5000.0 ; Move over to prevent blob squish
G92 E0
G92 E0
G1 F2700 E-5
;LAYER_COUNT:26
;LAYER:0
M107
G0 F6000 X92.697 Y151.123 Z0.2
;TYPE:SKIRT
G1 F2700 E0
G1 F1200 X91.821 Y151.11 E0.02914
G1 X90.788 Y151.043 E0.06357
G1 X90.336 Y150.992 E0.0787
G1 X89.374 Y150.837 E0.11111
G1 X88.43 Y150.598 E0.1435
G1 X87.519 Y150.28 E0.17559
G1 X86.74 Y149.939 E0.20387
G1 X85.87 Y149.495 E0.23636
G1 X85.021 Y148.961 E0.26972
G1 X84.711 Y148.743 E0.28232
G1 X83.962 Y148.166 E0.31377
G1 X83.003 Y147.258 E0.35769
G1 X82.69 Y146.923 E0.37294
G1 X82.059 Y146.181 E0.40534
G1 X81.497 Y145.386 E0.43772
G1 X81.012 Y144.555 E0.46972
G1 X80.733 Y143.983 E0.49089
G1 X80.541 Y143.559 E0.50637
G1 X80.18 Y142.654 E0.53878
G1 X79.901 Y141.717 E0.57129
G1 X79.689 Y140.662 E0.60709
G1 X79.64 Y140.324 E0.61844
G1 X79.531 Y139.035 E0.66147
G1 X79.505 Y137.815 E0.70206
G1 X79.502 Y97.072 E2.05717
G1 X79.515 Y96.197 E2.08628
G1 X79.575 Y95.218 E2.1189
G1 X79.619 Y94.809 E2.13259
G1 X79.774 Y93.811 E2.16618
G1 X80.007 Y92.867 E2.19852
G1 X80.299 Y92.012 E2.22857
G1 X80.679 Y91.133 E2.26042
G1 X81.121 Y90.26 E2.29296
G1 X81.664 Y89.396 E2.3269
G1 X81.882 Y89.086 E2.33951
G1 X82.459 Y88.337 E2.37096
G1 X83.367 Y87.378 E2.41488
G1 X83.702 Y87.065 E2.43013
G1 X84.444 Y86.434 E2.46253
G1 X85.239 Y85.872 E2.49491
G1 X86.07 Y85.387 E2.52691
G1 X86.631 Y85.112 E2.54769
G1 X87.055 Y84.92 E2.56317
G1 X87.96 Y84.558 E2.59559
G1 X88.824 Y84.296 E2.62562
G1 X89.984 Y84.061 E2.66498
G1 X90.326 Y84.012 E2.67647
G1 X91.594 Y83.906 E2.7188
G1 X92.808 Y83.88 E2.75918
G1 X142.303 Y83.877 E4.40539
G1 X143.179 Y83.89 E4.43453
G1 X144.212 Y83.957 E4.46896
G1 X144.664 Y84.008 E4.48409
G1 X145.626 Y84.163 E4.5165
G1 X146.57 Y84.402 E4.54889
G1 X147.481 Y84.72 E4.58098
G1 X148.26 Y85.061 E4.60926
G1 X149.13 Y85.505 E4.64175
G1 X149.979 Y86.039 E4.67511
G1 X150.289 Y86.257 E4.68772
G1 X151.038 Y86.834 E4.71916
G1 X151.997 Y87.742 E4.76309
G1 X152.31 Y88.077 E4.77834
G1 X152.941 Y88.819 E4.81073
G1 X153.503 Y89.614 E4.84311
G1 X153.988 Y90.445 E4.87512
G1 X154.263 Y91.006 E4.8959
G1 X154.455 Y91.43 E4.91138
G1 X154.817 Y92.335 E4.9438
G1 X155.079 Y93.199 E4.97383
G1 X155.312 Y94.342 E5.01262
G1 X155.361 Y94.681 E5.02402
G1 X155.469 Y95.96 E5.06671
G1 X155.495 Y97.155 E5.10646
G1 X155.498 Y137.928 E6.46258
G1 X155.485 Y138.803 E6.49168
G1 X155.422 Y139.812 E6.52531
G1 X155.372 Y140.255 E6.54014
G1 X155.219 Y141.217 E6.57253
G1 X154.976 Y142.177 E6.60547
G1 X154.501 Y143.463 E6.65107
G1 X154.339 Y143.829 E6.66438
G1 X153.918 Y144.669 E6.69563
G1 X153.324 Y145.621 E6.73295
G1 X153.118 Y145.914 E6.74487
G1 X152.541 Y146.663 E6.77631
G1 X151.633 Y147.622 E6.82024
G1 X151.298 Y147.935 E6.83549
G1 X150.556 Y148.566 E6.86788
G1 X149.761 Y149.128 E6.90026
G1 X148.93 Y149.613 E6.93227
G1 X148.369 Y149.888 E6.95305
G1 X147.945 Y150.08 E6.96853
G1 X147.04 Y150.442 E7.00095
G1 X146.176 Y150.704 E7.03098
G1 X145.016 Y150.939 E7.07034
G1 X144.674 Y150.988 E7.08183
G1 X143.406 Y151.094 E7.12415
G1 X142.196 Y151.119 E7.16441
G1 X92.697 Y151.123 E8.81075
G0 F6000 X92.703 Y150.723
G1 F1200 X91.847 Y150.711 E8.83922
G1 X90.833 Y150.646 E8.87302
G1 X90.399 Y150.597 E8.88755
G1 X89.472 Y150.449 E8.91877
G1 X88.561 Y150.22 E8.95001
G1 X87.679 Y149.913 E8.98107
G1 X86.921 Y149.582 E9.00858
G1 X86.083 Y149.156 E9.03985
G1 X85.234 Y148.622 E9.07321
G1 X84.955 Y148.426 E9.08455
G1 X84.206 Y147.849 E9.116
G1 X83.295 Y146.985 E9.15776
G1 X82.994 Y146.663 E9.17242
G1 X82.385 Y145.949 E9.20363
G1 X81.842 Y145.184 E9.23483
G1 X81.371 Y144.379 E9.26585
G1 X81.097 Y143.818 E9.28662
G1 X80.912 Y143.41 E9.30152
G1 X80.563 Y142.539 E9.33273
G1 X80.293 Y141.638 E9.36401
G1 X80.085 Y140.604 E9.39909
G1 X80.039 Y140.29 E9.40964
G1 X79.93 Y139.001 E9.45267
G1 X79.905 Y137.815 E9.49212
G1 X79.902 Y97.078 E10.84704
G1 X79.914 Y96.222 E10.87552
G1 X79.973 Y95.261 E10.90754
G1 X80.017 Y94.852 E10.92122
G1 X80.162 Y93.907 E10.95302
G1 X80.386 Y92.996 E10.98422
G1 X80.678 Y92.141 E11.01427
G1 X81.036 Y91.313 E11.04428
G1 X81.46 Y90.473 E11.07557
G1 X82.003 Y89.609 E11.10951
G1 X82.199 Y89.33 E11.12085
G1 X82.776 Y88.581 E11.1523
G1 X83.64 Y87.67 E11.19406
G1 X83.962 Y87.369 E11.20872
G1 X84.676 Y86.76 E11.23993
G1 X85.441 Y86.217 E11.27113
G1 X86.246 Y85.746 E11.30216
G1 X86.797 Y85.476 E11.32256
G1 X87.204 Y85.291 E11.33743
G1 X88.076 Y84.941 E11.36869
G1 X88.94 Y84.679 E11.39871
G1 X90.041 Y84.457 E11.43607
G1 X90.359 Y84.411 E11.44676
G1 X91.627 Y84.305 E11.48908
G1 X92.808 Y84.28 E11.52837
G1 X142.297 Y84.277 E13.17438
G1 X143.153 Y84.289 E13.20285
G1 X144.167 Y84.354 E13.23665
G1 X144.601 Y84.403 E13.25117
G1 X145.528 Y84.551 E13.2824
G1 X146.439 Y84.78 E13.31364
G1 X147.321 Y85.087 E13.3447
G1 X148.079 Y85.418 E13.37221
G1 X148.917 Y85.844 E13.40348
G1 X149.766 Y86.378 E13.43684
G1 X150.045 Y86.574 E13.44818
G1 X150.794 Y87.151 E13.47962
G1 X151.705 Y88.015 E13.52138
G1 X152.006 Y88.337 E13.53604
G1 X152.615 Y89.051 E13.56726
G1 X153.158 Y89.816 E13.59846
G1 X153.629 Y90.621 E13.62948
G1 X153.899 Y91.172 E13.64989
G1 X154.084 Y91.579 E13.66476
G1 X154.434 Y92.451 E13.69601
G1 X154.696 Y93.315 E13.72604
G1 X154.916 Y94.4 E13.76286
G1 X154.962 Y94.715 E13.77345
G1 X155.07 Y95.994 E13.81614
G1 X155.095 Y97.155 E13.85476
G1 X155.098 Y137.922 E15.21068
G1 X155.086 Y138.778 E15.23915
G1 X155.025 Y139.767 E15.27211
G1 X154.977 Y140.193 E15.28637
G1 X154.831 Y141.12 E15.31758
G1 X154.601 Y142.038 E15.34906
G1 X154.126 Y143.324 E15.39465
G1 X153.981 Y143.65 E15.40652
G1 X153.578 Y144.458 E15.43655
G1 X152.997 Y145.391 E15.47311
G1 X152.801 Y145.67 E15.48445
G1 X152.224 Y146.419 E15.5159
G1 X151.36 Y147.33 E15.55766
G1 X151.038 Y147.631 E15.57232
G1 X150.324 Y148.24 E15.60353
G1 X149.559 Y148.783 E15.63473
G1 X148.754 Y149.254 E15.66575
G1 X148.203 Y149.524 E15.68616
G1 X147.796 Y149.709 E15.70103
G1 X146.924 Y150.059 E15.73228
G1 X146.06 Y150.321 E15.76231
G1 X144.959 Y150.543 E15.79967
G1 X144.641 Y150.589 E15.81035
G1 X143.373 Y150.695 E15.85267
G1 X142.192 Y150.72 E15.89196
G1 X92.703 Y150.723 E17.53797
G0 F6000 X92.708 Y150.323
G1 F1200 X91.872 Y150.312 E17.56578
G1 X90.878 Y150.249 E17.59891
G1 X90.461 Y150.202 E17.61287
G1 X89.569 Y150.061 E17.6429
G1 X88.692 Y149.842 E17.67297
G1 X87.839 Y149.546 E17.703
G1 X87.102 Y149.225 E17.72973
G1 X86.296 Y148.817 E17.75978
G1 X85.463 Y148.294 E17.7925
G1 X85.198 Y148.109 E17.80324
G1 X84.481 Y147.559 E17.8333
G1 X83.587 Y146.712 E17.87426
G1 X83.298 Y146.403 E17.88833
G1 X82.711 Y145.717 E17.91836
G1 X82.187 Y144.982 E17.94838
G1 X81.73 Y144.203 E17.97842
G1 X81.461 Y143.653 E17.99879
G1 X81.283 Y143.261 E18.01311
G1 X80.946 Y142.423 E18.04315
G1 X80.685 Y141.559 E18.07317
G1 X80.481 Y140.545 E18.10757
G1 X80.438 Y140.256 E18.11729
G1 X80.329 Y138.967 E18.16031
G1 X80.305 Y137.815 E18.19864
G1 X80.302 Y97.083 E19.55339
G1 X80.313 Y96.247 E19.5812
G1 X80.371 Y95.304 E19.61262
G1 X80.415 Y94.895 E19.6263
G1 X80.551 Y94.002 E19.65635
G1 X80.765 Y93.125 E19.68637
G1 X81.057 Y92.27 E19.71642
G1 X81.393 Y91.493 E19.74458
G1 X81.799 Y90.686 E19.77462
G1 X82.331 Y89.838 E19.80792
G1 X82.516 Y89.573 E19.81867
G1 X83.066 Y88.856 E19.84872
G1 X83.913 Y87.962 E19.88968
G1 X84.222 Y87.673 E19.90376
G1 X84.908 Y87.086 E19.93378
G1 X85.643 Y86.562 E19.96381
G1 X86.422 Y86.105 E19.99385
G1 X86.963 Y85.84 E20.01388
G1 X87.354 Y85.662 E20.02817
G1 X88.192 Y85.324 E20.05823
G1 X89.056 Y85.062 E20.08825
G1 X90.099 Y84.853 E20.12363
G1 X90.392 Y84.81 E20.13348
G1 X91.66 Y84.704 E20.17581
G1 X92.808 Y84.68 E20.214
G1 X142.292 Y84.677 E21.85984
G1 X143.128 Y84.688 E21.88765
G1 X144.122 Y84.751 E21.92078
G1 X144.539 Y84.798 E21.93473
G1 X145.431 Y84.939 E21.96477
G1 X146.308 Y85.158 E21.99483
G1 X147.161 Y85.454 E22.02486
G1 X147.898 Y85.775 E22.0516
G1 X148.704 Y86.183 E22.08165
G1 X149.537 Y86.706 E22.11436
G1 X149.802 Y86.891 E22.12511
G1 X150.519 Y87.441 E22.15517
G1 X151.413 Y88.288 E22.19613
G1 X151.702 Y88.597 E22.2102
G1 X152.289 Y89.283 E22.24023
G1 X152.813 Y90.018 E22.27025
G1 X153.27 Y90.797 E22.30029
G1 X153.535 Y91.338 E22.32033
G1 X153.713 Y91.729 E22.33462
G1 X154.051 Y92.567 E22.36467
G1 X154.313 Y93.431 E22.3947
G1 X154.52 Y94.459 E22.42958
G1 X154.563 Y94.749 E22.43933
G1 X154.671 Y96.028 E22.48202
G1 X154.695 Y97.155 E22.51951
G1 X154.698 Y137.917 E23.87526
G1 X154.687 Y138.753 E23.90307
G1 X154.627 Y139.723 E23.93539
G1 X154.582 Y140.131 E23.94904
G1 X154.443 Y141.024 E23.9791
G1 X154.226 Y141.9 E24.00912
G1 X153.761 Y143.161 E24.05382
G1 X153.623 Y143.471 E24.06511
G1 X153.22 Y144.279 E24.09514
G1 X152.669 Y145.162 E24.12976
G1 X152.484 Y145.427 E24.14051
G1 X151.934 Y146.144 E24.17056
G1 X151.087 Y147.038 E24.21152
G1 X150.778 Y147.327 E24.22559
G1 X150.092 Y147.914 E24.25562
G1 X149.357 Y148.438 E24.28565
G1 X148.578 Y148.895 E24.31569
G1 X148.037 Y149.16 E24.33572
G1 X147.646 Y149.338 E24.35001
G1 X146.808 Y149.676 E24.38006
G1 X145.944 Y149.938 E24.41009
G1 X144.901 Y150.147 E24.44547
G1 X144.608 Y150.19 E24.45532
G1 X143.34 Y150.296 E24.49764
G1 X142.192 Y150.32 E24.53584
G1 X92.708 Y150.323 E26.18168
G1 F2700 E21.18168
;MESH:d1mini-top.stl
G0 F6000 X95.545 Y139.986
G0 X117.5 Y138.72
;TYPE:WALL-INNER
G1 F2700 E26.18168
G1 F1200 X139.236 Y138.72 E26.90462
G1 X139.121 Y138.424 E26.91518
G1 X139.013 Y137.795 E26.93641
G1 X139.047 Y137.272 E26.95384
G1 X139.122 Y136.81 E26.96941
G1 X139.288 Y136.401 E26.98409
G1 X139.47 Y136.054 E26.99712
G1 X139.614 Y135.846 E27.00554
G1 X139.958 Y135.442 E27.02319
G1 X140.449 Y135.072 E27.04363
G1 X140.926 Y134.85 E27.06113
G1 X141.178 Y134.766 E27.06997
G1 X141.662 Y134.652 E27.08651
G1 X142.192 Y134.655 E27.10413
G1 X142.628 Y134.702 E27.11872
G1 X143.096 Y134.857 E27.13512
G1 X143.096 Y100.143 E28.28971
G1 X142.821 Y100.232 E28.29932
G1 X142.333 Y100.344 E28.31598
G1 X141.803 Y100.341 E28.3336
G1 X141.367 Y100.294 E28.34819
G1 X140.866 Y100.124 E28.36579
G1 X140.634 Y100.017 E28.37428
G1 X140.359 Y99.855 E28.3849
G1 X139.966 Y99.562 E28.4012
G1 X139.624 Y99.163 E28.41868
G1 X139.436 Y98.883 E28.4299
G1 X139.312 Y98.655 E28.43853
G1 X139.122 Y98.182 E28.45549
G1 X139.013 Y97.549 E28.47685
G1 X139.04 Y97.079 E28.49251
G1 X139.101 Y96.694 E28.50547
G1 X139.218 Y96.276 E28.51991
G1 X95.761 Y96.276 E29.9653
G1 X95.889 Y96.628 E29.97775
G1 X95.984 Y97.203 E29.99714
G1 X95.952 Y97.735 E30.01486
G1 X95.873 Y98.19 E30.03022
G1 X95.687 Y98.642 E30.04648
G1 X95.479 Y99.049 E30.06168
G1 X95.067 Y99.526 E30.08265
G1 X94.551 Y99.923 E30.1043
G1 X94.073 Y100.145 E30.12183
G1 X93.825 Y100.229 E30.13054
G1 X93.337 Y100.344 E30.14721
G1 X92.804 Y100.341 E30.16494
G1 X92.369 Y100.294 E30.17949
G1 X91.9 Y100.138 E30.19593
G1 X91.9 Y134.857 E31.35069
G1 X92.23 Y134.751 E31.36222
G1 X92.661 Y134.652 E31.37693
G1 X93.193 Y134.655 E31.39462
G1 X93.628 Y134.702 E31.40917
G1 X94.067 Y134.845 E31.42453
G1 X94.366 Y134.979 E31.43543
G1 X94.688 Y135.176 E31.44798
G1 X95.03 Y135.434 E31.46223
G1 X95.368 Y135.827 E31.47947
G1 X95.567 Y136.12 E31.49125
G1 X95.713 Y136.404 E31.50187
G1 X95.877 Y136.811 E31.51647
G1 X95.983 Y137.448 E31.53795
G1 X95.96 Y137.911 E31.55337
G1 X95.909 Y138.241 E31.56447
G1 X95.78 Y138.72 E31.58097
G1 X117.5 Y138.72 E32.30338
G1 F2700 E27.30338
G0 F6000 X113.47 Y138.52
G0 X113.47 Y119.018
G0 X113.47 Y118.838
G1 F2700 E32.30338
G1 F1200 X113.026 Y118.838 E32.31815
G1 X112.608 Y118.695 E32.33284
G1 X112.267 Y118.433 E32.34715
G1 X112.025 Y118.08 E32.36138
G1 X111.894 Y117.633 E32.37687
G1 X111.951 Y117.097 E32.3948
G1 X112.166 Y116.681 E32.41038
G1 X112.496 Y116.369 E32.42548
G1 X112.878 Y116.193 E32.43947
G1 X113.319 Y116.142 E32.45423
G1 X113.748 Y116.236 E32.46884
G1 X114.121 Y116.46 E32.48331
G1 X114.422 Y116.816 E32.49882
G1 X114.57 Y117.206 E32.51269
G1 X114.598 Y117.645 E32.52732
G1 X114.488 Y118.057 E32.54151
G1 X114.229 Y118.439 E32.55686
G1 X113.861 Y118.706 E32.57198
G1 X113.47 Y118.838 E32.58571
G0 F6000 X113.385 Y118.44
;TYPE:WALL-OUTER
G1 F1200 X113.111 Y118.44 E32.59482
G1 X112.784 Y118.327 E32.60633
G1 X112.557 Y118.149 E32.61592
G1 X112.389 Y117.903 E32.62583
G1 X112.305 Y117.605 E32.63613
G1 X112.342 Y117.208 E32.64939
G1 X112.483 Y116.936 E32.65958
G1 X112.713 Y116.708 E32.67035
G1 X113.009 Y116.579 E32.68109
G1 X113.315 Y116.549 E32.69131
G1 X113.584 Y116.608 E32.70047
G1 X113.872 Y116.78 E32.71163
G1 X114.061 Y117.003 E32.72135
G1 X114.176 Y117.292 E32.7317
G1 X114.194 Y117.615 E32.74246
G1 X114.117 Y117.89 E32.75196
G1 X113.95 Y118.14 E32.76196
G1 X113.681 Y118.344 E32.77319
G1 X113.385 Y118.44 E32.78354
G1 F2700 E27.78354
G0 F6000 X113.385 Y118.75
G0 X113.499 Y119.019
G0 X113.499 Y138.52
G0 X117.5 Y139.119
G1 F2700 E32.78354
G1 F1200 X139.889 Y139.118 E33.5282
G1 X139.657 Y138.701 E33.54407
G1 X139.506 Y138.303 E33.55823
G1 X139.416 Y137.751 E33.57683
G1 X139.442 Y137.336 E33.59066
G1 X139.518 Y136.896 E33.60551
G1 X139.658 Y136.552 E33.61786
G1 X139.799 Y136.282 E33.62799
G1 X139.954 Y136.059 E33.63703
G1 X140.213 Y135.751 E33.65041
G1 X140.659 Y135.413 E33.66902
G1 X141.031 Y135.238 E33.6827
G1 X141.304 Y135.146 E33.69228
G1 X141.732 Y135.052 E33.70685
G1 X142.15 Y135.053 E33.72076
G1 X142.562 Y135.101 E33.73455
G1 X142.965 Y135.234 E33.74867
G1 X143.197 Y135.342 E33.75718
G1 X143.496 Y135.523 E33.7688
G1 X143.496 Y99.476 E34.96773
G1 X143.046 Y99.739 E34.98507
G1 X142.698 Y99.851 E34.99723
G1 X142.308 Y99.94 E35.01053
G1 X141.846 Y99.943 E35.0259
G1 X141.474 Y99.903 E35.03834
G1 X141.035 Y99.762 E35.05368
G1 X140.803 Y99.654 E35.06219
G1 X140.565 Y99.512 E35.07141
G1 X140.231 Y99.262 E35.08528
G1 X139.954 Y98.937 E35.09949
G1 X139.798 Y98.709 E35.10867
G1 X139.653 Y98.441 E35.11881
G1 X139.506 Y98.055 E35.13255
G1 X139.418 Y97.547 E35.14969
G1 X139.442 Y97.085 E35.16508
G1 X139.487 Y96.802 E35.17461
G1 X139.561 Y96.539 E35.1837
G1 X139.664 Y96.28 E35.19297
G1 X139.885 Y95.876 E35.20829
G1 X95.116 Y95.877 E36.69731
G1 X95.338 Y96.296 E36.71308
G1 X95.494 Y96.694 E36.7273
G1 X95.578 Y97.199 E36.74433
G1 X95.558 Y97.667 E36.75991
G1 X95.49 Y98.059 E36.77314
G1 X95.331 Y98.46 E36.78749
G1 X95.155 Y98.804 E36.80034
G1 X94.783 Y99.245 E36.81953
G1 X94.341 Y99.583 E36.83803
G1 X93.945 Y99.766 E36.85254
G1 X93.697 Y99.85 E36.86125
G1 X93.309 Y99.94 E36.8745
G1 X92.846 Y99.943 E36.8899
G1 X92.474 Y99.903 E36.90234
G1 X92.036 Y99.763 E36.91764
G1 X91.8 Y99.655 E36.92627
G1 X91.501 Y99.473 E36.93791
G1 X91.5 Y135.524 E38.13697
G1 X91.949 Y135.261 E38.15428
G1 X92.319 Y135.141 E38.16722
G1 X92.687 Y135.056 E38.17978
G1 X93.15 Y135.053 E38.19518
G1 X93.563 Y135.101 E38.20901
G1 X93.965 Y135.234 E38.22309
G1 X94.197 Y135.342 E38.2316
G1 X94.433 Y135.485 E38.24078
G1 X94.765 Y135.734 E38.25458
G1 X95.029 Y136.042 E38.26808
G1 X95.213 Y136.306 E38.27878
G1 X95.342 Y136.553 E38.28805
G1 X95.494 Y136.943 E38.30197
G1 X95.578 Y137.451 E38.31909
G1 X95.558 Y137.914 E38.33451
G1 X95.514 Y138.174 E38.34328
G1 X95.435 Y138.457 E38.35305
G1 X95.333 Y138.715 E38.36228
G1 X95.114 Y139.12 E38.37759
G1 X117.5 Y139.119 E39.12215
G1 F2700 E34.12215
G0 F6000 X117.5 Y138.811
G0 X113.486 Y138.52
G0 X113.486 Y119.018
G0 X113.529 Y119.196
;TYPE:SKIN
G1 F2700 E39.12215
G1 F1200 X114.069 Y119.005 E39.14121
G1 X114.507 Y118.669 E39.15957
G1 X114.808 Y118.226 E39.17738
G1 X114.956 Y117.68 E39.19619
G1 X114.919 Y117.119 E39.21489
G1 X114.737 Y116.637 E39.23203
