;FLAVOR:Marlin
;TIME:3833
;Filament used: 2.38018m
;Layer height: 0.2
;MINX:79.501
;MINY:83.875
;MINZ:0.2
;MAXX:155.5
;MAXY:151.125
;MAXZ:5.2
;TARGET_MACHINE.NAME:Creality Ender-3
;Generated with Cura_SteamEngine 5.9.0
M140 S50
M105
M190 S50
M104 S200
M105
M109 S200
M82 ;absolute extrusion mode
; Ender 3 Custom Start G-code
G92 E0 ; Reset Extruder
G28 ; Home all axes
G1 Z2.0 F3000 ; Move Z Axis up little to prevent scratching of Heat Bed
G1 X0.1 Y20 Z0.3 F5000.0 ; Move to start position
G1 X0.1 Y200.0 Z0.3 F1500.0 E15 ; Draw the first line
G1 X0.4 Y200.0 Z0.3 F5000.0 ; Move to side a little
G1 X0.4 Y20 Z0.3 F1500.0 E30 ; Draw the second line
G92 E0 ; Reset Extruder
G1 Z2.0 F3000 ; Move Z Axis up little to prevent scratching of Heat Bed
G1 X5 Y20 Z0.3 F5000.0 ; Move over to prevent blob squish
G92 E0
G92 E0
G1 F2700 E-5
;LAYER_COUNT:26
;LAYER:0
M107
G0 F6000 X94.597 Y151.125 Z0.2
;TYPE:SKIRT
G1 F2700 E0
G1 F1200 X93.711 Y151.112 E0.02947
G1 X92.74 Y151.053 E0.06183
G1 X91.776 Y150.907 E0.09426
G1 X90.829 Y150.676 E0.12668
G1 X89.973 Y150.388 E0.15671
G1 X89.017 Y149.97 E0.19142
G1 X88.166 Y149.5 E0.22375
G1 X87.386 Y148.977 E0.25499
G1 X86.63 Y148.368 E0.28728
G1 X86.07 Y147.839 E0.3129
G1 X84.243 Y145.986 E0.39945
G1 X83.5 Y145.274 E0.43368
G1 X82.775 Y144.561 E0.4675
G1 X82.114 Y143.847 E0.49986
G1 X81.518 Y143.076 E0.53227
G1 X80.994 Y142.256 E0.56464
G1 X80.544 Y141.392 E0.59704
G1 X80.171 Y140.492 E0.62944
G1 X79.88 Y139.564 E0.66179
G1 X79.671 Y138.613 E0.69417
G1 X79.554 Y137.717 E0.72423
G1 X79.516 Y137.069 E0.74582
G1 X79.502 Y136.446 E0.76654
G1 X79.501 Y98.77 E2.01965
G1 X79.512 Y98.075 E2.04277
G1 X79.572 Y97.085 E2.07576
G1 X79.719 Y96.122 E2.10816
G1 X79.951 Y95.177 E2.14052
G1 X80.251 Y94.289 E2.1717
G1 X80.657 Y93.364 E2.2053
G1 X81.092 Y92.572 E2.23535
G1 X81.675 Y91.706 E2.27007
G1 X82.286 Y90.951 E2.30238
G1 X82.863 Y90.349 E2.33011
G1 X83.3 Y89.928 E2.35029
G1 X85.51 Y87.737 E2.4538
G1 X86.063 Y87.174 E2.48005
G1 X86.777 Y86.51 E2.51248
G1 X87.545 Y85.913 E2.54483
G1 X88.363 Y85.385 E2.57721
G1 X89.193 Y84.946 E2.60844
G1 X90.125 Y84.557 E2.64203
G1 X91.052 Y84.264 E2.67437
G1 X92.003 Y84.051 E2.70678
G1 X92.898 Y83.932 E2.73681
G1 X93.543 Y83.892 E2.75831
G1 X94.142 Y83.878 E2.77823
G1 X140.403 Y83.875 E4.31688
G1 X141.288 Y83.888 E4.34632
G1 X142.26 Y83.947 E4.37871
G1 X143.223 Y84.093 E4.4111
G1 X144.17 Y84.324 E4.44352
G1 X145.026 Y84.612 E4.47356
G1 X145.982 Y85.03 E4.50827
G1 X146.833 Y85.5 E4.5406
G1 X147.613 Y86.023 E4.57184
G1 X148.369 Y86.632 E4.60412
G1 X148.927 Y87.159 E4.62965
G1 X150.74 Y88.996 E4.7155
G1 X151.5 Y89.726 E4.75055
G1 X152.225 Y90.439 E4.78437
G1 X152.886 Y91.153 E4.81673
G1 X153.482 Y91.924 E4.84914
G1 X154.006 Y92.744 E4.88151
G1 X154.456 Y93.608 E4.91391
G1 X154.829 Y94.508 E4.94631
G1 X155.12 Y95.436 E4.97866
G1 X155.329 Y96.387 E5.01104
G1 X155.446 Y97.283 E5.0411
G1 X155.484 Y97.931 E5.06269
G1 X155.498 Y98.554 E5.08341
G1 X155.5 Y136.049 E6.3305
G1 X155.487 Y136.935 E6.35997
G1 X155.428 Y137.906 E6.39233
G1 X155.282 Y138.87 E6.42476
G1 X155.051 Y139.817 E6.45718
G1 X154.763 Y140.673 E6.48722
G1 X154.345 Y141.629 E6.52192
G1 X153.875 Y142.48 E6.55425
G1 X153.373 Y143.231 E6.5843
G1 X152.718 Y144.044 E6.61902
G1 X152.145 Y144.643 E6.64659
G1 X151.679 Y145.092 E6.66812
G1 X149.505 Y147.248 E6.76995
G1 X148.953 Y147.814 E6.79625
G1 X148.267 Y148.456 E6.8275
G1 X147.472 Y149.078 E6.86107
G1 X146.685 Y149.588 E6.89226
G1 X145.794 Y150.06 E6.9258
G1 X144.929 Y150.425 E6.95703
G1 X143.968 Y150.732 E6.99058
G1 X143.017 Y150.944 E7.02299
G1 X142.063 Y151.071 E7.055
G1 X141.457 Y151.108 E7.07519
G1 X140.858 Y151.122 E7.09512
G1 X94.597 Y151.125 E8.63377
G0 F6000 X94.603 Y150.725
G1 F1200 X93.735 Y150.713 E8.66264
G1 X92.799 Y150.657 E8.69383
G1 X91.87 Y150.518 E8.72507
G1 X90.957 Y150.297 E8.75631
G1 X90.101 Y150.009 E8.78635
G1 X89.21 Y149.619 E8.8187
G1 X88.388 Y149.167 E8.8499
G1 X87.637 Y148.665 E8.87994
G1 X86.881 Y148.056 E8.91223
G1 X86.355 Y147.558 E8.93633
G1 X84.528 Y145.705 E9.02288
G1 X83.78 Y144.989 E9.05731
G1 X83.068 Y144.289 E9.09052
G1 X82.43 Y143.602 E9.12171
G1 X81.855 Y142.86 E9.15293
G1 X81.348 Y142.07 E9.18415
G1 X80.913 Y141.239 E9.21535
G1 X80.553 Y140.372 E9.24657
G1 X80.271 Y139.477 E9.27778
G1 X80.068 Y138.561 E9.30899
G1 X79.951 Y137.665 E9.33904
G1 X79.916 Y137.06 E9.3592
G1 X79.902 Y136.446 E9.37962
G1 X79.901 Y98.776 E10.63253
G1 X79.911 Y98.099 E10.65505
G1 X79.968 Y97.145 E10.68684
G1 X80.108 Y96.217 E10.71805
G1 X80.33 Y95.305 E10.74927
G1 X80.618 Y94.449 E10.77931
G1 X81.008 Y93.557 E10.81169
G1 X81.443 Y92.765 E10.84175
G1 X81.986 Y91.957 E10.87412
G1 X82.575 Y91.228 E10.9053
G1 X83.152 Y90.626 E10.93303
G1 X83.582 Y90.212 E10.95288
G1 X85.792 Y88.021 E11.05639
G1 X86.336 Y87.466 E11.08224
G1 X87.023 Y86.825 E11.11349
G1 X87.762 Y86.249 E11.14465
G1 X88.55 Y85.739 E11.17587
G1 X89.38 Y85.3 E11.2071
G1 X90.246 Y84.938 E11.23832
G1 X91.14 Y84.654 E11.26952
G1 X92.056 Y84.448 E11.30075
G1 X92.951 Y84.329 E11.33078
G1 X93.552 Y84.292 E11.3508
G1 X94.142 Y84.278 E11.37043
G1 X140.397 Y84.275 E12.90888
G1 X141.264 Y84.287 E12.93772
G1 X142.201 Y84.343 E12.96894
G1 X143.129 Y84.482 E13.00015
G1 X144.042 Y84.703 E13.03139
G1 X144.898 Y84.991 E13.06143
G1 X145.789 Y85.381 E13.09378
G1 X146.611 Y85.833 E13.12498
G1 X147.362 Y86.335 E13.15503
G1 X148.118 Y86.944 E13.18731
G1 X148.642 Y87.44 E13.21131
G1 X150.463 Y89.285 E13.29753
G1 X151.22 Y90.011 E13.33242
G1 X151.932 Y90.711 E13.36563
G1 X152.57 Y91.398 E13.39681
G1 X153.145 Y92.14 E13.42803
G1 X153.652 Y92.93 E13.45925
G1 X154.087 Y93.761 E13.49045
G1 X154.447 Y94.628 E13.52167
G1 X154.729 Y95.523 E13.55288
G1 X154.932 Y96.439 E13.58409
G1 X155.049 Y97.335 E13.61414
G1 X155.084 Y97.94 E13.6343
G1 X155.098 Y98.554 E13.65473
G1 X155.1 Y136.043 E14.90162
G1 X155.088 Y136.911 E14.93049
G1 X155.032 Y137.847 E14.96168
G1 X154.893 Y138.776 E14.99292
G1 X154.672 Y139.689 E15.02416
G1 X154.384 Y140.545 E15.0542
G1 X153.994 Y141.436 E15.08655
G1 X153.542 Y142.258 E15.11775
G1 X153.04 Y143.009 E15.1478
G1 X152.429 Y143.767 E15.18018
G1 X151.856 Y144.366 E15.20775
G1 X151.397 Y144.808 E15.22894
G1 X149.223 Y146.964 E15.33078
G1 X148.679 Y147.522 E15.3567
G1 X148.02 Y148.141 E15.38677
G1 X147.254 Y148.742 E15.41915
G1 X146.467 Y149.252 E15.45034
G1 X145.638 Y149.691 E15.48154
G1 X144.773 Y150.056 E15.51277
G1 X143.88 Y150.342 E15.54396
G1 X142.964 Y150.548 E15.57518
G1 X142.039 Y150.672 E15.60623
G1 X141.447 Y150.708 E15.62595
G1 X140.858 Y150.722 E15.64555
G1 X94.603 Y150.725 E17.18399
G0 F6000 X94.608 Y150.325
G1 F1200 X93.758 Y150.314 E17.21227
G1 X92.857 Y150.261 E17.24229
G1 X91.963 Y150.129 E17.27234
G1 X91.085 Y149.918 E17.30238
G1 X90.229 Y149.63 E17.33242
G1 X89.402 Y149.268 E17.36244
G1 X88.61 Y148.834 E17.39248
G1 X87.859 Y148.332 E17.42253
G1 X87.156 Y147.765 E17.45256
G1 X86.64 Y147.277 E17.47619
G1 X84.813 Y145.424 E17.56274
G1 X84.06 Y144.704 E17.59739
G1 X83.361 Y144.017 E17.62999
G1 X82.746 Y143.356 E17.66001
G1 X82.191 Y142.643 E17.69007
G1 X81.702 Y141.884 E17.7201
G1 X81.282 Y141.085 E17.75012
G1 X80.934 Y140.251 E17.78018
G1 X80.661 Y139.39 E17.81022
G1 X80.465 Y138.509 E17.84024
G1 X80.348 Y137.613 E17.87029
G1 X80.316 Y137.051 E17.88901
G1 X80.302 Y136.446 E17.90914
G1 X80.301 Y98.782 E19.16185
G1 X80.311 Y98.105 E19.18437
G1 X80.364 Y97.204 E19.21439
G1 X80.497 Y96.311 E19.24442
G1 X80.709 Y95.433 E19.27446
G1 X80.997 Y94.577 E19.3045
G1 X81.359 Y93.75 E19.33453
G1 X81.794 Y92.958 E19.36458
G1 X82.297 Y92.208 E19.39461
G1 X82.864 Y91.505 E19.42465
G1 X83.441 Y90.903 E19.45239
G1 X83.864 Y90.496 E19.47191
G1 X86.074 Y88.305 E19.57542
G1 X86.609 Y87.758 E19.60087
G1 X87.269 Y87.14 E19.63094
G1 X87.98 Y86.584 E19.66096
G1 X88.737 Y86.092 E19.69099
G1 X89.535 Y85.669 E19.72103
G1 X90.368 Y85.319 E19.75108
G1 X91.228 Y85.044 E19.78111
G1 X92.109 Y84.845 E19.81115
G1 X93.004 Y84.726 E19.84118
G1 X93.562 Y84.692 E19.85977
G1 X94.142 Y84.678 E19.87907
G1 X140.392 Y84.675 E21.41735
G1 X141.241 Y84.686 E21.44559
G1 X142.143 Y84.739 E21.47564
G1 X143.036 Y84.871 E21.50567
G1 X143.914 Y85.082 E21.5357
G1 X144.77 Y85.37 E21.56574
G1 X145.597 Y85.732 E21.59577
G1 X146.389 Y86.166 E21.62581
G1 X147.14 Y86.668 E21.65585
G1 X147.843 Y87.235 E21.68589
G1 X148.357 Y87.721 E21.70942
G1 X150.186 Y89.574 E21.79601
G1 X150.94 Y90.296 E21.83074
G1 X151.639 Y90.983 E21.86333
G1 X152.254 Y91.644 E21.89336
G1 X152.809 Y92.357 E21.92341
G1 X153.298 Y93.116 E21.95344
G1 X153.718 Y93.915 E21.98347
G1 X154.066 Y94.749 E22.01352
G1 X154.339 Y95.61 E22.04357
G1 X154.535 Y96.491 E22.07358
G1 X154.652 Y97.387 E22.10364
G1 X154.684 Y97.949 E22.12236
G1 X154.698 Y98.554 E22.14249
G1 X154.7 Y136.038 E23.38921
G1 X154.689 Y136.888 E23.41749
G1 X154.636 Y137.789 E23.4475
G1 X154.504 Y138.683 E23.47756
G1 X154.293 Y139.561 E23.5076
G1 X154.005 Y140.417 E23.53763
G1 X153.643 Y141.244 E23.56766
G1 X153.209 Y142.036 E23.5977
G1 X152.707 Y142.787 E23.62774
G1 X152.14 Y143.49 E23.65778
G1 X151.567 Y144.089 E23.68535
G1 X151.115 Y144.524 E23.70622
G1 X148.941 Y146.68 E23.80805
G1 X148.405 Y147.23 E23.8336
G1 X147.746 Y147.849 E23.86367
G1 X147.036 Y148.407 E23.8937
G1 X146.279 Y148.899 E23.92373
G1 X145.482 Y149.323 E23.95376
G1 X144.65 Y149.675 E23.9838
G1 X143.791 Y149.952 E24.01382
G1 X142.91 Y150.152 E24.04387
G1 X142.015 Y150.273 E24.07391
G1 X141.437 Y150.308 E24.09317
G1 X140.858 Y150.322 E24.11243
G1 X94.608 Y150.325 E25.65071
G1 F2700 E20.65071
;MESH:d1mini-top.stl
G0 F6000 X95.807 Y139.985
G0 X117.5 Y138.718
;TYPE:WALL-INNER
G1 F2700 E25.65071
G1 F1200 X138.931 Y138.717 E26.36351
G1 X138.82 Y138.294 E26.37806
G1 X138.764 Y137.939 E26.39001
G1 X138.749 Y137.589 E26.40166
G1 X138.771 Y137.246 E26.41309
G1 X138.832 Y136.894 E26.42498
G1 X138.908 Y136.614 E26.43463
G1 X139.06 Y136.237 E26.44815
G1 X139.196 Y135.977 E26.4579
G1 X139.431 Y135.63 E26.47184
G1 X139.66 Y135.367 E26.48344
G1 X139.918 Y135.125 E26.49521
G1 X140.198 Y134.918 E26.50679
G1 X140.505 Y134.736 E26.51866
G1 X140.761 Y134.616 E26.52806
G1 X141.154 Y134.486 E26.54183
G1 X141.506 Y134.411 E26.5538
G1 X141.778 Y134.383 E26.5629
G1 X142.212 Y134.379 E26.57733
G1 X142.496 Y134.411 E26.58684
G1 X142.84 Y134.487 E26.59855
G1 X143.096 Y134.569 E26.60749
G1 X143.096 Y100.428 E27.74303
G1 X142.832 Y100.515 E27.75227
G1 X142.499 Y100.585 E27.76359
G1 X142.156 Y100.62 E27.77506
G1 X141.789 Y100.617 E27.78727
G1 X141.501 Y100.585 E27.7969
G1 X141.154 Y100.51 E27.80871
G1 X140.761 Y100.38 E27.82248
G1 X140.505 Y100.26 E27.83188
G1 X140.198 Y100.078 E27.84375
G1 X139.918 Y99.871 E27.85533
G1 X139.619 Y99.586 E27.86907
G1 X139.431 Y99.366 E27.8787
G1 X139.194 Y99.019 E27.89268
G1 X139.058 Y98.755 E27.90255
G1 X138.909 Y98.384 E27.91585
G1 X138.819 Y98.044 E27.92755
G1 X138.764 Y97.687 E27.93956
G1 X138.749 Y97.337 E27.95121
G1 X138.771 Y96.994 E27.96265
G1 X138.834 Y96.637 E27.9747
G1 X138.943 Y96.28 E27.98712
G1 X96.063 Y96.281 E29.41331
G1 X96.162 Y96.638 E29.42563
G1 X96.225 Y96.994 E29.43766
G1 X96.247 Y97.407 E29.45141
G1 X96.232 Y97.687 E29.46074
G1 X96.177 Y98.045 E29.47279
G1 X96.087 Y98.384 E29.48445
G1 X95.939 Y98.762 E29.49795
G1 X95.799 Y99.026 E29.50789
G1 X95.565 Y99.366 E29.52162
G1 X95.336 Y99.629 E29.53322
G1 X95.078 Y99.871 E29.54499
G1 X94.798 Y100.078 E29.55657
G1 X94.491 Y100.26 E29.56844
G1 X94.235 Y100.38 E29.57784
G1 X93.893 Y100.495 E29.58984
G1 X93.499 Y100.585 E29.60328
G1 X93.156 Y100.62 E29.61475
G1 X92.789 Y100.617 E29.62696
G1 X92.44 Y100.575 E29.63865
G1 X92.164 Y100.515 E29.64804
G1 X91.904 Y100.43 E29.65714
G1 X91.905 Y134.568 E30.79258
G1 X92.156 Y134.487 E30.80135
G1 X92.506 Y134.411 E30.81326
G1 X92.778 Y134.383 E30.82236
G1 X93.212 Y134.379 E30.83679
G1 X93.496 Y134.411 E30.8463
G1 X93.893 Y134.501 E30.85984
G1 X94.235 Y134.616 E30.87184
G1 X94.491 Y134.736 E30.88124
G1 X94.798 Y134.918 E30.89311
G1 X95.078 Y135.125 E30.90469
G1 X95.377 Y135.41 E30.91843
G1 X95.565 Y135.63 E30.92806
G1 X95.797 Y135.971 E30.94177
G1 X95.967 Y136.297 E30.954
G1 X96.088 Y136.614 E30.96529
G1 X96.177 Y136.954 E30.97698
G1 X96.232 Y137.309 E30.98893
G1 X96.247 Y137.659 E31.00058
G1 X96.225 Y138.002 E31.01201
G1 X96.165 Y138.348 E31.02369
G1 X96.068 Y138.719 E31.03644
G1 X117.5 Y138.718 E31.74927
G1 F2700 E26.74927
G0 F6000 X113.468 Y138.539
G0 X113.468 Y119.018
G0 X113.47 Y118.838
G1 F2700 E31.74927
G1 F1200 X113.026 Y118.838 E31.76404
G1 X112.608 Y118.695 E31.77874
G1 X112.267 Y118.433 E31.79304
G1 X112.025 Y118.08 E31.80727
G1 X111.894 Y117.633 E31.82277
G1 X111.951 Y117.097 E31.84069
G1 X112.166 Y116.681 E31.85627
G1 X112.496 Y116.369 E31.87137
G1 X112.878 Y116.193 E31.88536
G1 X113.327 Y116.141 E31.9004
G1 X113.749 Y116.237 E31.91479
G1 X114.121 Y116.46 E31.92922
G1 X114.417 Y116.809 E31.94444
G1 X114.569 Y117.192 E31.95814
G1 X114.598 Y117.645 E31.97324
G1 X114.488 Y118.057 E31.98742
G1 X114.229 Y118.439 E32.00277
G1 X113.861 Y118.706 E32.01789
G1 X113.47 Y118.838 E32.03162
G0 F6000 X113.385 Y118.44
;TYPE:WALL-OUTER
G1 F1200 X113.111 Y118.44 E32.04073
G1 X112.784 Y118.327 E32.05224
G1 X112.557 Y118.149 E32.06184
G1 X112.389 Y117.903 E32.07174
G1 X112.305 Y117.605 E32.08204
G1 X112.342 Y117.208 E32.0953
G1 X112.483 Y116.936 E32.10549
G1 X112.713 Y116.708 E32.11626
G1 X113.009 Y116.579 E32.127
G1 X113.288 Y116.548 E32.13634
G1 X113.584 Y116.608 E32.14639
G1 X113.872 Y116.78 E32.15754
G1 X114.061 Y117.003 E32.16727
G1 X114.176 Y117.292 E32.17761
G1 X114.194 Y117.615 E32.18837
G1 X114.117 Y117.89 E32.19787
G1 X113.95 Y118.14 E32.20787
G1 X113.681 Y118.344 E32.2191
G1 X113.385 Y118.44 E32.22945
G1 F2700 E27.22945
G0 F6000 X113.385 Y118.75
G0 X113.499 Y119.019
G0 X113.497 Y138.539
G0 X117.5 Y139.12
G1 F2700 E32.22945
G1 F1200 X139.557 Y139.12 E32.96307
G1 X139.319 Y138.61 E32.98178
G1 X139.214 Y138.229 E32.99493
G1 X139.166 Y137.937 E33.00477
G1 X139.148 Y137.612 E33.0156
G1 X139.166 Y137.311 E33.02563
G1 X139.218 Y136.999 E33.03615
G1 X139.302 Y136.696 E33.0466
G1 X139.414 Y136.423 E33.05642
G1 X139.562 Y136.143 E33.06695
G1 X139.735 Y135.89 E33.07715
G1 X139.937 Y135.655 E33.08745
G1 X140.159 Y135.444 E33.09764
G1 X140.404 Y135.26 E33.10783
G1 X140.656 Y135.108 E33.11762
G1 X140.954 Y134.969 E33.12856
G1 X141.243 Y134.876 E33.13865
G1 X141.547 Y134.809 E33.14901
G1 X141.837 Y134.78 E33.1587
G1 X142.167 Y134.777 E33.16968
G1 X142.474 Y134.813 E33.17996
G1 X142.767 Y134.882 E33.18997
G1 X143.138 Y135.006 E33.20298
G1 X143.492 Y135.19 E33.21625
G1 X143.496 Y99.811 E34.39296
G1 X143.07 Y100.014 E34.40866
G1 X142.747 Y100.124 E34.42
G1 X142.471 Y100.184 E34.4294
G1 X142.18 Y100.219 E34.43915
G1 X141.833 Y100.219 E34.45069
G1 X141.545 Y100.187 E34.46033
G1 X141.243 Y100.12 E34.47062
G1 X140.931 Y100.018 E34.48153
G1 X140.656 Y99.888 E34.49165
G1 X140.404 Y99.736 E34.50144
G1 X140.141 Y99.537 E34.51241
G1 X139.923 Y99.326 E34.5225
G1 X139.735 Y99.106 E34.53212
G1 X139.55 Y98.836 E34.54301
G1 X139.406 Y98.556 E34.55348
G1 X139.302 Y98.3 E34.56267
G1 X139.214 Y97.98 E34.57371
G1 X139.166 Y97.685 E34.58365
G1 X139.148 Y97.36 E34.59448
G1 X139.166 Y97.059 E34.60451
G1 X139.219 Y96.745 E34.6151
G1 X139.291 Y96.489 E34.62394
G1 X139.415 Y96.164 E34.63551
G1 X139.574 Y95.88 E34.64634
G1 X95.441 Y95.881 E36.11421
G1 X95.677 Y96.389 E36.13284
G1 X95.782 Y96.767 E36.14589
G1 X95.83 Y97.059 E36.15573
G1 X95.848 Y97.384 E36.16655
G1 X95.83 Y97.685 E36.17658
G1 X95.782 Y97.981 E36.18656
G1 X95.695 Y98.297 E36.19746
G1 X95.595 Y98.553 E36.2066
G1 X95.433 Y98.858 E36.21809
G1 X95.261 Y99.106 E36.22812
G1 X95.059 Y99.341 E36.23843
G1 X94.837 Y99.552 E36.24862
G1 X94.592 Y99.736 E36.25881
G1 X94.34 Y99.888 E36.2686
G1 X94.042 Y100.027 E36.27953
G1 X93.77 Y100.115 E36.28904
G1 X93.452 Y100.187 E36.29989
G1 X93.18 Y100.219 E36.309
G1 X92.833 Y100.219 E36.32054
G1 X92.525 Y100.184 E36.33085
G1 X92.227 Y100.118 E36.341
G1 X91.887 Y100.002 E36.35295
G1 X91.504 Y99.801 E36.36733
G1 X91.504 Y135.181 E37.54408
G1 X91.952 Y134.974 E37.56049
G1 X92.246 Y134.877 E37.57079
G1 X92.547 Y134.809 E37.58105
G1 X92.837 Y134.78 E37.59075
G1 X93.167 Y134.777 E37.60172
