;FLAVOR:Marlin
;TIME:7661
;Filament used: 5.43322m
;Layer height: 0.2
;MINX:76.048
;MINY:80.384
;MINZ:0.2
;MAXX:143.952
;MAXY:139.577
;MAXZ:24
;TARGET_MACHINE.NAME:Creality Ender-3
;Generated with Cura_SteamEngine 5.9.0
M140 S90
M105
M190 S90
M104 S240
M105
M109 S240
M82 ;absolute extrusion mode
; Ender 3 Custom Start G-code
G92 E0 ; Reset Extruder
G28 ; Home all axes
G1 Z2.0 F3000 ; Move Z Axis up little to prevent scratching of Heat Bed
G1 X0.1 Y20 Z0.3 F5000.0 ; Move to start position
G1 X0.1 Y200.0 Z0.3 F1500.0 E15 ; Draw the first line
G1 X0.4 Y200.0 Z0.3 F5000.0 ; Move to side a little
G1 X0.4 Y20 Z0.3 F1500.0 E30 ; Draw the second line
G92 E0 ; Reset Extruder
G1 Z2.0 F3000 ; Move Z Axis up little to prevent scratching of Heat Bed
G1 X5 Y20 Z0.3 F5000.0 ; Move over to prevent blob squish
G92 E0
G92 E0
G1 F2700 E-5
;LAYER_COUNT:120
;LAYER:0
M107
G0 F6000 X84.651 Y139.577 Z0.2
;TYPE:SKIRT
G1 F2700 E0
G1 F1200 X82.991 Y139.393 E0.05555
G1 X80.292 Y138.176 E0.15402
G1 X77.981 Y136.098 E0.25739
G1 X76.775 Y133.952 E0.33927
G1 X76.162 Y132.018 E0.40674
G1 X76.049 Y130.945 E0.44263
G1 X76.048 Y89.026 E1.83686
G1 X76.232 Y87.366 E1.89241
G1 X77.449 Y84.667 E1.99088
G1 X79.527 Y82.356 E2.09425
G1 X81.673 Y81.15 E2.17613
G1 X83.607 Y80.537 E2.24361
G1 X84.682 Y80.424 E2.27956
G1 X134.499 Y80.384 E3.93648
G1 X136.931 Y80.57 E4.0176
G1 X139.74 Y81.847 E4.12023
G1 X141.996 Y83.86 E4.2208
G1 X143.231 Y86.064 E4.30483
G1 X143.838 Y87.981 E4.3717
G1 X143.951 Y89.055 E4.40762
G1 X143.952 Y130.974 E5.80185
G1 X143.768 Y132.634 E5.8574
G1 X142.551 Y135.333 E5.95588
G1 X140.473 Y137.644 E6.05925
G1 X138.327 Y138.85 E6.14112
G1 X136.393 Y139.463 E6.2086
G1 X135.318 Y139.576 E6.24455
G1 X84.651 Y139.577 E7.92974
G0 F6000 X84.695 Y139.179
G1 F1200 X83.097 Y139.002 E7.98322
G1 X80.511 Y137.836 E8.07757
G1 X78.299 Y135.847 E8.17651
G1 X77.143 Y133.79 E8.25499
G1 X76.556 Y131.938 E8.3196
G1 X76.447 Y130.903 E8.35422
G1 X76.446 Y89.07 E9.74559
G1 X76.623 Y87.472 E9.79907
G1 X77.789 Y84.886 E9.89341
G1 X79.778 Y82.674 E9.99235
G1 X81.835 Y81.518 E10.07083
G1 X83.687 Y80.931 E10.13545
G1 X84.724 Y80.822 E10.17013
G1 X134.499 Y80.784 E11.82566
G1 X136.831 Y80.964 E11.90345
G1 X139.52 Y82.186 E12.00169
G1 X141.678 Y84.112 E12.09789
G1 X142.863 Y86.226 E12.1785
G1 X143.444 Y88.061 E12.24252
G1 X143.553 Y89.097 E12.27716
G1 X143.554 Y130.93 E13.66854
G1 X143.377 Y132.528 E13.72201
G1 X142.211 Y135.114 E13.81636
G1 X140.222 Y137.326 E13.9153
G1 X138.165 Y138.482 E13.99378
G1 X136.313 Y139.069 E14.0584
G1 X135.276 Y139.178 E14.09308
G1 X84.695 Y139.179 E15.77541
G0 F6000 X84.739 Y138.781
G1 F1200 X83.203 Y138.611 E15.82681
G1 X80.73 Y137.496 E15.91703
G1 X78.617 Y135.596 E16.01155
G1 X77.511 Y133.628 E16.08663
G1 X76.95 Y131.858 E16.14839
G1 X76.845 Y130.861 E16.18173
G1 X76.844 Y89.114 E17.57024
G1 X77.014 Y87.578 E17.62164
G1 X78.129 Y85.105 E17.71187
G1 X80.029 Y82.992 E17.80638
G1 X81.997 Y81.886 E17.88147
G1 X83.767 Y81.325 E17.94322
G1 X84.766 Y81.22 E17.97663
G1 X134.499 Y81.184 E19.63076
G1 X136.731 Y81.358 E19.70522
G1 X139.3 Y82.525 E19.79907
G1 X141.36 Y84.364 E19.89091
G1 X142.495 Y86.388 E19.96809
G1 X143.05 Y88.141 E20.02925
G1 X143.155 Y89.139 E20.06263
G1 X143.156 Y130.886 E21.45114
G1 X142.986 Y132.422 E21.50254
G1 X141.871 Y134.895 E21.59277
G1 X139.971 Y137.008 E21.68728
G1 X138.003 Y138.114 E21.76236
G1 X136.233 Y138.675 E21.82412
G1 X135.234 Y138.78 E21.85753
G1 X84.739 Y138.781 E23.537
G0 F6000 X84.783 Y138.383
G1 F1200 X83.309 Y138.22 E23.58632
G1 X80.949 Y137.156 E23.67243
G1 X78.935 Y135.345 E23.76251
G1 X77.879 Y133.466 E23.8342
G1 X77.344 Y131.778 E23.8931
G1 X77.243 Y130.819 E23.92517
G1 X77.242 Y89.158 E25.31082
G1 X77.405 Y87.684 E25.36014
G1 X78.469 Y85.324 E25.44625
G1 X80.28 Y83.31 E25.53633
G1 X82.159 Y82.254 E25.60802
G1 X83.847 Y81.719 E25.66692
G1 X84.808 Y81.618 E25.69905
G1 X134.499 Y81.584 E27.35178
G1 X136.631 Y81.752 E27.42291
G1 X139.08 Y82.864 E27.51237
G1 X141.042 Y84.616 E27.59986
G1 X142.127 Y86.55 E27.67362
G1 X142.656 Y88.221 E27.73191
G1 X142.757 Y89.181 E27.76402
G1 X142.758 Y130.842 E29.14967
G1 X142.595 Y132.316 E29.19899
G1 X141.531 Y134.676 E29.2851
G1 X139.72 Y136.69 E29.37518
G1 X137.841 Y137.746 E29.44687
G1 X136.153 Y138.281 E29.50576
G1 X135.192 Y138.382 E29.5379
G1 X84.783 Y138.383 E31.21451
G0 F6000 X84.827 Y137.985
G1 F1200 X83.415 Y137.829 E31.26176
G1 X81.168 Y136.816 E31.34374
G1 X79.253 Y135.094 E31.4294
G1 X78.247 Y133.304 E31.49769
G1 X77.738 Y131.698 E31.55373
G1 X77.641 Y130.777 E31.58453
G1 X77.64 Y89.202 E32.96732
G1 X77.796 Y87.79 E33.01457
G1 X78.809 Y85.543 E33.09655
G1 X80.531 Y83.628 E33.1822
G1 X82.321 Y82.622 E33.2505
G1 X83.927 Y82.113 E33.30653
G1 X84.85 Y82.016 E33.3374
G1 X134.499 Y81.984 E34.98873
G1 X136.531 Y82.146 E35.05653
G1 X138.86 Y83.203 E35.1416
G1 X140.724 Y84.868 E35.22473
G1 X141.759 Y86.712 E35.29506
G1 X142.262 Y88.301 E35.3505
G1 X142.359 Y89.223 E35.38133
G1 X142.36 Y130.798 E36.76412
G1 X142.204 Y132.21 E36.81137
G1 X141.191 Y134.457 E36.89335
G1 X139.469 Y136.372 E36.97901
G1 X137.679 Y137.378 E37.0473
G1 X136.073 Y137.887 E37.10333
G1 X135.15 Y137.984 E37.1342
G1 X84.827 Y137.985 E38.80795
G0 F6000 X84.871 Y137.587
G1 F1200 X83.521 Y137.438 E38.85313
G1 X81.387 Y136.476 E38.93098
G1 X79.571 Y134.843 E39.01221
G1 X78.615 Y133.142 E39.07711
G1 X78.132 Y131.618 E39.13028
G1 X78.039 Y130.735 E39.15981
G1 X78.038 Y89.246 E40.53974
G1 X78.187 Y87.896 E40.58492
G1 X79.149 Y85.762 E40.66277
G1 X80.782 Y83.946 E40.744
G1 X82.483 Y82.99 E40.8089
G1 X84.007 Y82.507 E40.86207
G1 X84.892 Y82.414 E40.89167
G1 X134.499 Y82.384 E42.54161
G1 X136.431 Y82.54 E42.60608
G1 X138.638 Y83.541 E42.68668
G1 X140.407 Y85.122 E42.76559
G1 X141.391 Y86.874 E42.83242
G1 X141.868 Y88.381 E42.885
G1 X141.961 Y89.265 E42.91456
G1 X141.962 Y130.754 E44.29449
G1 X141.813 Y132.104 E44.33966
G1 X140.851 Y134.238 E44.41752
G1 X139.218 Y136.054 E44.49875
G1 X137.517 Y137.01 E44.56365
G1 X135.993 Y137.493 E44.61682
G1 X135.108 Y137.586 E44.64642
G1 X84.871 Y137.587 E46.31731
G0 F6000 X84.915 Y137.189
G1 F1200 X83.627 Y137.047 E46.36041
G1 X81.606 Y136.136 E46.43414
G1 X79.889 Y134.592 E46.51094
G1 X78.983 Y132.98 E46.57244
G1 X78.526 Y131.538 E46.62275
G1 X78.437 Y130.693 E46.65102
G1 X78.436 Y89.29 E48.02808
G1 X78.578 Y88.002 E48.07118
G1 X79.489 Y85.981 E48.14492
G1 X81.033 Y84.264 E48.22172
G1 X82.645 Y83.358 E48.28322
G1 X84.087 Y82.901 E48.33353
G1 X84.934 Y82.812 E48.36186
G1 X134.499 Y82.784 E50.0104
G1 X136.331 Y82.934 E50.07153
G1 X138.416 Y83.879 E50.14767
G1 X140.09 Y85.376 E50.22236
G1 X141.023 Y87.036 E50.2857
G1 X141.474 Y88.461 E50.33541
G1 X141.563 Y89.307 E50.36371
G1 X141.564 Y130.71 E51.74078
G1 X141.422 Y131.998 E51.78387
G1 X140.511 Y134.019 E51.85761
G1 X138.967 Y135.736 E51.93441
G1 X137.355 Y136.642 E51.99591
G1 X135.913 Y137.099 E52.04622
G1 X135.066 Y137.188 E52.07455
G1 X84.915 Y137.189 E53.74258
G0 F6000 X84.959 Y136.791
G1 F1200 X83.733 Y136.656 E53.7836
G1 X81.825 Y135.796 E53.85321
G1 X80.207 Y134.341 E53.92558
G1 X79.351 Y132.818 E53.98369
G1 X78.92 Y131.458 E54.03114
G1 X78.835 Y130.651 E54.05813
G1 X78.834 Y89.334 E55.43234
G1 X78.969 Y88.108 E55.47337
G1 X79.829 Y86.2 E55.54297
G1 X81.284 Y84.582 E55.61535
G1 X82.807 Y83.726 E55.67346
G1 X84.167 Y83.295 E55.72091
G1 X84.976 Y83.21 E55.74796
G1 X134.499 Y83.184 E57.3951
G1 X136.231 Y83.328 E57.45291
G1 X138.194 Y84.217 E57.52458
G1 X139.773 Y85.63 E57.59506
G1 X140.655 Y87.198 E57.65489
G1 X141.08 Y88.541 E57.70175
G1 X141.165 Y89.349 E57.72877
G1 X141.166 Y130.666 E59.10298
G1 X141.031 Y131.892 E59.144
G1 X140.171 Y133.8 E59.21361
G1 X138.716 Y135.418 E59.28598
G1 X137.193 Y136.274 E59.34409
G1 X135.833 Y136.705 E59.39154
G1 X135.024 Y136.79 E59.4186
G1 X84.959 Y136.791 E61.08377
G0 F6000 X85.003 Y136.393
G1 F1200 X83.839 Y136.265 E61.12271
G1 X82.044 Y135.456 E61.1882
G1 X80.525 Y134.09 E61.25615
G1 X79.719 Y132.656 E61.31086
G1 X79.314 Y131.378 E61.35545
G1 X79.233 Y130.609 E61.38117
G1 X79.232 Y89.378 E62.75252
G1 X79.36 Y88.214 E62.79146
G1 X80.169 Y86.419 E62.85695
G1 X81.535 Y84.9 E62.9249
G1 X82.969 Y84.094 E62.97961
G1 X84.247 Y83.689 E63.0242
G1 X85.018 Y83.608 E63.04998
G1 X134.499 Y83.584 E64.69573
G1 X136.131 Y83.722 E64.7502
G1 X137.972 Y84.555 E64.81741
G1 X139.456 Y85.884 E64.88367
G1 X140.287 Y87.36 E64.94001
G1 X140.686 Y88.621 E64.984
G1 X140.767 Y89.391 E65.00975
G1 X140.768 Y130.622 E66.3811
G1 X140.64 Y131.786 E66.42004
G1 X139.831 Y133.581 E66.48553
G1 X138.465 Y135.1 E66.55348
G1 X137.031 Y135.906 E66.60819
G1 X135.753 Y136.311 E66.65278
G1 X134.982 Y136.392 E66.67856
G1 X85.003 Y136.393 E68.34087
G0 F6000 X85.047 Y135.995
G1 F1200 X83.945 Y135.874 E68.37774
G1 X82.263 Y135.116 E68.43911
G1 X80.843 Y133.839 E68.50262
G1 X80.087 Y132.494 E68.55394
G1 X79.708 Y131.298 E68.59567
G1 X79.631 Y130.567 E68.62012
G1 X79.63 Y89.422 E69.98861
G1 X79.751 Y88.32 E70.02548
G1 X80.509 Y86.638 E70.08684
G1 X81.786 Y85.218 E70.15036
G1 X83.131 Y84.462 E70.20168
G1 X84.327 Y84.083 E70.24341
G1 X85.06 Y84.006 E70.26792
G1 X134.499 Y83.984 E71.91227
G1 X136.031 Y84.115 E71.96341
G1 X137.75 Y84.893 E72.02617
G1 X139.139 Y86.138 E72.08821
G1 X139.919 Y87.523 E72.14107
G1 X140.292 Y88.701 E72.18217
G1 X140.369 Y89.433 E72.20665
G1 X140.37 Y130.578 E73.57514
G1 X140.249 Y131.68 E73.61201
G1 X139.491 Y133.362 E73.67338
G1 X138.214 Y134.782 E73.73689
G1 X136.869 Y135.538 E73.78821
G1 X135.673 Y135.917 E73.82994
G1 X134.94 Y135.994 E73.85445
G1 X85.047 Y135.995 E75.5139
G0 F6000 X85.091 Y135.597
G1 F1200 X84.051 Y135.483 E75.5487
G1 X82.482 Y134.776 E75.60594
G1 X81.161 Y133.588 E75.66503
G1 X80.455 Y132.332 E75.71295
G1 X80.102 Y131.218 E75.75182
G1 X80.029 Y130.525 E75.77499
G1 X80.028 Y89.466 E77.14062
G1 X80.142 Y88.426 E77.17542
G1 X80.849 Y86.857 E77.23266
G1 X82.037 Y85.536 E77.29175
G1 X83.293 Y84.83 E77.33967
G1 X84.407 Y84.477 E77.37854
G1 X85.102 Y84.404 E77.40178
G1 X134.499 Y84.384 E79.04473
G1 X135.931 Y84.508 E79.09254
G1 X137.528 Y85.231 E79.15085
G1 X138.822 Y86.392 E79.20867
G1 X139.551 Y87.686 E79.25807
G1 X139.898 Y88.781 E79.29627
G1 X139.971 Y89.475 E79.31948
G1 X139.972 Y130.534 E80.68511
G1 X139.858 Y131.574 E80.71991
G1 X139.151 Y133.143 E80.77715
G1 X137.963 Y134.464 E80.83624
G1 X136.707 Y135.17 E80.88416
G1 X135.593 Y135.523 E80.92303
G1 X134.898 Y135.596 E80.94627
G1 X85.091 Y135.597 E82.60286
G0 F6000 X85.135 Y135.199
G1 F1200 X84.157 Y135.092 E82.63558
G1 X82.701 Y134.436 E82.68869
G1 X81.479 Y133.337 E82.74336
G1 X80.823 Y132.17 E82.78788
G1 X80.496 Y131.138 E82.82389
G1 X80.427 Y130.483 E82.8458
G1 X80.426 Y89.51 E84.20856
G1 X80.533 Y88.532 E84.24129
G1 X81.189 Y87.076 E84.2944
G1 X82.288 Y85.854 E84.34906
G1 X83.455 Y85.198 E84.39359
G1 X84.487 Y84.871 E84.4296
G1 X85.144 Y84.802 E84.45157
G1 X134.499 Y84.784 E86.09312
G1 X135.828 Y84.9 E86.13749
G1 X137.306 Y85.569 E86.19145
G1 X138.507 Y86.647 E86.24513
G1 X139.182 Y87.845 E86.29086
G1 X139.504 Y88.861 E86.32631
G1 X139.573 Y89.517 E86.34825
G1 X139.574 Y130.49 E87.71102
G1 X139.467 Y131.468 E87.74374
G1 X138.811 Y132.924 E87.79686
G1 X137.712 Y134.146 E87.85152
G1 X136.545 Y134.802 E87.89605
G1 X135.513 Y135.129 E87.93205
G1 X134.856 Y135.198 E87.95403
G1 X85.135 Y135.199 E89.60775
G0 F6000 X85.178 Y134.801
G1 F1200 X84.263 Y134.701 E89.63837
G1 X82.92 Y134.096 E89.68736
G1 X81.797 Y133.086 E89.73759
G1 X81.191 Y132.008 E89.77873
G1 X80.89 Y131.058 E89.81187
G1 X80.825 Y130.441 E89.83251
G1 X80.824 Y89.553 E91.19245
G1 X80.924 Y88.638 E91.22306
G1 X81.529 Y87.295 E91.27205
G1 X82.539 Y86.172 E91.32229
G1 X83.617 Y85.566 E91.36342
G1 X84.567 Y85.265 E91.39656
G1 X85.186 Y85.2 E91.41726
G1 X134.499 Y85.184 E93.05742
G1 X135.725 Y85.292 E93.09836
G1 X137.084 Y85.907 E93.14797
G1 X138.192 Y86.902 E93.1975
G1 X138.813 Y88.004 E93.23957
G1 X139.11 Y88.941 E93.27227
G1 X139.175 Y89.559 E93.29293
G1 X139.176 Y130.447 E94.65287
G1 X139.076 Y131.362 E94.68349
G1 X138.471 Y132.705 E94.73248
G1 X137.461 Y133.828 E94.78272
G1 X136.383 Y134.434 E94.82385
G1 X135.433 Y134.735 E94.85699
G1 X134.814 Y134.8 E94.87769
G1 X85.178 Y134.801 E96.52859
G0 F6000 X85.221 Y134.403
G1 F1200 X84.369 Y134.31 E96.5571
G1 X83.139 Y133.756 E96.60197
G1 X82.115 Y132.835 E96.64777
G1 X81.559 Y131.846 E96.68551
G1 X81.284 Y130.978 E96.71579
G1 X81.223 Y130.399 E96.73516
G1 X81.222 Y89.596 E98.09227
G1 X81.315 Y88.744 E98.12078
G1 X81.869 Y87.514 E98.16565
G1 X82.79 Y86.49 E98.21145
G1 X83.779 Y85.934 E98.24919
G1 X84.647 Y85.659 E98.27947
G1 X85.228 Y85.598 E98.2989
G1 X134.499 Y85.584 E99.93766
G1 X135.622 Y85.684 E99.97516
G1 X136.862 Y86.245 E100.02043
G1 X137.877 Y87.157 E100.06582
G1 X138.444 Y88.163 E100.10422
G1 X138.716 Y89.021 E100.13416
G1 X138.777 Y89.601 E100.15356
G1 X138.778 Y130.404 E101.51067
G1 X138.685 Y131.256 E101.53918
G1 X138.131 Y132.486 E101.58404
G1 X137.21 Y133.51 E101.62985
G1 X136.221 Y134.066 E101.66759
G1 X135.353 Y134.341 E101.69787
G1 X134.772 Y134.402 E101.7173
G1 X85.221 Y134.403 E103.36538
G0 F6000 X85.264 Y134.005
G1 F1200 X84.475 Y133.919 E103.39177
G1 X83.358 Y133.416 E103.43252
G1 X82.433 Y132.584 E103.4739
G1 X81.927 Y131.684 E103.50824
G1 X81.678 Y130.898 E103.53566
G1 X81.621 Y130.357 E103.55376
G1 X81.62 Y89.639 E104.90804
G1 X81.706 Y88.85 E104.93444
G1 X82.209 Y87.733 E104.97518
G1 X83.041 Y86.808 E105.01656
G1 X83.941 Y86.302 E105.0509
G1 X84.727 Y86.053 E105.07833
G1 X85.27 Y85.996 E105.09649
G1 X134.499 Y85.984 E106.73385
G1 X135.519 Y86.076 E106.76791
G1 X136.642 Y86.584 E106.80891
G1 X137.561 Y87.41 E106.85001
G1 X138.075 Y88.322 E106.88482
G1 X138.322 Y89.101 E106.91201
G1 X138.379 Y89.643 E106.93013
G1 X138.38 Y130.361 E108.28442
G1 X138.294 Y131.15 E108.31082
G1 X137.791 Y132.267 E108.35156
G1 X136.959 Y133.192 E108.39294
G1 X136.059 Y133.698 E108.42728
G1 X135.273 Y133.947 E108.4547
G1 X134.73 Y134.004 E108.47286
G1 X85.264 Y134.005 E110.11811
G0 F6000 X85.307 Y133.607
G1 F1200 X84.581 Y133.528 E110.1424
G1 X83.579 Y133.077 E110.17895
G1 X82.75 Y132.331 E110.21604
G1 X82.295 Y131.522 E110.24691
G1 X82.072 Y130.818 E110.27147
G1 X82.019 Y130.315 E110.28829
G1 X82.018 Y89.682 E111.63975
G1 X82.097 Y88.956 E111.66404
G1 X82.548 Y87.954 E111.70059
G1 X83.294 Y87.125 E111.73768
G1 X84.103 Y86.67 E111.76855
G1 X84.807 Y86.447 E111.79312
G1 X85.312 Y86.394 E111.81
G1 X134.499 Y86.384 E113.44597
G1 X135.416 Y86.468 E113.4766
G1 X136.42 Y86.922 E113.51325
G1 X137.246 Y87.665 E113.5502
G1 X137.706 Y88.481 E113.58135
G1 X137.928 Y89.181 E113.60578
G1 X137.981 Y89.685 E113.62263
G1 X137.982 Y130.318 E114.97409
G1 X137.903 Y131.044 E114.99838
G1 X137.452 Y132.046 E115.03493
G1 X136.706 Y132.875 E115.07202
G1 X135.897 Y133.33 E115.10289
G1 X135.193 Y133.553 E115.12746
G1 X134.688 Y133.606 E115.14434
G1 X85.307 Y133.607 E116.78676
G0 F6000 X85.35 Y133.209
G1 F1200 X84.687 Y133.137 E116.80894
G1 X83.8 Y132.738 E116.84129
G1 X83.067 Y132.078 E116.8741
G1 X82.663 Y131.36 E116.9015
G1 X82.466 Y130.738 E116.9232
G1 X82.417 Y130.273 E116.93875
G1 X82.416 Y89.725 E118.28739
G1 X82.488 Y89.062 E118.30957
G1 X82.887 Y88.175 E118.34192
G1 X83.547 Y87.442 E118.37472
G1 X84.265 Y87.038 E118.40212
G1 X84.887 Y86.841 E118.42382
G1 X85.354 Y86.792 E118.43944
G1 X134.499 Y86.784 E120.07401
G1 X135.31 Y86.86 E120.1011
G1 X136.2 Y87.262 E120.13358
G1 X136.929 Y87.918 E120.1662
G1 X137.338 Y88.644 E120.19392
G1 X137.534 Y89.261 E120.21545
G1 X137.583 Y89.727 E120.23103
G1 X137.584 Y130.275 E121.57967
G1 X137.512 Y130.938 E121.60185
G1 X137.113 Y131.825 E121.6342
G1 X136.453 Y132.558 E121.667
G1 X135.735 Y132.962 E121.6944
G1 X135.113 Y133.159 E121.7161
G1 X134.646 Y133.208 E121.73172
G1 X85.35 Y133.209 E123.37131
G0 F6000 X85.393 Y132.811
G1 F1200 X84.793 Y132.746 E123.39139
G1 X84.021 Y132.399 E123.41954
G1 X83.382 Y131.823 E123.44815
G1 X83.032 Y131.202 E123.47186
G1 X82.86 Y130.658 E123.49084
G1 X82.815 Y130.231 E123.50512
G1 X82.814 Y89.768 E124.85092
G1 X82.879 Y89.168 E124.871
G1 X83.226 Y88.396 E124.89915
G1 X83.802 Y87.757 E124.92776
G1 X84.423 Y87.407 E124.95147
G1 X84.967 Y87.235 E124.97045
