;FLAVOR:Marlin
;TIME:3947
;Filament used: 2.57532m
;Layer height: 0.2
;MINX:76.009
;MINY:80.384
;MINZ:0.2
;MAXX:143.991
;MAXY:139.616
;MAXZ:5.2
;TARGET_MACHINE.NAME:Creality Ender-3
;Generated with Cura_SteamEngine 5.9.0
M140 S90
M105
M190 S90
M104 S240
M105
M109 S240
M82 ;absolute extrusion mode
; Ender 3 Custom Start G-code
G92 E0 ; Reset Extruder
G28 ; Home all axes
G1 Z2.0 F3000 ; Move Z Axis up little to prevent scratching of Heat Bed
G1 X0.1 Y20 Z0.3 F5000.0 ; Move to start position
G1 X0.1 Y200.0 Z0.3 F1500.0 E15 ; Draw the first line
G1 X0.4 Y200.0 Z0.3 F5000.0 ; Move to side a little
G1 X0.4 Y20 Z0.3 F1500.0 E30 ; Draw the second line
G92 E0 ; Reset Extruder
G1 Z2.0 F3000 ; Move Z Axis up little to prevent scratching of Heat Bed
G1 X5 Y20 Z0.3 F5000.0 ; Move over to prevent blob squish
G92 E0
G92 E0
G1 F2700 E-5
;LAYER_COUNT:26
;LAYER:0
M107
G0 F6000 X87.661 Y139.616 Z0.2
;TYPE:SKIRT
G1 F2700 E0
G1 F1200 X86.018 Y139.193 E0.05643
G1 X84.767 Y138.714 E0.10098
G1 X83.162 Y137.416 E0.16964
G1 X82.212 Y136.444 E0.21484
G1 X81.287 Y134.685 E0.28094
G1 X81.204 Y134.42 E0.29018
G1 X80.995 Y134.357 E0.29744
G1 X79.644 Y133.637 E0.34836
G1 X78.466 Y132.827 E0.39591
G1 X77.17 Y131.129 E0.46695
G1 X76.585 Y130.133 E0.50537
G1 X76.009 Y128.034 E0.57777
G1 X76.009 Y92.058 E1.77433
G1 X76.509 Y90.15 E1.83993
G1 X76.852 Y89.289 E1.87076
G1 X78.097 Y87.599 E1.94058
G1 X79.51 Y86.412 E2.00195
G1 X80.796 Y85.719 E2.05054
G1 X81.2 Y85.611 E2.06445
G1 X81.284 Y85.328 E2.07427
G1 X82.248 Y83.633 E2.13913
G1 X82.901 Y82.758 E2.17544
G1 X84.478 Y81.563 E2.24125
G1 X85.497 Y80.965 E2.28055
G1 X87.646 Y80.385 E2.35458
G1 X132.339 Y80.384 E3.84107
G1 X133.982 Y80.807 E3.8975
G1 X135.233 Y81.286 E3.94206
G1 X136.838 Y82.584 E4.01071
G1 X137.788 Y83.556 E4.05592
G1 X138.713 Y85.315 E4.12202
G1 X138.796 Y85.58 E4.13125
G1 X139.005 Y85.643 E4.13851
G1 X140.356 Y86.363 E4.18943
G1 X141.534 Y87.173 E4.23698
G1 X142.83 Y88.871 E4.30803
G1 X143.415 Y89.867 E4.34645
G1 X143.991 Y91.966 E4.41884
G1 X143.991 Y127.942 E5.61541
G1 X143.491 Y129.85 E5.68101
G1 X143.148 Y130.711 E5.71183
G1 X141.903 Y132.401 E5.78165
G1 X140.49 Y133.588 E5.84303
G1 X139.204 Y134.28 E5.8916
G1 X138.801 Y134.388 E5.90548
G1 X138.72 Y134.663 E5.91501
G1 X137.879 Y136.17 E5.97241
G1 X137.105 Y137.239 E6.01631
G1 X135.564 Y138.409 E6.08066
G1 X134.503 Y139.035 E6.12164
G1 X132.354 Y139.615 E6.19567
G1 X87.661 Y139.616 E7.68216
G0 F6000 X87.713 Y139.216
G1 F1200 X86.161 Y138.819 E7.73545
G1 X84.967 Y138.362 E7.77797
G1 X83.448 Y137.136 E7.84289
G1 X82.538 Y136.205 E7.88619
G1 X81.641 Y134.499 E7.9503
G1 X81.527 Y134.085 E7.96458
G1 X81.183 Y134.004 E7.97634
G1 X79.871 Y133.307 E8.02575
G1 X78.745 Y132.533 E8.0712
G1 X77.515 Y130.926 E8.1385
G1 X76.957 Y129.976 E8.17515
G1 X76.409 Y127.979 E8.24402
G1 X76.409 Y92.109 E9.43706
G1 X76.881 Y90.298 E9.49931
G1 X77.206 Y89.483 E9.52849
G1 X78.391 Y87.874 E9.59496
G1 X79.734 Y86.746 E9.65329
G1 X80.946 Y86.093 E9.69908
G1 X81.534 Y85.935 E9.71933
G1 X81.632 Y85.525 E9.73335
G1 X82.569 Y83.872 E9.79655
G1 X83.189 Y83.041 E9.83103
G1 X84.68 Y81.908 E9.89332
G1 X85.653 Y81.337 E9.93084
G1 X87.698 Y80.785 E10.00129
G1 X132.287 Y80.784 E11.48433
G1 X133.839 Y81.181 E11.53761
G1 X135.033 Y81.638 E11.58013
G1 X136.552 Y82.864 E11.64506
G1 X137.462 Y83.795 E11.68836
G1 X138.359 Y85.501 E11.75246
G1 X138.473 Y85.915 E11.76675
G1 X138.817 Y85.996 E11.7785
G1 X140.129 Y86.693 E11.82791
G1 X141.255 Y87.467 E11.87336
G1 X142.485 Y89.074 E11.94067
G1 X143.043 Y90.024 E11.97731
G1 X143.591 Y92.021 E12.04619
G1 X143.591 Y127.891 E13.23923
G1 X143.119 Y129.702 E13.30148
G1 X142.794 Y130.517 E13.33066
G1 X141.609 Y132.126 E13.39712
G1 X140.266 Y133.254 E13.45546
G1 X139.054 Y133.907 E13.50125
G1 X138.467 Y134.064 E13.52146
G1 X138.37 Y134.469 E13.53531
G1 X137.555 Y135.935 E13.59109
G1 X136.814 Y136.958 E13.63311
G1 X135.361 Y138.065 E13.69386
G1 X134.348 Y138.663 E13.73299
G1 X132.302 Y139.215 E13.80347
G1 X87.713 Y139.216 E15.28651
G0 F6000 X87.765 Y138.816
G1 F1200 X86.26 Y138.431 E15.33818
G1 X85.172 Y138.013 E15.37694
G1 X83.734 Y136.856 E15.43833
G1 X82.864 Y135.966 E15.47972
G1 X82.016 Y134.353 E15.54033
G1 X81.85 Y133.75 E15.56114
G1 X81.328 Y133.627 E15.57897
G1 X80.098 Y132.977 E15.62524
G1 X79.021 Y132.237 E15.66871
G1 X77.86 Y130.723 E15.73216
G1 X77.329 Y129.819 E15.76703
G1 X76.809 Y127.924 E15.83239
G1 X76.809 Y92.16 E17.02191
G1 X77.268 Y90.399 E17.08244
G1 X77.558 Y89.679 E17.10825
G1 X78.685 Y88.149 E17.17146
G1 X79.958 Y87.08 E17.22674
G1 X81.096 Y86.467 E17.26974
G1 X81.868 Y86.259 E17.29633
G1 X82.008 Y85.673 E17.31637
G1 X82.89 Y84.111 E17.37603
G1 X83.477 Y83.324 E17.40869
G1 X84.882 Y82.253 E17.46744
G1 X85.809 Y81.709 E17.50319
G1 X87.75 Y81.185 E17.57006
G1 X132.235 Y81.184 E19.04964
G1 X133.74 Y81.569 E19.10131
G1 X134.828 Y81.987 E19.14007
G1 X136.266 Y83.144 E19.20146
G1 X137.136 Y84.034 E19.24286
G1 X137.984 Y85.647 E19.30347
G1 X138.15 Y86.25 E19.32427
G1 X138.672 Y86.373 E19.34211
G1 X139.902 Y87.023 E19.38838
G1 X140.979 Y87.763 E19.43184
G1 X142.14 Y89.277 E19.4953
G1 X142.671 Y90.181 E19.53017
G1 X143.191 Y92.076 E19.59552
G1 X143.191 Y127.84 E20.78504
G1 X142.732 Y129.601 E20.84557
G1 X142.442 Y130.321 E20.87138
G1 X141.315 Y131.851 E20.93459
G1 X140.042 Y132.92 E20.98988
G1 X138.904 Y133.533 E21.03287
G1 X138.133 Y133.74 E21.05942
G1 X137.994 Y134.322 E21.07932
G1 X137.231 Y135.7 E21.13171
G1 X136.524 Y136.675 E21.17177
G1 X135.118 Y137.747 E21.23057
G1 X134.191 Y138.291 E21.26632
G1 X132.25 Y138.815 E21.33319
G1 X87.765 Y138.816 E22.81277
G0 F6000 X87.817 Y138.416
G1 F1200 X86.359 Y138.043 E22.86282
G1 X85.374 Y137.662 E22.89795
G1 X84.02 Y136.576 E22.95568
G1 X83.19 Y135.727 E22.99517
G1 X82.391 Y134.207 E23.05229
G1 X82.173 Y133.416 E23.07958
G1 X81.47 Y133.25 E23.1036
G1 X80.325 Y132.647 E23.14664
G1 X79.299 Y131.942 E23.18805
G1 X78.205 Y130.52 E23.24772
G1 X77.701 Y129.662 E23.28082
G1 X77.209 Y127.869 E23.34266
G1 X77.209 Y92.21 E24.52868
G1 X77.639 Y90.549 E24.58575
G1 X77.911 Y89.874 E24.60995
G1 X78.979 Y88.424 E24.66985
G1 X80.182 Y87.414 E24.72209
G1 X81.246 Y86.841 E24.76229
G1 X82.202 Y86.583 E24.79522
G1 X82.384 Y85.822 E24.82124
G1 X83.211 Y84.35 E24.8774
G1 X83.764 Y83.608 E24.90818
G1 X85.085 Y82.598 E24.96349
G1 X85.967 Y82.08 E24.99751
G1 X87.802 Y81.585 E25.06072
G1 X132.183 Y81.584 E26.53684
G1 X133.641 Y81.957 E26.5869
G1 X134.626 Y82.338 E26.62202
G1 X135.98 Y83.424 E26.67975
G1 X136.81 Y84.273 E26.71924
G1 X137.609 Y85.793 E26.77636
G1 X137.827 Y86.584 E26.80365
G1 X138.53 Y86.75 E26.82767
G1 X139.675 Y87.353 E26.87071
G1 X140.701 Y88.058 E26.91212
G1 X141.795 Y89.48 E26.97179
G1 X142.299 Y90.338 E27.00489
G1 X142.791 Y92.131 E27.06673
G1 X142.791 Y127.79 E28.25275
G1 X142.361 Y129.451 E28.30982
G1 X142.089 Y130.126 E28.33402
G1 X141.021 Y131.576 E28.39392
G1 X139.818 Y132.586 E28.44616
G1 X138.754 Y133.159 E28.48636
G1 X137.799 Y133.416 E28.51925
G1 X137.618 Y134.175 E28.5452
G1 X136.881 Y135.506 E28.5958
G1 X136.235 Y136.392 E28.63227
G1 X134.915 Y137.402 E28.68755
G1 X134.033 Y137.92 E28.72158
G1 X132.198 Y138.415 E28.78479
G1 X87.817 Y138.416 E30.26091
G0 F6000 X87.869 Y138.016
G1 F1200 X86.458 Y137.655 E30.30935
G1 X85.575 Y137.311 E30.34087
G1 X84.306 Y136.296 E30.39492
G1 X83.516 Y135.488 E30.4325
G1 X82.766 Y134.061 E30.48612
G1 X82.496 Y133.082 E30.5199
G1 X81.612 Y132.873 E30.55011
G1 X80.552 Y132.317 E30.58992
G1 X79.577 Y131.647 E30.62927
G1 X78.55 Y130.317 E30.68516
G1 X78.073 Y129.505 E30.71648
G1 X77.609 Y127.814 E30.7748
G1 X77.609 Y92.26 E31.95733
G1 X78.01 Y90.699 E32.01094
G1 X78.264 Y90.069 E32.03353
G1 X79.273 Y88.699 E32.09012
G1 X80.406 Y87.748 E32.13932
G1 X81.396 Y87.215 E32.17671
G1 X82.536 Y86.907 E32.21599
G1 X82.76 Y85.969 E32.24807
G1 X83.532 Y84.589 E32.30066
G1 X84.053 Y83.89 E32.32966
G1 X85.288 Y82.943 E32.38142
G1 X86.125 Y82.451 E32.41371
G1 X87.854 Y81.985 E32.47327
G1 X132.131 Y81.984 E33.94593
G1 X133.542 Y82.345 E33.99437
G1 X134.425 Y82.689 E34.02589
G1 X135.694 Y83.704 E34.07994
G1 X136.484 Y84.512 E34.11752
G1 X137.234 Y85.939 E34.17114
G1 X137.504 Y86.918 E34.20492
G1 X138.388 Y87.127 E34.23513
G1 X139.448 Y87.683 E34.27494
G1 X140.423 Y88.353 E34.31429
G1 X141.45 Y89.683 E34.37018
G1 X141.927 Y90.495 E34.4015
G1 X142.391 Y92.186 E34.45982
G1 X142.391 Y127.74 E35.64235
G1 X141.99 Y129.301 E35.69596
G1 X141.736 Y129.931 E35.71855
G1 X140.727 Y131.301 E35.77514
G1 X139.594 Y132.252 E35.82434
G1 X138.604 Y132.785 E35.86174
G1 X137.465 Y133.092 E35.90097
G1 X137.242 Y134.028 E35.93297
G1 X136.531 Y135.312 E35.98179
G1 X135.946 Y136.11 E36.0147
G1 X134.712 Y137.057 E36.06644
G1 X133.875 Y137.549 E36.09873
G1 X132.146 Y138.015 E36.15829
G1 X87.869 Y138.016 E37.63094
G0 F6000 X87.92 Y137.616
G1 F1200 X86.603 Y137.282 E37.67614
G1 X85.777 Y136.96 E37.70562
G1 X84.592 Y136.016 E37.75601
G1 X83.842 Y135.249 E37.79169
G1 X83.141 Y133.915 E37.84181
G1 X82.819 Y132.747 E37.88211
G1 X81.755 Y132.496 E37.91847
G1 X80.779 Y131.987 E37.95508
G1 X79.854 Y131.351 E37.99242
G1 X78.895 Y130.114 E38.04448
G1 X78.445 Y129.348 E38.07403
G1 X78.009 Y127.759 E38.12883
G1 X78.009 Y92.312 E39.3078
G1 X78.381 Y90.849 E39.35801
G1 X78.617 Y90.264 E39.37899
G1 X79.567 Y88.974 E39.43228
G1 X80.63 Y88.082 E39.47843
G1 X81.546 Y87.589 E39.51303
G1 X82.87 Y87.231 E39.55865
G1 X83.136 Y86.115 E39.5968
G1 X83.853 Y84.828 E39.6458
G1 X84.341 Y84.173 E39.67297
G1 X85.491 Y83.288 E39.72124
G1 X86.283 Y82.822 E39.7518
G1 X87.906 Y82.385 E39.8077
G1 X132.08 Y82.384 E41.27694
G1 X133.397 Y82.718 E41.32213
G1 X134.223 Y83.04 E41.35161
G1 X135.408 Y83.984 E41.402
G1 X136.158 Y84.751 E41.43768
G1 X136.859 Y86.085 E41.48781
G1 X137.181 Y87.253 E41.5281
G1 X138.245 Y87.504 E41.56446
G1 X139.221 Y88.013 E41.60107
G1 X140.146 Y88.649 E41.63841
G1 X141.105 Y89.886 E41.69047
G1 X141.555 Y90.652 E41.72002
G1 X141.991 Y92.241 E41.77482
G1 X141.991 Y127.688 E42.95379
G1 X141.619 Y129.151 E43.004
G1 X141.383 Y129.736 E43.02498
G1 X140.433 Y131.026 E43.07827
G1 X139.37 Y131.918 E43.12442
G1 X138.454 Y132.411 E43.15902
G1 X137.131 Y132.768 E43.2046
G1 X136.866 Y133.881 E43.24265
G1 X136.181 Y135.118 E43.28968
G1 X135.658 Y135.827 E43.31898
G1 X134.509 Y136.712 E43.36722
G1 X133.717 Y137.178 E43.39778
G1 X132.094 Y137.615 E43.45369
G1 X87.92 Y137.616 E44.92292
G0 F6000 X87.971 Y137.216
G1 F1200 X86.701 Y136.894 E44.9665
G1 X85.979 Y136.609 E44.99231
G1 X84.878 Y135.736 E45.03905
G1 X84.168 Y135.01 E45.07282
G1 X83.516 Y133.769 E45.11945
G1 X83.142 Y132.413 E45.16623
G1 X81.898 Y132.119 E45.20875
G1 X80.964 Y131.632 E45.24378
G1 X80.133 Y131.057 E45.27739
G1 X79.24 Y129.911 E45.32572
G1 X78.817 Y129.191 E45.35349
G1 X78.409 Y127.704 E45.40478
G1 X78.409 Y92.363 E46.58022
G1 X78.752 Y90.999 E46.627
G1 X78.97 Y90.459 E46.64637
G1 X79.861 Y89.249 E46.69635
G1 X80.856 Y88.414 E46.73955
G1 X81.693 Y87.964 E46.77116
G1 X82.777 Y87.668 E46.80853
G1 X83.191 Y87.607 E46.82245
G1 X83.512 Y86.262 E46.86844
G1 X84.174 Y85.067 E46.91388
G1 X84.629 Y84.456 E46.93922
G1 X85.735 Y83.605 E46.98563
G1 X86.439 Y83.194 E47.01275
G1 X87.958 Y82.785 E47.06507
G1 X132.029 Y82.784 E48.53087
G1 X133.299 Y83.106 E48.57445
G1 X134.021 Y83.391 E48.60027
G1 X135.122 Y84.264 E48.647
G1 X135.832 Y84.99 E48.68078
G1 X136.484 Y86.231 E48.7274
G1 X136.858 Y87.587 E48.77419
G1 X138.102 Y87.881 E48.8167
G1 X139.036 Y88.368 E48.85174
G1 X139.867 Y88.943 E48.88535
G1 X140.76 Y90.089 E48.93367
G1 X141.183 Y90.809 E48.96144
G1 X141.591 Y92.296 E49.01273
G1 X141.591 Y127.637 E50.18818
G1 X141.248 Y129.001 E50.23496
G1 X141.03 Y129.541 E50.25432
G1 X140.139 Y130.751 E50.3043
G1 X139.144 Y131.586 E50.34751
G1 X138.307 Y132.036 E50.37911
G1 X137.223 Y132.332 E50.41649
G1 X136.81 Y132.393 E50.43037
G1 X136.489 Y133.736 E50.4763
G1 X135.859 Y134.881 E50.51977
G1 X135.37 Y135.544 E50.54717
G1 X134.265 Y136.395 E50.59355
G1 X133.561 Y136.806 E50.62067
G1 X132.042 Y137.215 E50.67299
G1 X87.971 Y137.216 E52.1388
G0 F6000 X88.022 Y136.816
G1 F1200 X86.799 Y136.506 E52.18076
G1 X86.183 Y136.26 E52.20282
G1 X85.164 Y135.456 E52.24599
G1 X84.494 Y134.771 E52.27786
G1 X83.891 Y133.623 E52.32099
G1 X83.55 Y132.386 E52.36367
G1 X83.565 Y132.053 E52.37476
G1 X83.331 Y132.047 E52.38254
G1 X82.041 Y131.742 E52.42663
G1 X81.149 Y131.277 E52.46009
G1 X80.412 Y130.763 E52.48997
G1 X79.585 Y129.708 E52.53456
G1 X79.189 Y129.034 E52.56056
G1 X78.809 Y127.649 E52.60833
G1 X78.809 Y92.412 E53.78031
G1 X79.123 Y91.149 E53.8236
G1 X79.323 Y90.654 E53.84136
G1 X80.155 Y89.524 E53.88803
G1 X81.082 Y88.746 E53.92828
G1 X81.839 Y88.339 E53.95687
G1 X82.836 Y88.064 E53.99127
G1 X83.559 Y87.957 E54.01558
G1 X83.568 Y87.749 E54.0225
G1 X83.889 Y86.407 E54.06839
G1 X84.495 Y85.306 E54.11019
G1 X84.918 Y84.738 E54.13375
G1 X85.937 Y83.95 E54.17659
G1 X86.595 Y83.566 E54.20193
G1 X88.01 Y83.185 E54.25067
G1 X131.978 Y83.184 E55.71305
G1 X133.201 Y83.494 E55.75502
G1 X133.817 Y83.74 E55.77708
G1 X134.836 Y84.544 E55.82025
G1 X135.506 Y85.229 E55.85212
G1 X136.109 Y86.377 E55.89525
G1 X136.45 Y87.614 E55.93793
G1 X136.435 Y87.947 E55.94901
G1 X136.669 Y87.953 E55.9568
G1 X137.959 Y88.258 E56.00089
G1 X138.851 Y88.723 E56.03434
G1 X139.588 Y89.237 E56.06423
G1 X140.415 Y90.292 E56.10881
G1 X140.811 Y90.966 E56.13481
G1 X141.191 Y92.351 E56.18258
G1 X141.191 Y127.588 E57.35457
G1 X140.877 Y128.851 E57.39786
G1 X140.677 Y129.346 E57.41561
G1 X139.845 Y130.476 E57.46229
G1 X138.918 Y131.254 E57.50254
G1 X138.161 Y131.661 E57.53112
G1 X137.164 Y131.936 E57.56552
G1 X136.442 Y132.043 E57.5898
G1 X136.433 Y132.25 E57.59669
G1 X136.113 Y133.59 E57.64251
G1 X135.537 Y134.644 E57.68246
G1 X135.082 Y135.261 E57.70796
G1 X134.063 Y136.05 E57.75082
G1 X133.405 Y136.434 E57.77616
G1 X131.99 Y136.815 E57.8249
G1 X88.022 Y136.816 E59.28728
G0 F6000 X88.072 Y136.416
G1 F1200 X86.947 Y136.134 E59.32586
G1 X86.385 Y135.91 E59.34598
G1 X85.45 Y135.176 E59.38552
G1 X84.82 Y134.532 E59.41548
G1 X84.266 Y133.477 E59.45511
G1 X83.953 Y132.341 E59.49431
G1 X83.984 Y131.638 E59.51771
G1 X83.423 Y131.658 E59.53638
G1 X82.184 Y131.365 E59.57873
G1 X81.334 Y130.922 E59.61061
G1 X80.689 Y130.469 E59.63682
G1 X79.93 Y129.505 E59.67763
G1 X79.561 Y128.877 E59.70186
G1 X79.209 Y127.594 E59.74611
G1 X79.209 Y92.46 E60.91467
G1 X79.511 Y91.245 E60.95631
G1 X79.674 Y90.852 E60.97046
G1 X80.449 Y89.799 E61.01395
G1 X81.306 Y89.08 E61.05115
G1 X81.988 Y88.713 E61.07691
G1 X82.942 Y88.45 E61.10983
G1 X83.708 Y88.34 E61.13556
G1 X83.967 Y88.359 E61.1442
G1 X83.957 Y87.842 E61.1614
G1 X84.265 Y86.553 E61.20548
G1 X84.816 Y85.545 E61.24369
G1 X85.206 Y85.022 E61.26539
G1 X86.138 Y84.296 E61.30468
G1 X86.752 Y83.938 E61.32832
G1 X88.062 Y83.585 E61.37344
G1 X131.928 Y83.584 E62.83243
G1 X133.053 Y83.866 E62.87101
G1 X133.615 Y84.09 E62.89113
G1 X134.55 Y84.824 E62.93067
G1 X135.18 Y85.468 E62.96063
G1 X135.734 Y86.523 E63.00026
G1 X136.047 Y87.659 E63.03946
G1 X136.016 Y88.362 E63.06286
G1 X136.577 Y88.342 E63.08153
G1 X137.816 Y88.635 E63.12388
G1 X138.666 Y89.078 E63.15576
G1 X139.311 Y89.531 E63.18197
G1 X140.07 Y90.495 E63.22278
G1 X140.439 Y91.123 E63.24701
G1 X140.791 Y92.406 E63.29126
G1 X140.791 Y127.54 E64.45982
G1 X140.489 Y128.755 E64.50146
G1 X140.326 Y129.148 E64.51561
G1 X139.551 Y130.201 E64.5591
G1 X138.694 Y130.92 E64.5963
G1 X138.012 Y131.287 E64.62206
G1 X137.058 Y131.55 E64.65498
G1 X136.291 Y131.66 E64.68075
G1 X136.033 Y131.64 E64.68935
G1 X136.044 Y132.157 E64.70655
G1 X135.736 Y133.445 E64.7506
G1 X135.215 Y134.407 E64.78699
G1 X134.795 Y134.977 E64.81054
G1 X133.862 Y135.704 E64.84988
G1 X133.248 Y136.062 E64.87352
G1 X131.938 Y136.415 E64.91864
G1 X88.072 Y136.416 E66.37763
G0 F6000 X88.121 Y136.016
G1 F1200 X87.044 Y135.746 E66.41456
G1 X86.587 Y135.56 E66.43097
G1 X85.736 Y134.896 E66.46687
G1 X85.146 Y134.293 E66.49493
G1 X84.641 Y133.331 E66.53107
G1 X84.356 Y132.296 E66.56677
G1 X84.405 Y131.177 E66.60403
G1 X84.069 Y131.234 E66.61536
G1 X83.461 Y131.256 E66.6356
G1 X82.327 Y130.988 E66.67435
G1 X81.519 Y130.567 E66.70466
G1 X80.968 Y130.177 E66.72711
