;FLAVOR:Marlin
;TIME:3997
;Filament used: 2.41244m
;Layer height: 0.2
;MINX:77.392
;MINY:82.189
;MINZ:0.2
;MAXX:157.362
;MAXY:152.973
;MAXZ:5.2
;TARGET_MACHINE.NAME:Creality Ender-3
;Generated with Cura_SteamEngine 5.9.0
M140 S50
M105
M190 S50
M104 S200
M105
M109 S200
M82 ;absolute extrusion mode
; Ender 3 Custom Start G-code
G92 E0 ; Reset Extruder
G28 ; Home all axes
G1 Z2.0 F3000 ; Move Z Axis up little to prevent scratching of Heat Bed
G1 X0.1 Y20 Z0.3 F5000.0 ; Move to start position
G1 X0.1 Y200.0 Z0.3 F1500.0 E15 ; Draw the first line
G1 X0.4 Y200.0 Z0.3 F5000.0 ; Move to side a little
G1 X0.4 Y20 Z0.3 F1500.0 E30 ; Draw the second line
G92 E0 ; Reset Extruder
G1 Z2.0 F3000 ; Move Z Axis up little to prevent scratching of Heat Bed
G1 X5 Y20 Z0.3 F5000.0 ; Move over to prevent blob squish
G92 E0
G92 E0
G1 F2700 E-5
;LAYER_COUNT:26
;LAYER:0
M107
G0 F6000 X94.667 Y152.818 Z0.2
;TYPE:SKIRT
G1 F2700 E0
G1 F1200 X93.701 Y152.938 E0.03238
G1 X92.798 Y152.973 E0.06243
G1 X91.755 Y152.919 E0.09717
G1 X90.785 Y152.78 E0.12976
G1 X89.719 Y152.523 E0.16623
G1 X89.19 Y152.366 E0.18459
G1 X88.272 Y152.045 E0.21693
G1 X87.384 Y151.644 E0.24934
G1 X86.571 Y151.188 E0.28034
G1 X86.05 Y150.846 E0.30107
G1 X84.969 Y150.09 E0.34494
G1 X84.48 Y149.759 E0.36458
G1 X83.218 Y148.877 E0.41579
G1 X82.6 Y148.414 E0.44148
G1 X82.301 Y148.173 E0.45425
G1 X81.664 Y147.614 E0.48244
G1 X81.09 Y147.058 E0.50902
G1 X80.773 Y146.731 E0.52416
G1 X80.172 Y146.056 E0.55422
G1 X79.55 Y145.219 E0.58891
G1 X79.077 Y144.45 E0.61894
G1 X78.611 Y143.509 E0.65386
G1 X78.23 Y142.52 E0.68911
G1 X78.018 Y141.838 E0.71287
G1 X77.876 Y141.332 E0.73035
G1 X77.671 Y140.452 E0.7604
G1 X77.528 Y139.417 E0.79515
G1 X77.479 Y138.443 E0.82759
G1 X77.519 Y137.468 E0.86004
G1 X77.653 Y136.452 E0.89413
G1 X77.803 Y135.628 E0.92198
G1 X78.064 Y134.305 E0.96684
G1 X78.478 Y131.838 E1.05004
G1 X78.822 Y129.337 E1.134
G1 X79.099 Y126.816 E1.21836
G1 X79.304 Y124.327 E1.30142
G1 X79.433 Y121.849 E1.38395
G1 X79.503 Y118.258 E1.50341
G1 X79.503 Y116.488 E1.56228
G1 X79.466 Y113.894 E1.64857
G1 X79.357 Y111.348 E1.73333
G1 X79.182 Y108.868 E1.81602
G1 X78.937 Y106.401 E1.89847
G1 X78.609 Y103.838 E1.98441
G1 X78.222 Y101.375 E2.06734
G1 X77.747 Y98.818 E2.15384
G1 X77.595 Y98.047 E2.17998
G1 X77.45 Y97.082 E2.21243
G1 X77.392 Y96.111 E2.24479
G1 X77.415 Y95.209 E2.2748
G1 X77.538 Y94.155 E2.31009
G1 X77.826 Y92.879 E2.3536
G1 X78.037 Y92.151 E2.37881
G1 X78.352 Y91.228 E2.41124
G1 X78.717 Y90.402 E2.44128
G1 X79.221 Y89.488 E2.476
G1 X79.769 Y88.68 E2.50847
G1 X80.385 Y87.924 E2.5409
G1 X80.897 Y87.369 E2.56602
G1 X81.275 Y86.986 E2.58391
G1 X81.988 Y86.324 E2.61628
G1 X82.729 Y85.747 E2.64751
G1 X83.579 Y85.201 E2.68111
G1 X84.436 Y84.751 E2.71331
G1 X87.166 Y83.473 E2.81356
G1 X88.06 Y83.104 E2.84573
G1 X88.804 Y82.865 E2.87172
G1 X89.328 Y82.718 E2.88982
G1 X90.269 Y82.498 E2.92197
G1 X90.965 Y82.391 E2.94539
G1 X91.923 Y82.279 E2.97747
G1 X92.441 Y82.231 E2.99477
G1 X93.414 Y82.189 E3.02716
G1 X94.316 Y82.227 E3.05719
G1 X95.169 Y82.331 E3.08577
G1 X95.931 Y82.456 E3.11145
G1 X97.396 Y82.716 E3.16094
G1 X99.898 Y83.088 E3.24507
G1 X102.42 Y83.39 E3.32955
G1 X104.887 Y83.615 E3.41195
G1 X107.406 Y83.772 E3.49589
G1 X109.986 Y83.86 E3.58175
G1 X111.729 Y83.878 E3.63973
G1 X123.173 Y83.878 E4.02036
G1 X125.756 Y83.841 E4.10628
G1 X128.322 Y83.732 E4.1917
G1 X130.801 Y83.556 E4.27436
G1 X133.302 Y83.309 E4.35795
G1 X135.782 Y82.991 E4.44111
G1 X138.916 Y82.49 E4.54667
G1 X139.689 Y82.353 E4.57278
G1 X140.656 Y82.228 E4.60521
G1 X141.63 Y82.19 E4.63763
G1 X142.532 Y82.232 E4.66766
G1 X143.561 Y82.371 E4.7022
G1 X144.339 Y82.543 E4.7287
G1 X144.762 Y82.654 E4.74324
G1 X145.704 Y82.948 E4.77607
G1 X146.877 Y83.449 E4.81849
G1 X149.482 Y84.751 E4.91535
G1 X150.331 Y85.227 E4.94773
G1 X151.113 Y85.76 E4.9792
G1 X152.154 Y86.64 E5.02454
G1 X153 Y87.453 E5.06356
G1 X153.669 Y88.16 E5.09594
G1 X154.27 Y88.918 E5.12811
G1 X154.703 Y89.561 E5.15389
G1 X155.589 Y90.99 E5.20982
G1 X156.063 Y91.841 E5.24222
G1 X156.461 Y92.734 E5.27473
G1 X156.793 Y93.709 E5.30899
G1 X156.945 Y94.243 E5.32746
G1 X157.17 Y95.191 E5.35986
G1 X157.302 Y96.085 E5.38992
G1 X157.362 Y97.127 E5.42464
G1 X157.328 Y98.107 E5.45725
G1 X157.186 Y99.206 E5.49411
G1 X157.023 Y100.085 E5.52384
G1 X156.593 Y102.581 E5.60808
G1 X156.231 Y105.098 E5.69266
G1 X155.949 Y107.556 E5.77495
G1 X155.728 Y110.092 E5.85962
G1 X155.585 Y112.573 E5.94227
G1 X155.508 Y115.166 E6.02855
G1 X155.497 Y116.583 E6.07568
G1 X155.497 Y118.828 E6.15035
G1 X155.534 Y121.4 E6.23591
G1 X155.643 Y123.965 E6.3213
G1 X155.817 Y126.428 E6.40342
G1 X156.066 Y128.945 E6.48754
G1 X156.379 Y131.394 E6.56966
G1 X157.047 Y135.476 E6.70723
G1 X157.16 Y136.443 E6.73962
G1 X157.187 Y137.346 E6.76966
G1 X157.138 Y138.261 E6.80014
G1 X156.859 Y141.194 E6.89813
G1 X156.729 Y142.117 E6.92913
G1 X156.591 Y142.76 E6.95101
G1 X156.395 Y143.507 E6.97669
G1 X156.232 Y144.055 E6.99571
G1 X155.912 Y144.974 E7.02808
G1 X155.512 Y145.863 E7.0605
G1 X155.034 Y146.711 E7.09288
G1 X154.485 Y147.513 E7.1252
G1 X153.895 Y148.233 E7.15616
G1 X153.515 Y148.637 E7.17461
G1 X152.93 Y149.229 E7.20229
G1 X152.267 Y149.842 E7.23232
G1 X151.439 Y150.48 E7.26709
G1 X150.617 Y151.003 E7.29949
G1 X149.752 Y151.451 E7.33189
G1 X148.857 Y151.818 E7.36407
G1 X148.132 Y152.051 E7.3894
G1 X147.331 Y152.277 E7.41708
G1 X146.365 Y152.502 E7.45007
G1 X145.415 Y152.637 E7.48198
G1 X144.838 Y152.679 E7.50122
G1 X142.062 Y152.801 E7.59364
G1 X141.056 Y152.797 E7.6271
G1 X139.767 Y152.657 E7.67023
G1 X138.121 Y152.373 E7.72578
G1 X135.633 Y151.989 E7.80951
G1 X133.06 Y151.666 E7.89576
G1 X130.603 Y151.428 E7.97787
G1 X128.095 Y151.255 E8.06148
G1 X125.535 Y151.153 E8.14669
G1 X123.183 Y151.122 E8.22493
G1 X112.083 Y151.122 E8.59412
G1 X109.499 Y151.159 E8.68007
G1 X106.931 Y151.268 E8.76556
G1 X104.457 Y151.443 E8.84805
G1 X101.985 Y151.688 E8.93067
G1 X99.422 Y152.016 E9.01661
G1 X96.987 Y152.399 E9.0986
G1 X95.627 Y152.652 E9.14461
G1 X94.667 Y152.818 E9.17701
G0 F6000 X94.617 Y152.421
G1 F1200 X93.686 Y152.538 E9.20822
G1 X92.783 Y152.573 E9.23827
G1 X91.811 Y152.523 E9.27065
G1 X90.879 Y152.391 E9.30195
G1 X89.813 Y152.134 E9.33842
G1 X89.321 Y151.988 E9.35549
G1 X88.436 Y151.68 E9.38666
G1 X87.58 Y151.295 E9.41788
G1 X86.767 Y150.839 E9.44888
G1 X86.279 Y150.518 E9.46831
G1 X85.198 Y149.762 E9.51218
G1 X84.709 Y149.431 E9.53182
G1 X83.458 Y148.557 E9.58258
G1 X82.851 Y148.102 E9.60781
G1 X82.565 Y147.872 E9.62002
G1 X81.928 Y147.313 E9.64821
G1 X81.377 Y146.779 E9.67373
G1 X81.072 Y146.465 E9.68829
G1 X80.471 Y145.79 E9.71835
G1 X79.891 Y145.009 E9.7507
G1 X79.418 Y144.24 E9.78073
G1 X78.984 Y143.365 E9.81322
G1 X78.612 Y142.401 E9.84758
G1 X78.403 Y141.73 E9.87096
G1 X78.266 Y141.241 E9.88785
G1 X78.061 Y140.361 E9.9179
G1 X77.927 Y139.397 E9.95027
G1 X77.879 Y138.459 E9.98151
G1 X77.916 Y137.52 E10.01277
G1 X78.047 Y136.524 E10.04618
G1 X78.197 Y135.7 E10.07404
G1 X78.456 Y134.382 E10.11871
G1 X78.872 Y131.904 E10.20228
G1 X79.22 Y129.381 E10.28699
G1 X79.497 Y126.86 E10.37135
G1 X79.702 Y124.36 E10.45478
G1 X79.833 Y121.857 E10.53814
G1 X79.903 Y118.266 E10.6576
G1 X79.903 Y116.488 E10.71674
G1 X79.866 Y113.888 E10.80322
G1 X79.757 Y111.331 E10.88835
G1 X79.581 Y108.84 E10.9714
G1 X79.334 Y106.35 E11.05463
G1 X79.006 Y103.787 E11.14057
G1 X78.617 Y101.313 E11.22386
G1 X78.14 Y98.745 E11.31074
G1 X77.99 Y97.987 E11.33644
G1 X77.849 Y97.058 E11.36769
G1 X77.792 Y96.121 E11.39891
G1 X77.815 Y95.219 E11.42892
G1 X77.928 Y94.243 E11.4616
G1 X78.21 Y92.99 E11.50432
G1 X78.416 Y92.28 E11.52891
G1 X78.718 Y91.39 E11.56017
G1 X79.083 Y90.564 E11.5902
G1 X79.553 Y89.712 E11.62257
G1 X80.079 Y88.933 E11.65383
G1 X80.695 Y88.177 E11.68626
G1 X81.182 Y87.65 E11.71013
G1 X81.547 Y87.279 E11.72744
G1 X82.234 Y86.64 E11.75865
G1 X82.975 Y86.063 E11.78988
G1 X83.765 Y85.555 E11.82112
G1 X84.606 Y85.113 E11.85272
G1 X87.319 Y83.843 E11.95235
G1 X88.183 Y83.485 E11.98346
G1 X88.912 Y83.25 E12.00893
G1 X89.42 Y83.107 E12.02649
G1 X90.33 Y82.893 E12.05758
G1 X91.011 Y82.788 E12.0805
G1 X91.96 Y82.677 E12.11228
G1 X92.459 Y82.631 E12.12894
G1 X93.397 Y82.589 E12.16017
G1 X94.299 Y82.627 E12.1902
G1 X95.104 Y82.726 E12.21718
G1 X95.861 Y82.85 E12.24269
G1 X97.337 Y83.112 E12.29255
G1 X99.839 Y83.484 E12.37668
G1 X102.373 Y83.787 E12.46156
G1 X104.862 Y84.014 E12.54469
G1 X107.392 Y84.172 E12.629
G1 X109.972 Y84.26 E12.71486
G1 X111.725 Y84.278 E12.77317
G1 X123.179 Y84.278 E13.15413
G1 X125.773 Y84.241 E13.24042
G1 X128.339 Y84.132 E13.32584
G1 X130.832 Y83.955 E13.40897
G1 X133.353 Y83.706 E13.49322
G1 X135.833 Y83.388 E13.57639
G1 X138.986 Y82.884 E13.68259
G1 X139.741 Y82.75 E13.70809
G1 X140.672 Y82.628 E13.73932
G1 X141.611 Y82.59 E13.77058
G1 X142.513 Y82.632 E13.80061
G1 X143.475 Y82.762 E13.8329
G1 X144.238 Y82.93 E13.85888
G1 X144.644 Y83.036 E13.87284
G1 X145.547 Y83.316 E13.90428
G1 X146.698 Y83.807 E13.9459
G1 X149.287 Y85.1 E14.04216
G1 X150.106 Y85.558 E14.07337
G1 X150.888 Y86.091 E14.10484
G1 X151.877 Y86.928 E14.14793
G1 X152.71 Y87.728 E14.18635
G1 X153.356 Y88.409 E14.21757
G1 X153.938 Y89.141 E14.24867
G1 X154.363 Y89.772 E14.27398
G1 X155.24 Y91.185 E14.32929
G1 X155.698 Y92.004 E14.3605
G1 X156.082 Y92.863 E14.39179
G1 X156.408 Y93.819 E14.42539
G1 X156.556 Y94.336 E14.44327
G1 X156.774 Y95.249 E14.47449
G1 X156.906 Y96.143 E14.50455
G1 X156.962 Y97.114 E14.5369
G1 X156.931 Y98.056 E14.56825
G1 X156.789 Y99.155 E14.60511
G1 X156.63 Y100.012 E14.6341
G1 X156.199 Y102.513 E14.71851
G1 X155.835 Y105.041 E14.80345
G1 X155.55 Y107.521 E14.88648
G1 X155.33 Y110.057 E14.97115
G1 X155.185 Y112.561 E15.05457
G1 X155.108 Y115.154 E15.14085
G1 X155.097 Y116.58 E15.18828
G1 X155.097 Y118.828 E15.26305
G1 X155.134 Y121.417 E15.34917
G1 X155.243 Y123.982 E15.43456
G1 X155.419 Y126.467 E15.51742
G1 X155.669 Y128.996 E15.60194
G1 X155.984 Y131.459 E15.68453
G1 X156.65 Y135.523 E15.8215
G1 X156.76 Y136.455 E15.85272
G1 X156.787 Y137.358 E15.88276
G1 X156.74 Y138.223 E15.91158
G1 X156.463 Y141.138 E16.00897
G1 X156.333 Y142.061 E16.03997
G1 X156.204 Y142.659 E16.06031
G1 X156.012 Y143.393 E16.08555
G1 X155.854 Y143.924 E16.10398
G1 X155.547 Y144.81 E16.13516
G1 X155.163 Y145.667 E16.1664
G1 X154.704 Y146.485 E16.19759
G1 X154.175 Y147.26 E16.2288
G1 X153.603 Y147.959 E16.25884
G1 X153.23 Y148.356 E16.27696
G1 X152.658 Y148.935 E16.30403
G1 X151.995 Y149.548 E16.33407
G1 X151.224 Y150.143 E16.36646
G1 X150.433 Y150.648 E16.39767
G1 X149.6 Y151.081 E16.4289
G1 X148.735 Y151.437 E16.46001
G1 X148.023 Y151.666 E16.48488
G1 X147.222 Y151.892 E16.51256
G1 X146.308 Y152.106 E16.54379
G1 X145.386 Y152.238 E16.57476
G1 X144.82 Y152.279 E16.59364
G1 X142.063 Y152.401 E16.68543
G1 X141.099 Y152.399 E16.71749
G1 X139.81 Y152.259 E16.76061
G1 X138.189 Y151.979 E16.81533
G1 X135.683 Y151.592 E16.89967
G1 X133.11 Y151.269 E16.98592
G1 X130.636 Y151.029 E17.06859
G1 X128.111 Y150.855 E17.15277
G1 X125.551 Y150.753 E17.23798
G1 X123.188 Y150.722 E17.31658
G1 X112.077 Y150.722 E17.68614
G1 X109.482 Y150.759 E17.77245
G1 X106.914 Y150.868 E17.85794
G1 X104.426 Y151.044 E17.9409
G1 X101.934 Y151.291 E18.02419
G1 X99.371 Y151.619 E18.11013
G1 X96.925 Y152.004 E18.19249
G1 X95.559 Y152.258 E18.2387
G1 X94.617 Y152.421 E18.2705
G0 F6000 X94.566 Y152.024
G1 F1200 X93.671 Y152.138 E18.30051
G1 X92.768 Y152.173 E18.33056
G1 X91.866 Y152.127 E18.3606
G1 X90.972 Y152.002 E18.39063
G1 X89.927 Y151.751 E18.42637
G1 X89.452 Y151.61 E18.44285
G1 X88.599 Y151.315 E18.47287
G1 X87.775 Y150.946 E18.5029
G1 X86.987 Y150.505 E18.53293
G1 X86.508 Y150.19 E18.552
G1 X85.427 Y149.434 E18.59588
G1 X84.948 Y149.11 E18.61511
G1 X84.791 Y148.993 E18.62162
G1 X83.698 Y148.237 E18.66582
G1 X83.102 Y147.791 E18.69058
G1 X82.829 Y147.571 E18.70224
G1 X82.192 Y147.012 E18.73043
G1 X81.664 Y146.5 E18.75489
G1 X81.371 Y146.199 E18.76887
G1 X80.77 Y145.524 E18.79893
G1 X80.232 Y144.799 E18.82895
G1 X79.759 Y144.03 E18.85898
G1 X79.357 Y143.221 E18.88903
G1 X78.994 Y142.282 E18.92251
G1 X78.788 Y141.622 E18.94551
G1 X78.656 Y141.15 E18.96181
G1 X78.451 Y140.27 E18.99186
G1 X78.326 Y139.376 E19.02188
G1 X78.279 Y138.474 E19.05193
G1 X78.313 Y137.572 E19.08195
G1 X78.441 Y136.595 E19.11472
G1 X78.589 Y135.777 E19.14237
G1 X78.851 Y134.448 E19.18742
G1 X79.266 Y131.97 E19.27099
G1 X79.618 Y129.425 E19.35644
G1 X79.895 Y126.904 E19.4408
G1 X80.1 Y124.393 E19.52459
G1 X80.233 Y121.865 E19.60879
G1 X80.303 Y118.274 E19.72825
G1 X80.303 Y116.488 E19.78765
G1 X80.266 Y113.882 E19.87433
G1 X80.157 Y111.314 E19.95982
G1 X79.98 Y108.812 E20.04325
G1 X79.731 Y106.299 E20.12724
G1 X79.403 Y103.736 E20.21318
G1 X79.012 Y101.251 E20.29685
G1 X78.533 Y98.672 E20.38409
G1 X78.385 Y97.926 E20.40939
G1 X78.248 Y97.033 E20.43944
G1 X78.192 Y96.131 E20.4695
G1 X78.215 Y95.229 E20.49951
G1 X78.318 Y94.331 E20.52957
G1 X78.594 Y93.101 E20.5715
G1 X78.795 Y92.408 E20.5955
G1 X79.084 Y91.552 E20.62555
G1 X79.449 Y90.726 E20.65558
G1 X79.885 Y89.935 E20.68562
G1 X80.389 Y89.186 E20.71565
G1 X81.005 Y88.43 E20.74809
G1 X81.468 Y87.93 E20.77075
G1 X81.82 Y87.571 E20.78747
G1 X82.48 Y86.955 E20.8175
G1 X83.192 Y86.399 E20.84755
G1 X83.951 Y85.909 E20.87759
G1 X84.776 Y85.475 E20.9086
G1 X87.472 Y84.212 E21.00762
G1 X88.306 Y83.866 E21.03765
G1 X89.021 Y83.635 E21.06264
G1 X89.512 Y83.496 E21.07962
G1 X90.391 Y83.288 E21.10966
G1 X91.058 Y83.185 E21.13211
G1 X91.996 Y83.075 E21.16352
G1 X92.478 Y83.031 E21.17962
G1 X93.38 Y82.989 E21.20965
G1 X94.282 Y83.027 E21.23968
G1 X95.039 Y83.121 E21.26505
G1 X95.791 Y83.244 E21.29039
G1 X97.278 Y83.508 E21.34062
G1 X99.78 Y83.88 E21.42475
G1 X102.326 Y84.184 E21.51004
G1 X104.837 Y84.413 E21.5939
G1 X107.378 Y84.572 E21.67858
G1 X109.958 Y84.66 E21.76444
G1 X111.721 Y84.678 E21.82308
G1 X123.185 Y84.678 E22.20437
G1 X125.79 Y84.641 E22.29103
G1 X128.356 Y84.532 E22.37645
G1 X130.863 Y84.354 E22.46004
G1 X133.404 Y84.103 E22.54497
G1 X135.884 Y83.785 E22.62813
G1 X139.056 Y83.278 E22.73497
G1 X139.794 Y83.147 E22.7599
G1 X140.689 Y83.028 E22.78993
G1 X141.592 Y82.99 E22.81999
G1 X142.494 Y83.032 E22.85002
G1 X143.389 Y83.153 E22.88006
G1 X144.137 Y83.317 E22.90553
G1 X144.526 Y83.418 E22.9189
G1 X145.39 Y83.684 E22.94896
G1 X146.519 Y84.165 E22.98978
G1 X149.093 Y85.45 E23.08547
G1 X149.882 Y85.889 E23.1155
G1 X150.63 Y86.396 E23.14555
G1 X151.6 Y87.217 E23.18782
G1 X152.42 Y88.004 E23.22562
G1 X153.043 Y88.658 E23.25566
G1 X153.606 Y89.364 E23.2857
G1 X154.023 Y89.983 E23.31052
G1 X154.891 Y91.381 E23.36525
G1 X155.333 Y92.168 E23.39527
G1 X155.703 Y92.992 E23.42532
G1 X156.029 Y93.948 E23.45891
G1 X156.167 Y94.429 E23.47556
G1 X156.378 Y95.307 E23.50559
G1 X156.51 Y96.201 E23.53565
G1 X156.562 Y97.102 E23.56566
G1 X156.534 Y98.005 E23.59571
G1 X156.392 Y99.104 E23.63257
G1 X156.237 Y99.939 E23.66081
G1 X155.805 Y102.445 E23.74539
G1 X155.439 Y104.984 E23.83071
G1 X155.151 Y107.487 E23.91451
G1 X154.932 Y110.023 E23.99918
G1 X154.785 Y112.549 E24.08333
G1 X154.708 Y115.142 E24.16961
G1 X154.697 Y116.577 E24.21734
G1 X154.697 Y118.828 E24.29221
G1 X154.734 Y121.434 E24.3789
G1 X154.843 Y123.999 E24.46429
G1 X155.021 Y126.506 E24.54788
G1 X155.272 Y129.047 E24.6328
G1 X155.589 Y131.524 E24.71586
G1 X156.253 Y135.57 E24.85223
G1 X156.36 Y136.467 E24.88228
G1 X156.387 Y137.37 E24.91233
G1 X156.342 Y138.185 E24.93947
G1 X156.067 Y141.083 E25.0363
G1 X155.942 Y141.977 E25.06632
G1 X155.817 Y142.558 E25.08609
G1 X155.628 Y143.28 E25.11091
G1 X155.476 Y143.794 E25.12874
G1 X155.182 Y144.647 E25.15874
G1 X154.814 Y145.472 E25.18879
G1 X154.373 Y146.26 E25.21882
G1 X153.865 Y147.007 E25.24887
G1 X153.293 Y147.706 E25.27891
G1 X152.946 Y148.075 E25.29576
G1 X152.386 Y148.641 E25.32224
G1 X151.723 Y149.254 E25.35227
G1 X151.008 Y149.806 E25.38232
G1 X150.248 Y150.293 E25.41234
G1 X149.447 Y150.711 E25.44239
G1 X148.612 Y151.056 E25.47244
G1 X147.914 Y151.281 E25.49683
G1 X147.13 Y151.503 E25.52393
G1 X146.251 Y151.71 E25.55397
G1 X145.357 Y151.839 E25.58401
G1 X144.802 Y151.879 E25.60252
G1 X142.045 Y152.001 E25.69431
