;FLAVOR:Marlin
;TIME:3940
;Filament used: 2.57289m
;Layer height: 0.2
;MINX:83.509
;MINY:87.884
;MINZ:0.2
;MAXX:151.491
;MAXY:147.116
;MAXZ:5.2
;TARGET_MACHINE.NAME:Creality Ender-3
;Generated with Cura_SteamEngine 5.9.0
M140 S90
M105
M190 S90
M104 S240
M105
M109 S240
M82 ;absolute extrusion mode
; Ender 3 Custom Start G-code
G92 E0 ; Reset Extruder
G28 ; Home all axes
G1 Z2.0 F3000 ; Move Z Axis up little to prevent scratching of Heat Bed
G1 X0.1 Y20 Z0.3 F5000.0 ; Move to start position
G1 X0.1 Y200.0 Z0.3 F1500.0 E15 ; Draw the first line
G1 X0.4 Y200.0 Z0.3 F5000.0 ; Move to side a little
G1 X0.4 Y20 Z0.3 F1500.0 E30 ; Draw the second line
G92 E0 ; Reset Extruder
G1 Z2.0 F3000 ; Move Z Axis up little to prevent scratching of Heat Bed
G1 X5 Y20 Z0.3 F5000.0 ; Move over to prevent blob squish
G92 E0
G92 E0
G1 F2700 E-5
;LAYER_COUNT:26
;LAYER:0
M107
G0 F6000 X139.854 Y147.115 Z0.2
;TYPE:SKIRT
G1 F2700 E0
G1 F1200 X95.161 Y147.116 E1.4865
G1 X93.518 Y146.693 E1.54292
G1 X92.267 Y146.214 E1.58748
G1 X90.662 Y144.916 E1.65613
G1 X89.712 Y143.944 E1.70134
G1 X88.787 Y142.185 E1.76744
G1 X88.704 Y141.92 E1.77668
G1 X88.495 Y141.857 E1.78394
G1 X87.144 Y141.137 E1.83485
G1 X85.966 Y140.327 E1.8824
G1 X84.67 Y138.629 E1.95345
G1 X84.085 Y137.633 E1.99187
G1 X83.509 Y135.534 E2.06426
G1 X83.509 Y99.558 E3.26083
G1 X84.009 Y97.65 E3.32643
G1 X84.352 Y96.789 E3.35726
G1 X85.597 Y95.099 E3.42707
G1 X87.01 Y93.912 E3.48845
G1 X88.296 Y93.219 E3.53704
G1 X88.7 Y93.111 E3.55095
G1 X88.784 Y92.828 E3.56077
G1 X89.748 Y91.133 E3.62562
G1 X90.401 Y90.258 E3.66193
G1 X91.978 Y89.063 E3.72774
G1 X92.997 Y88.465 E3.76704
G1 X95.146 Y87.885 E3.84107
G1 X139.839 Y87.884 E5.32757
G1 X141.482 Y88.307 E5.384
G1 X142.733 Y88.786 E5.42855
G1 X144.338 Y90.084 E5.49721
G1 X145.288 Y91.056 E5.54241
G1 X146.213 Y92.815 E5.60851
G1 X146.296 Y93.08 E5.61775
G1 X146.505 Y93.143 E5.62501
G1 X147.856 Y93.863 E5.67593
G1 X149.034 Y94.673 E5.72348
G1 X150.33 Y96.371 E5.79452
G1 X150.915 Y97.367 E5.83294
G1 X151.491 Y99.466 E5.90533
G1 X151.491 Y135.442 E7.1019
G1 X150.991 Y137.35 E7.1675
G1 X150.648 Y138.211 E7.19833
G1 X149.403 Y139.901 E7.26815
G1 X147.99 Y141.088 E7.32952
G1 X146.704 Y141.78 E7.3781
G1 X146.301 Y141.888 E7.39197
G1 X146.22 Y142.163 E7.40151
G1 X145.379 Y143.67 E7.45891
G1 X144.605 Y144.739 E7.5028
G1 X143.064 Y145.909 E7.56716
G1 X142.003 Y146.535 E7.60813
G1 X139.854 Y147.115 E7.68216
G0 F6000 X139.802 Y146.715
G1 F1200 X95.213 Y146.716 E9.1652
G1 X93.661 Y146.319 E9.21848
G1 X92.467 Y145.862 E9.261
G1 X90.948 Y144.636 E9.32593
G1 X90.038 Y143.705 E9.36923
G1 X89.141 Y141.999 E9.43334
G1 X89.027 Y141.585 E9.44762
G1 X88.683 Y141.504 E9.45937
G1 X87.371 Y140.807 E9.50879
G1 X86.245 Y140.033 E9.55423
G1 X85.015 Y138.426 E9.62154
G1 X84.457 Y137.476 E9.65818
G1 X83.909 Y135.479 E9.72706
G1 X83.909 Y99.609 E10.9201
G1 X84.381 Y97.798 E10.98235
G1 X84.706 Y96.983 E11.01153
G1 X85.891 Y95.374 E11.07799
G1 X87.234 Y94.246 E11.13633
G1 X88.446 Y93.593 E11.18212
G1 X89.034 Y93.435 E11.20237
G1 X89.132 Y93.025 E11.21639
G1 X90.069 Y91.372 E11.27959
G1 X90.689 Y90.541 E11.31407
G1 X92.18 Y89.408 E11.37635
G1 X93.153 Y88.837 E11.41388
G1 X95.198 Y88.285 E11.48433
G1 X139.787 Y88.284 E12.96736
G1 X141.339 Y88.681 E13.02065
G1 X142.533 Y89.138 E13.06317
G1 X144.052 Y90.364 E13.12809
G1 X144.962 Y91.295 E13.17139
G1 X145.859 Y93.001 E13.2355
G1 X145.973 Y93.415 E13.24978
G1 X146.317 Y93.496 E13.26154
G1 X147.629 Y94.193 E13.31095
G1 X148.755 Y94.967 E13.3564
G1 X149.985 Y96.574 E13.4237
G1 X150.543 Y97.524 E13.46035
G1 X151.091 Y99.521 E13.52922
G1 X151.091 Y135.391 E14.72227
G1 X150.619 Y137.202 E14.78451
G1 X150.294 Y138.017 E14.81369
G1 X149.109 Y139.626 E14.88016
G1 X147.766 Y140.754 E14.93849
G1 X146.554 Y141.407 E14.98428
G1 X145.967 Y141.564 E15.00449
G1 X145.87 Y141.969 E15.01834
G1 X145.055 Y143.435 E15.07413
G1 X144.314 Y144.458 E15.11614
G1 X142.861 Y145.565 E15.1769
G1 X141.848 Y146.163 E15.21602
G1 X139.802 Y146.715 E15.28651
G0 F6000 X139.75 Y146.315
G1 F1200 X95.265 Y146.316 E16.76608
G1 X93.76 Y145.931 E16.81775
G1 X92.672 Y145.513 E16.85652
G1 X91.234 Y144.356 E16.91791
G1 X90.364 Y143.466 E16.9593
G1 X89.516 Y141.853 E17.01991
G1 X89.35 Y141.25 E17.04071
G1 X88.828 Y141.127 E17.05855
G1 X87.598 Y140.477 E17.10482
G1 X86.521 Y139.737 E17.14828
G1 X85.36 Y138.223 E17.21174
G1 X84.829 Y137.319 E17.24661
G1 X84.309 Y135.424 E17.31197
G1 X84.309 Y99.66 E18.50148
G1 X84.768 Y97.899 E18.56201
G1 X85.058 Y97.179 E18.58783
G1 X86.185 Y95.649 E18.65103
G1 X87.458 Y94.58 E18.70632
G1 X88.596 Y93.967 E18.74931
G1 X89.368 Y93.759 E18.77591
G1 X89.508 Y93.173 E18.79594
G1 X90.39 Y91.611 E18.85561
G1 X90.977 Y90.824 E18.88826
G1 X92.382 Y89.753 E18.94702
G1 X93.309 Y89.209 E18.98277
G1 X95.25 Y88.685 E19.04964
G1 X139.735 Y88.684 E20.52922
G1 X141.24 Y89.069 E20.58089
G1 X142.328 Y89.487 E20.61965
G1 X143.766 Y90.644 E20.68104
G1 X144.636 Y91.534 E20.72243
G1 X145.484 Y93.147 E20.78304
G1 X145.65 Y93.75 E20.80385
G1 X146.172 Y93.873 E20.82168
G1 X147.402 Y94.523 E20.86795
G1 X148.479 Y95.263 E20.91142
G1 X149.64 Y96.777 E20.97487
G1 X150.171 Y97.681 E21.00974
G1 X150.691 Y99.576 E21.0751
G1 X150.691 Y135.34 E22.26462
G1 X150.232 Y137.101 E22.32515
G1 X149.942 Y137.821 E22.35096
G1 X148.815 Y139.351 E22.41417
G1 X147.542 Y140.42 E22.46945
G1 X146.404 Y141.033 E22.51245
G1 X145.633 Y141.24 E22.539
G1 X145.494 Y141.822 E22.5589
G1 X144.731 Y143.2 E22.61129
G1 X144.024 Y144.175 E22.65135
G1 X142.618 Y145.247 E22.71015
G1 X141.691 Y145.791 E22.7459
G1 X139.75 Y146.315 E22.81277
G0 F6000 X139.698 Y145.915
G1 F1200 X95.317 Y145.916 E24.28889
G1 X93.859 Y145.543 E24.33894
G1 X92.874 Y145.162 E24.37407
G1 X91.52 Y144.076 E24.4318
G1 X90.69 Y143.227 E24.47129
G1 X89.891 Y141.707 E24.5284
G1 X89.673 Y140.916 E24.55569
G1 X88.97 Y140.75 E24.57972
G1 X87.825 Y140.147 E24.62276
G1 X86.799 Y139.442 E24.66416
G1 X85.705 Y138.02 E24.72384
G1 X85.201 Y137.162 E24.75693
G1 X84.709 Y135.369 E24.81877
G1 X84.709 Y99.71 E26.0048
G1 X85.139 Y98.049 E26.06186
G1 X85.411 Y97.374 E26.08607
G1 X86.479 Y95.924 E26.14597
G1 X87.682 Y94.914 E26.19821
G1 X88.746 Y94.341 E26.2384
G1 X89.702 Y94.083 E26.27134
G1 X89.884 Y93.322 E26.29736
G1 X90.711 Y91.85 E26.35352
G1 X91.264 Y91.108 E26.3843
G1 X92.585 Y90.098 E26.43961
G1 X93.467 Y89.58 E26.47363
G1 X95.302 Y89.085 E26.53684
G1 X139.683 Y89.084 E28.01296
G1 X141.141 Y89.457 E28.06301
G1 X142.126 Y89.838 E28.09814
G1 X143.48 Y90.924 E28.15587
G1 X144.31 Y91.773 E28.19536
G1 X145.109 Y93.293 E28.25247
G1 X145.327 Y94.084 E28.27976
G1 X146.03 Y94.25 E28.30379
G1 X147.175 Y94.853 E28.34683
G1 X148.201 Y95.558 E28.38823
G1 X149.295 Y96.98 E28.44791
G1 X149.799 Y97.838 E28.481
G1 X150.291 Y99.631 E28.54284
G1 X150.291 Y135.29 E29.72887
G1 X149.861 Y136.951 E29.78593
G1 X149.589 Y137.626 E29.81014
G1 X148.521 Y139.076 E29.87004
G1 X147.318 Y140.086 E29.92228
G1 X146.254 Y140.659 E29.96247
G1 X145.299 Y140.916 E29.99537
G1 X145.118 Y141.675 E30.02132
G1 X144.381 Y143.006 E30.07192
G1 X143.735 Y143.892 E30.10839
G1 X142.415 Y144.902 E30.16367
G1 X141.533 Y145.42 E30.19769
G1 X139.698 Y145.915 E30.26091
G0 F6000 X139.646 Y145.515
G1 F1200 X95.369 Y145.516 E31.73357
G1 X93.958 Y145.155 E31.78201
G1 X93.075 Y144.811 E31.81353
G1 X91.806 Y143.796 E31.86757
G1 X91.016 Y142.988 E31.90516
G1 X90.266 Y141.561 E31.95878
G1 X89.996 Y140.582 E31.99255
G1 X89.112 Y140.373 E32.02277
G1 X88.052 Y139.817 E32.06258
G1 X87.077 Y139.147 E32.10193
G1 X86.05 Y137.817 E32.15781
G1 X85.573 Y137.005 E32.18914
G1 X85.109 Y135.314 E32.24746
G1 X85.109 Y99.76 E33.42999
G1 X85.51 Y98.199 E33.48359
G1 X85.764 Y97.569 E33.50619
G1 X86.773 Y96.199 E33.56278
G1 X87.906 Y95.248 E33.61198
G1 X88.896 Y94.715 E33.64937
G1 X90.036 Y94.407 E33.68865
G1 X90.26 Y93.469 E33.72073
G1 X91.032 Y92.089 E33.77332
G1 X91.553 Y91.39 E33.80231
G1 X92.788 Y90.443 E33.85408
G1 X93.625 Y89.951 E33.88637
G1 X95.354 Y89.485 E33.94593
G1 X139.631 Y89.484 E35.41859
G1 X141.042 Y89.845 E35.46703
G1 X141.925 Y90.189 E35.49855
G1 X143.194 Y91.204 E35.55259
G1 X143.984 Y92.012 E35.59018
G1 X144.734 Y93.439 E35.6438
G1 X145.004 Y94.418 E35.67757
G1 X145.888 Y94.627 E35.70779
G1 X146.948 Y95.183 E35.7476
G1 X147.923 Y95.853 E35.78695
G1 X148.95 Y97.183 E35.84284
G1 X149.427 Y97.995 E35.87416
G1 X149.891 Y99.686 E35.93248
G1 X149.891 Y135.24 E37.11501
G1 X149.49 Y136.801 E37.16861
G1 X149.236 Y137.431 E37.19121
G1 X148.227 Y138.801 E37.2478
G1 X147.094 Y139.752 E37.297
G1 X146.104 Y140.285 E37.33439
G1 X144.965 Y140.592 E37.37363
G1 X144.742 Y141.528 E37.40563
G1 X144.031 Y142.812 E37.45445
G1 X143.446 Y143.61 E37.48736
G1 X142.212 Y144.557 E37.53909
G1 X141.375 Y145.049 E37.57139
G1 X139.646 Y145.515 E37.63094
G0 F6000 X139.594 Y145.115
G1 F1200 X95.42 Y145.116 E39.10018
G1 X94.103 Y144.782 E39.14537
G1 X93.277 Y144.46 E39.17485
G1 X92.092 Y143.516 E39.22525
G1 X91.342 Y142.749 E39.26093
G1 X90.641 Y141.415 E39.31105
G1 X90.319 Y140.247 E39.35134
G1 X89.255 Y139.996 E39.3877
G1 X88.279 Y139.487 E39.42432
G1 X87.354 Y138.851 E39.46165
G1 X86.395 Y137.614 E39.51371
G1 X85.945 Y136.848 E39.54326
G1 X85.509 Y135.259 E39.59806
G1 X85.509 Y99.812 E40.77703
G1 X85.881 Y98.349 E40.82724
G1 X86.117 Y97.764 E40.84822
G1 X87.067 Y96.474 E40.90151
G1 X88.13 Y95.582 E40.94766
G1 X89.046 Y95.089 E40.98226
G1 X90.37 Y94.731 E41.02788
G1 X90.636 Y93.615 E41.06604
G1 X91.353 Y92.328 E41.11504
G1 X91.841 Y91.673 E41.1422
G1 X92.991 Y90.788 E41.19047
G1 X93.783 Y90.322 E41.22103
G1 X95.406 Y89.885 E41.27694
G1 X139.58 Y89.884 E42.74617
G1 X140.897 Y90.218 E42.79136
G1 X141.723 Y90.54 E42.82085
G1 X142.908 Y91.484 E42.87124
G1 X143.658 Y92.251 E42.90692
G1 X144.359 Y93.585 E42.95704
G1 X144.681 Y94.753 E42.99734
G1 X145.745 Y95.004 E43.0337
G1 X146.721 Y95.513 E43.07031
G1 X147.646 Y96.149 E43.10764
G1 X148.605 Y97.386 E43.1597
G1 X149.055 Y98.152 E43.18925
G1 X149.491 Y99.741 E43.24405
G1 X149.491 Y135.188 E44.42303
G1 X149.119 Y136.651 E44.47323
G1 X148.883 Y137.236 E44.49421
G1 X147.933 Y138.526 E44.5475
G1 X146.87 Y139.418 E44.59365
G1 X145.954 Y139.911 E44.62825
G1 X144.631 Y140.268 E44.67383
G1 X144.366 Y141.381 E44.71188
G1 X143.681 Y142.618 E44.75891
G1 X143.158 Y143.327 E44.78822
G1 X142.009 Y144.212 E44.83645
G1 X141.217 Y144.678 E44.86702
G1 X139.594 Y145.115 E44.92292
G0 F6000 X139.542 Y144.715
G1 F1200 X95.471 Y144.716 E46.38873
G1 X94.201 Y144.394 E46.4323
G1 X93.479 Y144.109 E46.45812
G1 X92.378 Y143.236 E46.50486
G1 X91.668 Y142.51 E46.53863
G1 X91.016 Y141.269 E46.58526
G1 X90.642 Y139.913 E46.63204
G1 X89.398 Y139.619 E46.67456
G1 X88.464 Y139.132 E46.70959
G1 X87.633 Y138.557 E46.7432
G1 X86.74 Y137.411 E46.79152
G1 X86.317 Y136.691 E46.8193
G1 X85.909 Y135.204 E46.87058
G1 X85.909 Y99.863 E48.04603
G1 X86.252 Y98.499 E48.09281
G1 X86.47 Y97.959 E48.11218
G1 X87.361 Y96.749 E48.16216
G1 X88.356 Y95.914 E48.20536
G1 X89.193 Y95.464 E48.23697
G1 X90.277 Y95.168 E48.27434
G1 X90.691 Y95.107 E48.28826
G1 X91.012 Y93.762 E48.33425
G1 X91.674 Y92.567 E48.37969
G1 X92.129 Y91.956 E48.40502
G1 X93.235 Y91.105 E48.45144
G1 X93.939 Y90.694 E48.47855
G1 X95.458 Y90.285 E48.53087
G1 X139.529 Y90.284 E49.99668
G1 X140.799 Y90.606 E50.04026
G1 X141.521 Y90.891 E50.06608
G1 X142.622 Y91.764 E50.11281
G1 X143.332 Y92.49 E50.14658
G1 X143.984 Y93.731 E50.19321
G1 X144.358 Y95.087 E50.23999
G1 X145.602 Y95.381 E50.28251
G1 X146.536 Y95.868 E50.31754
G1 X147.367 Y96.443 E50.35116
G1 X148.26 Y97.589 E50.39948
G1 X148.683 Y98.309 E50.42725
G1 X149.091 Y99.796 E50.47854
G1 X149.091 Y135.137 E51.65398
G1 X148.748 Y136.501 E51.70076
G1 X148.53 Y137.041 E51.72013
G1 X147.639 Y138.251 E51.77011
G1 X146.644 Y139.086 E51.81331
G1 X145.807 Y139.536 E51.84492
G1 X144.723 Y139.832 E51.88229
G1 X144.31 Y139.893 E51.89618
G1 X143.989 Y141.236 E51.94211
G1 X143.359 Y142.381 E51.98557
G1 X142.87 Y143.044 E52.01297
G1 X141.765 Y143.895 E52.05936
G1 X141.061 Y144.306 E52.08648
G1 X139.542 Y144.715 E52.1388
G0 F6000 X139.49 Y144.315
G1 F1200 X95.522 Y144.316 E53.60118
G1 X94.299 Y144.006 E53.64314
G1 X93.683 Y143.76 E53.6652
G1 X92.664 Y142.956 E53.70837
G1 X91.994 Y142.271 E53.74024
G1 X91.391 Y141.123 E53.78337
G1 X91.05 Y139.886 E53.82605
G1 X91.065 Y139.553 E53.83714
G1 X90.831 Y139.547 E53.84492
G1 X89.541 Y139.242 E53.88901
G1 X88.649 Y138.777 E53.92247
G1 X87.912 Y138.263 E53.95235
G1 X87.085 Y137.208 E53.99694
G1 X86.689 Y136.534 E54.02294
G1 X86.309 Y135.149 E54.07071
G1 X86.309 Y99.912 E55.2427
G1 X86.623 Y98.649 E55.28598
G1 X86.823 Y98.154 E55.30374
G1 X87.655 Y97.024 E55.35041
G1 X88.582 Y96.246 E55.39066
G1 X89.339 Y95.839 E55.41925
G1 X90.336 Y95.564 E55.45365
G1 X91.059 Y95.457 E55.47796
G1 X91.068 Y95.249 E55.48488
G1 X91.389 Y93.907 E55.53078
G1 X91.995 Y92.806 E55.57258
G1 X92.418 Y92.238 E55.59613
G1 X93.437 Y91.45 E55.63897
G1 X94.095 Y91.066 E55.66431
G1 X95.51 Y90.685 E55.71305
G1 X139.478 Y90.684 E57.17543
G1 X140.701 Y90.994 E57.2174
G1 X141.317 Y91.24 E57.23946
G1 X142.336 Y92.044 E57.28263
G1 X143.006 Y92.729 E57.3145
G1 X143.609 Y93.877 E57.35763
G1 X143.95 Y95.114 E57.40031
G1 X143.935 Y95.447 E57.41139
G1 X144.169 Y95.453 E57.41918
G1 X145.459 Y95.758 E57.46327
G1 X146.351 Y96.223 E57.49673
G1 X147.088 Y96.737 E57.52661
G1 X147.915 Y97.792 E57.5712
G1 X148.311 Y98.466 E57.5972
G1 X148.691 Y99.851 E57.64496
G1 X148.691 Y135.088 E58.81695
G1 X148.377 Y136.351 E58.86024
G1 X148.177 Y136.846 E58.87799
G1 X147.345 Y137.976 E58.92467
G1 X146.418 Y138.754 E58.96492
G1 X145.661 Y139.161 E58.9935
G1 X144.664 Y139.436 E59.0279
G1 X143.942 Y139.543 E59.05218
G1 X143.933 Y139.75 E59.05907
G1 X143.613 Y141.09 E59.10489
G1 X143.037 Y142.144 E59.14484
G1 X142.582 Y142.761 E59.17034
G1 X141.563 Y143.55 E59.2132
G1 X140.905 Y143.934 E59.23854
G1 X139.49 Y144.315 E59.28728
G0 F6000 X139.438 Y143.915
G1 F1200 X95.572 Y143.916 E60.74627
G1 X94.447 Y143.634 E60.78485
G1 X93.885 Y143.41 E60.80497
G1 X92.95 Y142.676 E60.84451
G1 X92.32 Y142.032 E60.87447
G1 X91.766 Y140.977 E60.9141
G1 X91.453 Y139.841 E60.95329
G1 X91.484 Y139.138 E60.9767
G1 X90.923 Y139.158 E60.99537
G1 X89.684 Y138.865 E61.03772
G1 X88.834 Y138.422 E61.0696
G1 X88.189 Y137.969 E61.09581
G1 X87.43 Y137.005 E61.13662
G1 X87.061 Y136.377 E61.16085
G1 X86.709 Y135.094 E61.2051
G1 X86.709 Y99.96 E62.37366
G1 X87.011 Y98.745 E62.4153
G1 X87.174 Y98.352 E62.42945
G1 X87.949 Y97.299 E62.47293
G1 X88.806 Y96.58 E62.51014
G1 X89.488 Y96.213 E62.5359
G1 X90.442 Y95.95 E62.56881
G1 X91.208 Y95.84 E62.59455
G1 X91.467 Y95.859 E62.60319
G1 X91.457 Y95.342 E62.62039
G1 X91.765 Y94.053 E62.66447
G1 X92.316 Y93.045 E62.70268
G1 X92.706 Y92.522 E62.72438
G1 X93.638 Y91.796 E62.76367
G1 X94.252 Y91.438 E62.78731
G1 X95.562 Y91.085 E62.83243
G1 X139.428 Y91.084 E64.29142
G1 X140.553 Y91.366 E64.33
G1 X141.115 Y91.59 E64.35012
G1 X142.05 Y92.324 E64.38966
G1 X142.68 Y92.968 E64.41962
G1 X143.234 Y94.023 E64.45925
G1 X143.547 Y95.159 E64.49845
G1 X143.516 Y95.862 E64.52185
G1 X144.077 Y95.842 E64.54052
G1 X145.316 Y96.135 E64.58287
G1 X146.166 Y96.578 E64.61475
G1 X146.811 Y97.031 E64.64096
G1 X147.57 Y97.995 E64.68177
G1 X147.939 Y98.623 E64.706
G1 X148.291 Y99.906 E64.75025
G1 X148.291 Y135.04 E65.91881
G1 X147.989 Y136.255 E65.96045
G1 X147.826 Y136.648 E65.9746
G1 X147.051 Y137.701 E66.01809
G1 X146.194 Y138.42 E66.05529
G1 X145.512 Y138.787 E66.08105
G1 X144.558 Y139.05 E66.11397
G1 X143.791 Y139.16 E66.13974
G1 X143.533 Y139.14 E66.14834
G1 X143.544 Y139.657 E66.16554
G1 X143.236 Y140.945 E66.20959
G1 X142.715 Y141.907 E66.24598
G1 X142.295 Y142.477 E66.26953
G1 X141.362 Y143.204 E66.30887
G1 X140.748 Y143.562 E66.33251
G1 X139.438 Y143.915 E66.37763
G0 F6000 X139.386 Y143.515
G1 F1200 X95.621 Y143.516 E67.83326
G1 X94.544 Y143.246 E67.87019
G1 X94.087 Y143.06 E67.8866
G1 X93.236 Y142.396 E67.9225
G1 X92.646 Y141.793 E67.95056
G1 X92.141 Y140.831 E67.9867
G1 X91.856 Y139.796 E68.0224
G1 X91.905 Y138.677 E68.05966
G1 X91.569 Y138.734 E68.07099
G1 X90.961 Y138.756 E68.09123
G1 X89.827 Y138.488 E68.12998
G1 X89.019 Y138.067 E68.16029
