;FLAVOR:Marlin
;TIME:5349
;Filament used: 3.7413m
;Layer height: 0.2
;MINX:79.502
;MINY:83.877
;MINZ:0.2
;MAXX:155.498
;MAXY:151.123
;MAXZ:16
;TARGET_MACHINE.NAME:Creality Ender-3
;Generated with Cura_SteamEngine 5.9.0
M140 S50
M105
M190 S50
M104 S200
M105
M109 S200
M82 ;absolute extrusion mode
; Ender 3 Custom Start G-code
G92 E0 ; Reset Extruder
G28 ; Home all axes
G1 Z2.0 F3000 ; Move Z Axis up little to prevent scratching of Heat Bed
G1 X0.1 Y20 Z0.3 F5000.0 ; Move to start position
G1 X0.1 Y200.0 Z0.3 F1500.0 E15 ; Draw the first line
G1 X0.4 Y200.0 Z0.3 F5000.0 ; Move to side a little
G1 X0.4 Y20 Z0.3 F1500.0 E30 ; Draw the second line
G92 E0 ; Reset Extruder
G1 Z2.0 F3000 ; Move Z Axis up little to prevent scratching of Heat Bed
G1 X5 Y20 Z0.3 F5000.0 ; Move over to prevent blob squish
G92 E0
G92 E0
G1 F2700 E-5
;LAYER_COUNT:80
;LAYER:0
M107
G0 F6000 X93.699 Y151.123 Z0.2
;TYPE:SKIRT
G1 F2700 E0
G1 F1200 X92.748 Y151.111 E0.03163
G1 X91.991 Y151.074 E0.05684
G1 X90.778 Y150.924 E0.09749
G1 X90.37 Y150.849 E0.11129
G1 X89.032 Y150.52 E0.15712
G1 X87.841 Y150.084 E0.1993
G1 X87.492 Y149.935 E0.21192
G1 X86.678 Y149.545 E0.24194
G1 X85.914 Y149.1 E0.27135
G1 X85.591 Y148.892 E0.28413
G1 X84.627 Y148.194 E0.32371
G1 X84.371 Y147.986 E0.33468
G1 X83.617 Y147.309 E0.36839
G1 X83.382 Y147.075 E0.37942
G1 X82.619 Y146.232 E0.41724
G1 X82.432 Y146 E0.42715
G1 X81.678 Y144.949 E0.47017
G1 X81.433 Y144.558 E0.48552
G1 X80.97 Y143.739 E0.51681
G1 X80.502 Y142.693 E0.55492
G1 X80.354 Y142.307 E0.56867
G1 X79.984 Y141.145 E0.60923
G1 X79.898 Y140.812 E0.62067
G1 X79.675 Y139.732 E0.65735
G1 X79.534 Y138.335 E0.70405
G1 X79.507 Y137.454 E0.73336
G1 X79.502 Y98.074 E2.04315
G1 X79.514 Y97.123 E2.07478
G1 X79.551 Y96.366 E2.09999
G1 X79.675 Y95.309 E2.13539
G1 X79.724 Y95.017 E2.14523
G1 X79.942 Y94.011 E2.17947
G1 X80.019 Y93.724 E2.18935
G1 X80.377 Y92.616 E2.22808
G1 X80.893 Y91.439 E2.27083
G1 X81.055 Y91.12 E2.28273
G1 X81.673 Y90.06 E2.32354
G1 X81.877 Y89.754 E2.33577
G1 X82.73 Y88.636 E2.38254
G1 X82.997 Y88.331 E2.39602
G1 X83.669 Y87.629 E2.42834
G1 X84.321 Y87.053 E2.45728
G1 X84.656 Y86.783 E2.47159
G1 X85.692 Y86.044 E2.51392
G1 X86.04 Y85.827 E2.52756
G1 X87.084 Y85.258 E2.5671
G1 X87.467 Y85.076 E2.58121
G1 X88.369 Y84.699 E2.61372
G1 X89.362 Y84.388 E2.64833
G1 X89.785 Y84.279 E2.66286
G1 X90.92 Y84.046 E2.7014
G1 X92.291 Y83.909 E2.74722
G1 X93.172 Y83.882 E2.77654
G1 X141.301 Y83.877 E4.37732
G1 X142.243 Y83.889 E4.40865
G1 X142.981 Y83.924 E4.43322
G1 X144.222 Y84.076 E4.47481
G1 X144.63 Y84.151 E4.48861
G1 X145.961 Y84.479 E4.5342
G1 X147.117 Y84.899 E4.57511
G1 X147.49 Y85.057 E4.58858
G1 X148.335 Y85.462 E4.61975
G1 X149.127 Y85.926 E4.65028
G1 X149.47 Y86.149 E4.66388
G1 X150.585 Y86.97 E4.70994
G1 X151.394 Y87.703 E4.74625
G1 X151.609 Y87.916 E4.75631
G1 X152.365 Y88.751 E4.79378
G1 X152.585 Y89.022 E4.80539
G1 X153.296 Y90 E4.8456
G1 X153.917 Y91.068 E4.88669
G1 X154.066 Y91.357 E4.89751
G1 X154.521 Y92.368 E4.93438
G1 X154.638 Y92.673 E4.94525
G1 X155.028 Y93.898 E4.98801
G1 X155.141 Y94.346 E5.00337
G1 X155.324 Y95.231 E5.03343
G1 X155.46 Y96.548 E5.07747
G1 X155.493 Y97.546 E5.11068
G1 X155.498 Y136.926 E6.42046
G1 X155.486 Y137.875 E6.45203
G1 X155.449 Y138.635 E6.47734
G1 X155.32 Y139.762 E6.51507
G1 X155.093 Y140.849 E6.552
G1 X155.003 Y141.192 E6.56379
G1 X154.566 Y142.513 E6.61007
G1 X154.392 Y142.941 E6.62544
G1 X153.999 Y143.798 E6.6568
G1 X153.384 Y144.854 E6.69744
G1 X153.152 Y145.205 E6.71144
G1 X152.27 Y146.364 E6.75988
G1 X152.003 Y146.669 E6.77336
G1 X151.331 Y147.371 E6.80568
G1 X150.679 Y147.947 E6.83462
G1 X150.344 Y148.217 E6.84893
G1 X149.308 Y148.956 E6.89125
G1 X148.96 Y149.173 E6.90489
G1 X147.882 Y149.76 E6.94572
G1 X147.52 Y149.93 E6.95902
G1 X146.618 Y150.305 E6.99151
G1 X145.624 Y150.615 E7.02614
G1 X145.223 Y150.719 E7.03992
G1 X144.083 Y150.954 E7.07864
G1 X142.709 Y151.091 E7.12456
G1 X141.828 Y151.118 E7.15388
G1 X93.699 Y151.123 E8.75465
G0 F6000 X93.704 Y150.723
G1 F1200 X92.768 Y150.711 E8.78579
G1 X92.011 Y150.674 E8.811
G1 X90.827 Y150.527 E8.85068
G1 X90.465 Y150.46 E8.86292
G1 X89.169 Y150.144 E8.90729
G1 X87.998 Y149.716 E8.94876
G1 X87.665 Y149.574 E8.9608
G1 X86.851 Y149.184 E8.99082
G1 X86.13 Y148.763 E9.01859
G1 X85.826 Y148.568 E9.0306
G1 X84.862 Y147.87 E9.07019
G1 X84.638 Y147.688 E9.07979
G1 X83.899 Y147.025 E9.11281
G1 X83.678 Y146.806 E9.12316
G1 X82.93 Y145.981 E9.16019
G1 X82.757 Y145.767 E9.16935
G1 X82.017 Y144.736 E9.21156
G1 X81.781 Y144.36 E9.22632
G1 X81.335 Y143.575 E9.25635
G1 X80.875 Y142.549 E9.29375
G1 X80.735 Y142.185 E9.30672
G1 X80.371 Y141.045 E9.34652
G1 X80.29 Y140.731 E9.35731
G1 X80.067 Y139.651 E9.39399
G1 X79.934 Y138.323 E9.43838
G1 X79.907 Y137.454 E9.46729
G1 X79.902 Y98.079 E10.77691
G1 X79.914 Y97.143 E10.80805
G1 X79.951 Y96.386 E10.83325
G1 X80.069 Y95.375 E10.86711
G1 X80.115 Y95.102 E10.87632
G1 X80.329 Y94.114 E10.90994
G1 X80.4 Y93.847 E10.91913
G1 X80.758 Y92.739 E10.95786
G1 X81.259 Y91.6 E10.99924
G1 X81.401 Y91.321 E11.00966
G1 X82.006 Y90.282 E11.04964
G1 X82.21 Y89.976 E11.06188
G1 X83.031 Y88.899 E11.10692
G1 X83.286 Y88.607 E11.11981
G1 X83.934 Y87.929 E11.15101
G1 X84.586 Y87.353 E11.17994
G1 X84.888 Y87.109 E11.19286
G1 X85.924 Y86.37 E11.23518
G1 X86.232 Y86.178 E11.24725
G1 X87.256 Y85.619 E11.28606
G1 X87.622 Y85.445 E11.29953
G1 X88.489 Y85.081 E11.33081
G1 X89.482 Y84.77 E11.36542
G1 X89.865 Y84.671 E11.37858
G1 X91 Y84.438 E11.41711
G1 X92.303 Y84.309 E11.46066
G1 X93.172 Y84.282 E11.48958
G1 X141.296 Y84.277 E13.09019
G1 X142.224 Y84.289 E13.12106
G1 X142.962 Y84.324 E13.14563
G1 X144.173 Y84.473 E13.18621
G1 X144.535 Y84.54 E13.19846
G1 X145.824 Y84.855 E13.24259
G1 X146.98 Y85.275 E13.2835
G1 X147.317 Y85.418 E13.29568
G1 X148.162 Y85.823 E13.32684
G1 X148.91 Y86.262 E13.35569
G1 X149.233 Y86.471 E13.36848
G1 X150.317 Y87.267 E13.41322
G1 X151.113 Y87.987 E13.44891
G1 X151.313 Y88.185 E13.45827
G1 X152.055 Y89.004 E13.49503
G1 X152.261 Y89.257 E13.50588
G1 X152.972 Y90.235 E13.5461
G1 X153.562 Y91.252 E13.5852
G1 X153.701 Y91.521 E13.59528
G1 X154.156 Y92.532 E13.63215
G1 X154.257 Y92.795 E13.64152
G1 X154.64 Y93.996 E13.68345
G1 X154.749 Y94.427 E13.69823
G1 X154.932 Y95.312 E13.72829
G1 X155.06 Y96.561 E13.77005
G1 X155.093 Y97.546 E13.80283
G1 X155.098 Y136.921 E15.11245
G1 X155.086 Y137.856 E15.14355
G1 X155.049 Y138.616 E15.16886
G1 X154.928 Y139.681 E15.20451
G1 X154.706 Y140.748 E15.24076
G1 X154.623 Y141.067 E15.25172
G1 X154.195 Y142.363 E15.29711
G1 X154.028 Y142.775 E15.3119
G1 X153.653 Y143.597 E15.34195
G1 X153.05 Y144.633 E15.38182
G1 X152.818 Y144.984 E15.39581
G1 X151.969 Y146.101 E15.44248
G1 X151.714 Y146.393 E15.45537
G1 X151.066 Y147.071 E15.48657
G1 X150.414 Y147.647 E15.5155
G1 X150.112 Y147.891 E15.52842
G1 X149.076 Y148.63 E15.57074
G1 X148.768 Y148.822 E15.58281
G1 X147.712 Y149.398 E15.62282
G1 X147.366 Y149.561 E15.63554
G1 X146.499 Y149.923 E15.66679
G1 X145.523 Y150.228 E15.7008
G1 X145.142 Y150.327 E15.71389
G1 X144.002 Y150.562 E15.75261
G1 X142.697 Y150.691 E15.79622
G1 X141.828 Y150.718 E15.82514
G1 X93.704 Y150.723 E17.42575
G0 F6000 X93.709 Y150.323
G1 F1200 X92.788 Y150.311 E17.45639
G1 X92.031 Y150.274 E17.48159
G1 X90.899 Y150.133 E17.51954
G1 X90.559 Y150.071 E17.53103
G1 X89.306 Y149.768 E17.57391
G1 X88.155 Y149.348 E17.61466
G1 X87.838 Y149.213 E17.62612
G1 X87.024 Y148.823 E17.65614
G1 X86.345 Y148.426 E17.6823
G1 X86.06 Y148.244 E17.69355
G1 X85.114 Y147.56 E17.73237
G1 X84.905 Y147.39 E17.74133
G1 X84.166 Y146.727 E17.77436
G1 X83.974 Y146.537 E17.78334
G1 X83.24 Y145.728 E17.81967
G1 X83.082 Y145.534 E17.82799
G1 X82.356 Y144.523 E17.86939
G1 X82.129 Y144.162 E17.88357
G1 X81.683 Y143.377 E17.9136
G1 X81.248 Y142.405 E17.94902
G1 X81.116 Y142.063 E17.96121
G1 X80.752 Y140.923 E18.00102
G1 X80.682 Y140.65 E18.01039
G1 X80.459 Y139.57 E18.04707
G1 X80.334 Y138.31 E18.08918
G1 X80.307 Y137.454 E18.11767
G1 X80.302 Y98.084 E19.42712
G1 X80.314 Y97.163 E19.45775
G1 X80.351 Y96.406 E19.48296
G1 X80.464 Y95.44 E19.51531
G1 X80.506 Y95.186 E19.52387
G1 X80.715 Y94.217 E19.55684
G1 X80.781 Y93.97 E19.56535
G1 X81.139 Y92.862 E19.60408
G1 X81.616 Y91.781 E19.64337
G1 X81.747 Y91.522 E19.65303
G1 X82.352 Y90.483 E19.69302
G1 X82.528 Y90.218 E19.7036
G1 X83.333 Y89.162 E19.74776
G1 X83.576 Y88.883 E19.76007
G1 X84.199 Y88.229 E19.79011
G1 X84.838 Y87.664 E19.81848
G1 X85.12 Y87.435 E19.83056
G1 X86.156 Y86.696 E19.87289
G1 X86.424 Y86.529 E19.88339
G1 X87.448 Y85.97 E19.92219
G1 X87.777 Y85.814 E19.9343
G1 X88.609 Y85.463 E19.96434
G1 X89.583 Y85.157 E19.99829
G1 X89.945 Y85.063 E20.01073
G1 X91.08 Y84.83 E20.04927
G1 X92.316 Y84.709 E20.09058
G1 X93.172 Y84.682 E20.11906
G1 X141.291 Y84.677 E21.71951
G1 X142.205 Y84.689 E21.74991
G1 X142.943 Y84.724 E21.77448
G1 X144.101 Y84.867 E21.81329
G1 X144.441 Y84.929 E21.82479
G1 X145.688 Y85.231 E21.86746
G1 X146.824 Y85.643 E21.90765
G1 X147.145 Y85.779 E21.91925
G1 X147.96 Y86.168 E21.94928
G1 X148.693 Y86.598 E21.97755
G1 X148.997 Y86.794 E21.98958
G1 X150.049 Y87.564 E22.03294
G1 X150.832 Y88.271 E22.06803
G1 X151.017 Y88.454 E22.07668
G1 X151.759 Y89.273 E22.11344
G1 X151.937 Y89.492 E22.12283
G1 X152.648 Y90.47 E22.16304
G1 X153.207 Y91.435 E22.20013
G1 X153.336 Y91.685 E22.20949
G1 X153.783 Y92.677 E22.24568
G1 X153.876 Y92.917 E22.25424
G1 X154.252 Y94.094 E22.29534
G1 X154.357 Y94.508 E22.30954
G1 X154.54 Y95.393 E22.3396
G1 X154.66 Y96.575 E22.37912
G1 X154.693 Y97.546 E22.41143
G1 X154.698 Y136.916 E23.72088
G1 X154.686 Y137.837 E23.75152
G1 X154.649 Y138.597 E23.77682
G1 X154.536 Y139.6 E23.8104
G1 X154.314 Y140.667 E23.84664
G1 X154.243 Y140.942 E23.85609
G1 X153.824 Y142.213 E23.9006
G1 X153.664 Y142.609 E23.91481
G1 X153.289 Y143.431 E23.94486
G1 X152.716 Y144.412 E23.98264
G1 X152.484 Y144.763 E23.99664
G1 X151.667 Y145.838 E24.04155
G1 X151.424 Y146.117 E24.05385
G1 X150.801 Y146.771 E24.08389
G1 X150.162 Y147.336 E24.11226
G1 X149.88 Y147.565 E24.12435
G1 X148.844 Y148.304 E24.16667
G1 X148.576 Y148.471 E24.17717
G1 X147.541 Y149.036 E24.21639
G1 X147.211 Y149.192 E24.22853
G1 X146.379 Y149.541 E24.25854
G1 X145.422 Y149.841 E24.2919
G1 X145.061 Y149.935 E24.30431
G1 X143.921 Y150.17 E24.34302
G1 X142.684 Y150.291 E24.38436
G1 X141.828 Y150.318 E24.41285
G1 X93.709 Y150.323 E26.01329
G1 F2700 E21.01329
;MESH:d1mini-base.stl
G0 F6000 X93.71 Y139.98
G0 X117.5 Y138.714
;TYPE:WALL-INNER
G1 F2700 E26.01329
G1 F1200 X141.968 Y138.711 E26.8271
G1 X142.218 Y138.685 E26.83546
G1 X142.443 Y138.612 E26.84333
G1 X142.683 Y138.474 E26.85253
G1 X142.914 Y138.22 E26.86395
G1 X143.053 Y137.907 E26.87534
G1 X143.088 Y137.591 E26.88592
G1 X143.088 Y97.404 E28.22254
G1 X143.048 Y97.033 E28.23495
G1 X142.85 Y96.689 E28.24816
G1 X142.596 Y96.457 E28.2596
G1 X142.282 Y96.319 E28.27101
G1 X141.967 Y96.284 E28.28155
G1 X93.028 Y96.284 E29.90926
G1 X92.657 Y96.324 E29.92168
G1 X92.313 Y96.522 E29.93488
G1 X92.081 Y96.776 E29.94632
G1 X91.943 Y97.09 E29.95773
G1 X91.908 Y97.405 E29.96827
G1 X91.908 Y137.593 E31.30493
G1 X91.947 Y137.962 E31.31727
G1 X92.149 Y138.31 E31.33065
G1 X92.401 Y138.539 E31.34198
G1 X92.719 Y138.681 E31.35356
G1 X93.033 Y138.716 E31.36407
G1 X117.5 Y138.714 E32.17784
G0 F6000 X117.5 Y139.114
;TYPE:WALL-OUTER
G1 F1200 X141.989 Y139.111 E32.99235
G1 X142.302 Y139.079 E33.00282
G1 X142.606 Y138.98 E33.01345
G1 X142.937 Y138.79 E33.02614
G1 X143.254 Y138.441 E33.04182
G1 X143.444 Y138.011 E33.05746
G1 X143.488 Y137.613 E33.07078
G1 X143.488 Y97.383 E34.40883
G1 X143.455 Y97.07 E34.4193
G1 X143.356 Y96.766 E34.42994
G1 X143.166 Y96.435 E34.44263
G1 X142.817 Y96.118 E34.45831
G1 X142.387 Y95.928 E34.47395
G1 X141.989 Y95.884 E34.48727
G1 X93.007 Y95.884 E36.11641
G1 X92.694 Y95.917 E36.12688
G1 X92.39 Y96.016 E36.13751
G1 X92.059 Y96.206 E36.15021
G1 X91.742 Y96.555 E36.16589
G1 X91.552 Y96.985 E36.18153
G1 X91.508 Y97.383 E36.19484
G1 X91.508 Y137.613 E37.5329
G1 X91.541 Y137.93 E37.5435
G1 X91.64 Y138.229 E37.55398
G1 X91.834 Y138.564 E37.56685
G1 X92.179 Y138.878 E37.58237
G1 X92.613 Y139.072 E37.59818
G1 X93.011 Y139.116 E37.6115
G1 X117.5 Y139.114 E38.426
G0 F6000 X117.5 Y138.352
;TYPE:SKIN
G1 F1200 X93.052 Y138.356 E39.23915
G1 X92.81 Y138.328 E39.24725
G1 X92.604 Y138.235 E39.25477
G1 X92.429 Y138.076 E39.26263
G1 X92.342 Y137.927 E39.26837
G1 X92.268 Y137.56 E39.28082
G1 X92.268 Y97.239 E40.6219
G1 X92.385 Y96.976 E40.63148
G1 X92.543 Y96.806 E40.6392
G1 X92.689 Y96.722 E40.6448
G1 X93.061 Y96.644 E40.65744
G1 X142.13 Y96.644 E42.28948
G1 X142.396 Y96.762 E42.29916
G1 X142.566 Y96.919 E42.30686
G1 X142.65 Y97.065 E42.31246
G1 X142.728 Y97.437 E42.3251
G1 X142.728 Y137.568 E43.65987
G1 X142.7 Y137.81 E43.66797
G1 X142.606 Y138.021 E43.67565
G1 X142.453 Y138.189 E43.68321
G1 X142.305 Y138.274 E43.68889
G1 X141.939 Y138.348 E43.7013
G1 X117.5 Y138.352 E44.51415
G0 F6000 X117.5 Y138.614
G0 X92.761 Y138.524
G0 X92.491 Y138.402
G0 X92.06 Y137.845
G0 X92.514 Y137.768
G1 F1200 X92.889 Y138.144 E44.53181
G0 F6000 X93.466 Y138.155
G1 F1200 X92.468 Y137.157 E44.57875
G0 F6000 X92.468 Y136.591
G1 F1200 X94.032 Y138.155 E44.65232
G0 F6000 X94.597 Y138.155
G1 F1200 X92.468 Y136.025 E44.75249
G0 F6000 X92.468 Y135.46
G1 F1200 X95.163 Y138.155 E44.87925
G0 F6000 X95.729 Y138.155
G1 F1200 X92.468 Y134.894 E45.03264
G0 F6000 X92.468 Y134.328
G1 F1200 X96.295 Y138.155 E45.21265
G0 F6000 X96.86 Y138.155
G1 F1200 X92.468 Y133.763 E45.41923
G0 F6000 X92.468 Y133.197
G1 F1200 X97.425 Y138.155 E45.65242
G0 F6000 X97.991 Y138.155
G1 F1200 X92.468 Y132.631 E45.91223
G0 F6000 X92.468 Y132.066
G1 F1200 X98.557 Y138.155 E46.19864
G0 F6000 X99.122 Y138.155
G1 F1200 X92.468 Y131.5 E46.51164
G0 F6000 X92.468 Y130.934
G1 F1200 X99.688 Y138.155 E46.85127
G0 F6000 X100.254 Y138.155
G1 F1200 X92.468 Y130.369 E47.2175
G0 F6000 X92.468 Y129.803
G1 F1200 X100.819 Y138.155 E47.61033
G0 F6000 X101.385 Y138.155
G1 F1200 X92.468 Y129.237 E48.02978
G0 F6000 X92.468 Y128.672
G1 F1200 X101.95 Y138.154 E48.47579
G0 F6000 X102.516 Y138.154
G1 F1200 X92.468 Y128.106 E48.94842
G0 F6000 X92.468 Y127.54
G1 F1200 X103.081 Y138.154 E49.44764
G0 F6000 X103.647 Y138.154
G1 F1200 X92.468 Y126.974 E49.97349
G0 F6000 X92.468 Y126.409
G1 F1200 X104.213 Y138.154 E50.52594
G0 F6000 X104.778 Y138.154
G1 F1200 X92.468 Y125.843 E51.10499
G0 F6000 X92.468 Y125.277
G1 F1200 X105.344 Y138.154 E51.71066
G0 F6000 X105.91 Y138.154
G1 F1200 X92.468 Y124.712 E52.34293
G0 F6000 X92.468 Y124.146
G1 F1200 X106.475 Y138.153 E53.00178
G0 F6000 X107.04 Y138.153
G1 F1200 X92.468 Y123.58 E53.68722
G0 F6000 X92.468 Y123.015
G1 F1200 X107.606 Y138.153 E54.39927
G0 F6000 X108.172 Y138.153
G1 F1200 X92.468 Y122.449 E55.13793
G0 F6000 X92.468 Y121.883
G1 F1200 X108.737 Y138.153 E55.9032
G0 F6000 X109.303 Y138.153
G1 F1200 X92.468 Y121.318 E56.69507
G0 F6000 X92.468 Y120.752
G1 F1200 X109.869 Y138.153 E57.51356
G0 F6000 X110.435 Y138.153
G1 F1200 X92.468 Y120.186 E58.35867
G0 F6000 X92.468 Y119.621
G1 F1200 X111 Y138.152 E59.23034
G0 F6000 X111.565 Y138.152
G1 F1200 X92.468 Y119.055 E60.1286
G0 F6000 X92.468 Y118.489
G1 F1200 X112.131 Y138.152 E61.05349
G0 F6000 X112.697 Y138.152
G1 F1200 X92.468 Y117.923 E62.005
G0 F6000 X92.468 Y117.358
G1 F1200 X113.262 Y138.152 E62.98308
G0 F6000 X113.828 Y138.152
G1 F1200 X92.468 Y116.792 E63.98779
G0 F6000 X92.468 Y116.226
G1 F1200 X114.394 Y138.152 E65.01912
G0 F6000 X114.959 Y138.152
G1 F1200 X92.468 Y115.661 E66.07703
G0 F6000 X92.468 Y115.095
G1 F1200 X115.524 Y138.152 E67.16154
G0 F6000 X116.09 Y138.152
G1 F1200 X92.468 Y114.529 E68.27267
G0 F6000 X92.468 Y113.964
G1 F1200 X116.656 Y138.152 E69.4104
G0 F6000 X117.221 Y138.152
G1 F1200 X92.468 Y113.398 E70.57473
G0 F6000 X92.468 Y112.832
G1 F1200 X117.787 Y138.152 E71.76568
G0 F6000 X118.353 Y138.152
G1 F1200 X92.468 Y112.267 E72.98323
G0 F6000 X92.468 Y111.701
G1 F1200 X118.918 Y138.152 E74.22738
G0 F6000 X119.484 Y138.152
G1 F1200 X92.468 Y111.135 E75.49815
G0 F6000 X92.468 Y110.57
G1 F1200 X120.049 Y138.151 E76.79548
G0 F6000 X120.615 Y138.151
