;FLAVOR:Marlin
;TIME:7655
;Filament used: 5.43341m
;Layer height: 0.2
;MINX:83.548
;MINY:87.884
;MINZ:0.2
;MAXX:151.452
;MAXY:147.077
;MAXZ:24
;TARGET_MACHINE.NAME:Creality Ender-3
;Generated with Cura_SteamEngine 5.9.0
M140 S90
M105
M190 S90
M104 S240
M105
M109 S240
M82 ;absolute extrusion mode
; Ender 3 Custom Start G-code
G92 E0 ; Reset Extruder
G28 ; Home all axes
G1 Z2.0 F3000 ; Move Z Axis up little to prevent scratching of Heat Bed
G1 X0.1 Y20 Z0.3 F5000.0 ; Move to start position
G1 X0.1 Y200.0 Z0.3 F1500.0 E15 ; Draw the first line
G1 X0.4 Y200.0 Z0.3 F5000.0 ; Move to side a little
G1 X0.4 Y20 Z0.3 F1500.0 E30 ; Draw the second line
G92 E0 ; Reset Extruder
G1 Z2.0 F3000 ; Move Z Axis up little to prevent scratching of Heat Bed
G1 X5 Y20 Z0.3 F5000.0 ; Move over to prevent blob squish
G92 E0
G92 E0
G1 F2700 E-5
;LAYER_COUNT:120
;LAYER:0
M107
G0 F6000 X143.893 Y146.963 Z0.2
;TYPE:SKIRT
G1 F2700 E0
G1 F1200 X142.818 Y147.076 E0.03595
G1 X92.151 Y147.077 E1.72114
G1 X90.491 Y146.893 E1.77669
G1 X87.792 Y145.676 E1.87517
G1 X85.481 Y143.598 E1.97853
G1 X84.275 Y141.452 E2.06041
G1 X83.662 Y139.518 E2.12789
G1 X83.549 Y138.445 E2.16377
G1 X83.548 Y96.526 E3.558
G1 X83.732 Y94.866 E3.61355
G1 X84.949 Y92.167 E3.71203
G1 X87.027 Y89.856 E3.8154
G1 X89.173 Y88.65 E3.89727
G1 X91.107 Y88.037 E3.96475
G1 X92.182 Y87.924 E4.0007
G1 X141.999 Y87.884 E5.65762
G1 X144.431 Y88.07 E5.73875
G1 X147.24 Y89.347 E5.84138
G1 X149.496 Y91.36 E5.94194
G1 X150.731 Y93.564 E6.02597
G1 X151.338 Y95.481 E6.09285
G1 X151.451 Y96.555 E6.12877
G1 X151.452 Y138.474 E7.523
G1 X151.268 Y140.134 E7.57855
G1 X150.051 Y142.833 E7.67702
G1 X147.973 Y145.144 E7.78039
G1 X145.827 Y146.35 E7.86226
G1 X143.893 Y146.963 E7.92974
G0 F6000 X143.813 Y146.569
G1 F1200 X142.776 Y146.678 E7.96442
G1 X92.195 Y146.679 E9.64675
G1 X90.597 Y146.502 E9.70023
G1 X88.011 Y145.336 E9.79458
G1 X85.799 Y143.347 E9.89352
G1 X84.643 Y141.29 E9.972
G1 X84.056 Y139.438 E10.03662
G1 X83.947 Y138.403 E10.07123
G1 X83.946 Y96.57 E11.4626
G1 X84.123 Y94.972 E11.51608
G1 X85.289 Y92.386 E11.61043
G1 X87.278 Y90.174 E11.70937
G1 X89.335 Y89.018 E11.78785
G1 X91.187 Y88.431 E11.85246
G1 X92.224 Y88.322 E11.88714
G1 X141.999 Y88.284 E13.54267
G1 X144.331 Y88.464 E13.62046
G1 X147.02 Y89.686 E13.7187
G1 X149.178 Y91.612 E13.8149
G1 X150.363 Y93.726 E13.89551
G1 X150.944 Y95.561 E13.95953
G1 X151.053 Y96.597 E13.99418
G1 X151.054 Y138.43 E15.38555
G1 X150.877 Y140.028 E15.43902
G1 X149.711 Y142.614 E15.53337
G1 X147.722 Y144.826 E15.63231
G1 X145.665 Y145.982 E15.71079
G1 X143.813 Y146.569 E15.77541
G0 F6000 X143.733 Y146.175
G1 F1200 X142.734 Y146.28 E15.80882
G1 X92.239 Y146.281 E17.48829
G1 X90.703 Y146.111 E17.53969
G1 X88.23 Y144.996 E17.62992
G1 X86.117 Y143.096 E17.72443
G1 X85.011 Y141.128 E17.79951
G1 X84.45 Y139.358 E17.86127
G1 X84.345 Y138.361 E17.89461
G1 X84.344 Y96.614 E19.28312
G1 X84.514 Y95.078 E19.33452
G1 X85.629 Y92.605 E19.42475
G1 X87.529 Y90.492 E19.51926
G1 X89.497 Y89.386 E19.59435
G1 X91.267 Y88.825 E19.6561
G1 X92.266 Y88.72 E19.68951
G1 X141.999 Y88.684 E21.34364
G1 X144.231 Y88.858 E21.4181
G1 X146.8 Y90.025 E21.51195
G1 X148.86 Y91.864 E21.60379
G1 X149.995 Y93.888 E21.68098
G1 X150.55 Y95.641 E21.74213
G1 X150.655 Y96.639 E21.77551
G1 X150.656 Y138.386 E23.16402
G1 X150.486 Y139.922 E23.21542
G1 X149.371 Y142.395 E23.30565
G1 X147.471 Y144.508 E23.40016
G1 X145.503 Y145.614 E23.47524
G1 X143.733 Y146.175 E23.537
G0 F6000 X143.653 Y145.781
G1 F1200 X142.692 Y145.882 E23.56914
G1 X92.283 Y145.883 E25.24575
G1 X90.809 Y145.72 E25.29507
G1 X88.449 Y144.656 E25.38118
G1 X86.435 Y142.845 E25.47126
G1 X85.379 Y140.966 E25.54295
G1 X84.844 Y139.278 E25.60184
G1 X84.743 Y138.319 E25.63392
G1 X84.742 Y96.658 E27.01957
G1 X84.905 Y95.184 E27.06889
G1 X85.969 Y92.824 E27.155
G1 X87.78 Y90.81 E27.24508
G1 X89.659 Y89.754 E27.31677
G1 X91.347 Y89.219 E27.37566
G1 X92.308 Y89.118 E27.4078
G1 X141.999 Y89.084 E29.06053
G1 X144.131 Y89.252 E29.13166
G1 X146.58 Y90.364 E29.22112
G1 X148.542 Y92.116 E29.30861
G1 X149.627 Y94.05 E29.38237
G1 X150.156 Y95.721 E29.44066
G1 X150.257 Y96.681 E29.47277
G1 X150.258 Y138.342 E30.85842
G1 X150.095 Y139.816 E30.90774
G1 X149.031 Y142.176 E30.99384
G1 X147.22 Y144.19 E31.08393
G1 X145.341 Y145.246 E31.15562
G1 X143.653 Y145.781 E31.21451
G0 F6000 X143.573 Y145.387
G1 F1200 X142.65 Y145.484 E31.24538
G1 X92.327 Y145.485 E32.91913
G1 X90.915 Y145.329 E32.96638
G1 X88.668 Y144.316 E33.04836
G1 X86.753 Y142.594 E33.13402
G1 X85.747 Y140.804 E33.20231
G1 X85.238 Y139.198 E33.25835
G1 X85.141 Y138.277 E33.28915
G1 X85.14 Y96.702 E34.67194
G1 X85.296 Y95.29 E34.71919
G1 X86.309 Y93.043 E34.80117
G1 X88.031 Y91.128 E34.88682
G1 X89.821 Y90.122 E34.95512
G1 X91.427 Y89.613 E35.01115
G1 X92.35 Y89.516 E35.04202
G1 X141.999 Y89.484 E36.69335
G1 X144.031 Y89.646 E36.76115
G1 X146.36 Y90.703 E36.84622
G1 X148.224 Y92.368 E36.92935
G1 X149.259 Y94.212 E36.99968
G1 X149.762 Y95.801 E37.05511
G1 X149.859 Y96.723 E37.08595
G1 X149.86 Y138.298 E38.46874
G1 X149.704 Y139.71 E38.51599
G1 X148.691 Y141.957 E38.59797
G1 X146.969 Y143.872 E38.68362
G1 X145.179 Y144.878 E38.75192
G1 X143.573 Y145.387 E38.80795
G0 F6000 X143.493 Y144.993
G1 F1200 X142.608 Y145.086 E38.83755
G1 X92.371 Y145.087 E40.50844
G1 X91.021 Y144.938 E40.55361
G1 X88.887 Y143.976 E40.63147
G1 X87.071 Y142.343 E40.7127
G1 X86.115 Y140.642 E40.7776
G1 X85.632 Y139.118 E40.83077
G1 X85.539 Y138.235 E40.8603
G1 X85.538 Y96.746 E42.24023
G1 X85.687 Y95.396 E42.2854
G1 X86.649 Y93.262 E42.36326
G1 X88.282 Y91.446 E42.44449
G1 X89.983 Y90.49 E42.50939
G1 X91.507 Y90.007 E42.56256
G1 X92.392 Y89.914 E42.59216
G1 X141.999 Y89.884 E44.24209
G1 X143.931 Y90.04 E44.30656
G1 X146.138 Y91.041 E44.38716
G1 X147.907 Y92.622 E44.46608
G1 X148.891 Y94.374 E44.53291
G1 X149.368 Y95.881 E44.58548
G1 X149.461 Y96.765 E44.61505
G1 X149.462 Y138.254 E45.99498
G1 X149.313 Y139.604 E46.04015
G1 X148.351 Y141.738 E46.11801
G1 X146.718 Y143.554 E46.19924
G1 X145.017 Y144.51 E46.26413
G1 X143.493 Y144.993 E46.31731
G0 F6000 X143.413 Y144.599
G1 F1200 X142.566 Y144.688 E46.34563
G1 X92.415 Y144.689 E48.01366
G1 X91.127 Y144.547 E48.05676
G1 X89.106 Y143.636 E48.13049
G1 X87.389 Y142.092 E48.2073
G1 X86.483 Y140.48 E48.2688
G1 X86.026 Y139.038 E48.31911
G1 X85.937 Y138.193 E48.34737
G1 X85.936 Y96.79 E49.72444
G1 X86.078 Y95.502 E49.76754
G1 X86.989 Y93.481 E49.84127
G1 X88.533 Y91.764 E49.91807
G1 X90.145 Y90.858 E49.97958
G1 X91.587 Y90.401 E50.02989
G1 X92.434 Y90.312 E50.05821
G1 X141.999 Y90.284 E51.70675
G1 X143.831 Y90.434 E51.76789
G1 X145.916 Y91.379 E51.84403
G1 X147.59 Y92.876 E51.91872
G1 X148.523 Y94.536 E51.98206
G1 X148.974 Y95.961 E52.03177
G1 X149.063 Y96.807 E52.06006
G1 X149.064 Y138.21 E53.43713
G1 X148.922 Y139.498 E53.48023
G1 X148.011 Y141.519 E53.55396
G1 X146.467 Y143.236 E53.63076
G1 X144.855 Y144.142 E53.69227
G1 X143.413 Y144.599 E53.74258
G0 F6000 X143.333 Y144.205
G1 F1200 X142.524 Y144.29 E53.76963
G1 X92.459 Y144.291 E55.4348
G1 X91.233 Y144.156 E55.47583
G1 X89.325 Y143.296 E55.54544
G1 X87.707 Y141.841 E55.61781
G1 X86.851 Y140.318 E55.67592
G1 X86.42 Y138.958 E55.72337
G1 X86.335 Y138.151 E55.75036
G1 X86.334 Y96.834 E57.12457
G1 X86.469 Y95.608 E57.16559
G1 X87.329 Y93.7 E57.2352
G1 X88.784 Y92.082 E57.30757
G1 X90.307 Y91.226 E57.36568
G1 X91.667 Y90.795 E57.41313
G1 X92.476 Y90.71 E57.44019
G1 X141.999 Y90.684 E59.08733
G1 X143.731 Y90.828 E59.14513
G1 X145.694 Y91.717 E59.21681
G1 X147.273 Y93.13 E59.28728
G1 X148.155 Y94.698 E59.34712
G1 X148.58 Y96.041 E59.39397
G1 X148.665 Y96.849 E59.42099
G1 X148.666 Y138.166 E60.7952
G1 X148.531 Y139.392 E60.83623
G1 X147.671 Y141.3 E60.90583
G1 X146.216 Y142.918 E60.97821
G1 X144.693 Y143.774 E61.03632
G1 X143.333 Y144.205 E61.08377
G0 F6000 X143.253 Y143.811
G1 F1200 X142.482 Y143.892 E61.10955
G1 X92.503 Y143.893 E62.77186
G1 X91.339 Y143.765 E62.81081
G1 X89.544 Y142.956 E62.87629
G1 X88.025 Y141.59 E62.94424
G1 X87.219 Y140.156 E62.99895
G1 X86.814 Y138.878 E63.04354
G1 X86.733 Y138.109 E63.06926
G1 X86.732 Y96.878 E64.44061
G1 X86.86 Y95.714 E64.47956
G1 X87.669 Y93.919 E64.54504
G1 X89.035 Y92.4 E64.61299
G1 X90.469 Y91.594 E64.6677
G1 X91.747 Y91.189 E64.71229
G1 X92.518 Y91.108 E64.73808
G1 X141.999 Y91.084 E66.38382
G1 X143.631 Y91.222 E66.43829
G1 X145.472 Y92.055 E66.5055
G1 X146.956 Y93.384 E66.57176
G1 X147.787 Y94.86 E66.6281
G1 X148.186 Y96.121 E66.67209
G1 X148.267 Y96.891 E66.69784
G1 X148.268 Y138.122 E68.06919
G1 X148.14 Y139.286 E68.10814
G1 X147.331 Y141.081 E68.17362
G1 X145.965 Y142.6 E68.24157
G1 X144.531 Y143.406 E68.29628
G1 X143.253 Y143.811 E68.34087
G0 F6000 X143.173 Y143.417
G1 F1200 X142.44 Y143.494 E68.36539
G1 X92.547 Y143.495 E70.02483
G1 X91.445 Y143.374 E70.06171
G1 X89.763 Y142.616 E70.12307
G1 X88.343 Y141.339 E70.18659
G1 X87.587 Y139.994 E70.2379
G1 X87.208 Y138.798 E70.27963
G1 X87.131 Y138.067 E70.30408
G1 X87.13 Y96.922 E71.67257
G1 X87.251 Y95.82 E71.70944
G1 X88.009 Y94.138 E71.7708
G1 X89.286 Y92.718 E71.83432
G1 X90.631 Y91.962 E71.88564
G1 X91.827 Y91.583 E71.92737
G1 X92.56 Y91.506 E71.95188
G1 X141.999 Y91.484 E73.59623
G1 X143.531 Y91.615 E73.64737
G1 X145.25 Y92.393 E73.71013
G1 X146.639 Y93.638 E73.77217
G1 X147.419 Y95.023 E73.82504
G1 X147.792 Y96.201 E73.86613
G1 X147.869 Y96.933 E73.89061
G1 X147.87 Y138.078 E75.2591
G1 X147.749 Y139.18 E75.29597
G1 X146.991 Y140.862 E75.35734
G1 X145.714 Y142.282 E75.42086
G1 X144.369 Y143.038 E75.47217
G1 X143.173 Y143.417 E75.5139
G0 F6000 X143.093 Y143.023
G1 F1200 X142.398 Y143.096 E75.53714
G1 X92.591 Y143.097 E77.19373
G1 X91.551 Y142.983 E77.22853
G1 X89.982 Y142.276 E77.28577
G1 X88.661 Y141.088 E77.34486
G1 X87.955 Y139.832 E77.39278
G1 X87.602 Y138.718 E77.43165
G1 X87.529 Y138.025 E77.45482
G1 X87.528 Y96.966 E78.82045
G1 X87.642 Y95.926 E78.85525
G1 X88.349 Y94.357 E78.91249
G1 X89.537 Y93.036 E78.97158
G1 X90.793 Y92.33 E79.0195
G1 X91.907 Y91.977 E79.05837
G1 X92.602 Y91.904 E79.08161
G1 X141.999 Y91.884 E80.72456
G1 X143.431 Y92.008 E80.77237
G1 X145.028 Y92.731 E80.83068
G1 X146.322 Y93.892 E80.8885
G1 X147.051 Y95.186 E80.9379
G1 X147.398 Y96.281 E80.9761
G1 X147.471 Y96.975 E80.99931
G1 X147.472 Y138.034 E82.36494
G1 X147.358 Y139.074 E82.39974
G1 X146.651 Y140.643 E82.45698
G1 X145.463 Y141.964 E82.51607
G1 X144.207 Y142.67 E82.56399
G1 X143.093 Y143.023 E82.60286
G0 F6000 X143.013 Y142.629
G1 F1200 X142.356 Y142.698 E82.62483
G1 X92.635 Y142.699 E84.27856
G1 X91.657 Y142.592 E84.31128
G1 X90.201 Y141.936 E84.36439
G1 X88.979 Y140.837 E84.41906
G1 X88.323 Y139.67 E84.46358
G1 X87.996 Y138.638 E84.49959
G1 X87.927 Y137.983 E84.52149
G1 X87.926 Y97.01 E85.88426
G1 X88.033 Y96.032 E85.91698
G1 X88.689 Y94.576 E85.9701
G1 X89.788 Y93.354 E86.02476
G1 X90.955 Y92.698 E86.06929
G1 X91.987 Y92.371 E86.1053
G1 X92.644 Y92.302 E86.12727
G1 X141.999 Y92.284 E87.76882
G1 X143.328 Y92.4 E87.81319
G1 X144.806 Y93.069 E87.86715
G1 X146.007 Y94.147 E87.92083
G1 X146.682 Y95.345 E87.96656
G1 X147.004 Y96.361 E88.00201
G1 X147.073 Y97.017 E88.02395
G1 X147.074 Y137.99 E89.38672
G1 X146.967 Y138.968 E89.41944
G1 X146.311 Y140.424 E89.47256
G1 X145.212 Y141.646 E89.52722
G1 X144.045 Y142.302 E89.57175
G1 X143.013 Y142.629 E89.60775
G0 F6000 X142.933 Y142.235
G1 F1200 X142.314 Y142.3 E89.62845
G1 X92.678 Y142.301 E91.27935
G1 X91.763 Y142.201 E91.30997
G1 X90.42 Y141.596 E91.35896
G1 X89.297 Y140.586 E91.4092
G1 X88.691 Y139.508 E91.45033
G1 X88.39 Y138.558 E91.48347
G1 X88.325 Y137.941 E91.50411
G1 X88.324 Y97.053 E92.86405
G1 X88.424 Y96.138 E92.89466
G1 X89.029 Y94.795 E92.94365
G1 X90.039 Y93.672 E92.99389
G1 X91.117 Y93.066 E93.03502
G1 X92.067 Y92.765 E93.06817
G1 X92.686 Y92.7 E93.08887
G1 X141.999 Y92.684 E94.72902
G1 X143.225 Y92.792 E94.76996
G1 X144.584 Y93.407 E94.81957
G1 X145.692 Y94.402 E94.8691
G1 X146.313 Y95.504 E94.91117
G1 X146.61 Y96.441 E94.94387
G1 X146.675 Y97.059 E94.96453
G1 X146.676 Y137.947 E96.32448
G1 X146.576 Y138.862 E96.35509
G1 X145.971 Y140.205 E96.40408
G1 X144.961 Y141.328 E96.45432
G1 X143.883 Y141.934 E96.49545
G1 X142.933 Y142.235 E96.52859
G0 F6000 X142.853 Y141.841
G1 F1200 X142.272 Y141.902 E96.54802
G1 X92.721 Y141.903 E98.1961
G1 X91.869 Y141.81 E98.2246
G1 X90.639 Y141.256 E98.26947
G1 X89.615 Y140.335 E98.31528
G1 X89.059 Y139.346 E98.35301
G1 X88.784 Y138.478 E98.3833
G1 X88.723 Y137.899 E98.40266
G1 X88.722 Y97.096 E99.75978
G1 X88.815 Y96.244 E99.78828
G1 X89.369 Y95.014 E99.83315
G1 X90.29 Y93.99 E99.87896
G1 X91.279 Y93.434 E99.91669
G1 X92.147 Y93.159 E99.94698
G1 X92.728 Y93.098 E99.96641
G1 X141.999 Y93.084 E101.60517
G1 X143.122 Y93.184 E101.64267
G1 X144.362 Y93.745 E101.68793
G1 X145.377 Y94.657 E101.73332
G1 X145.944 Y95.663 E101.77173
G1 X146.216 Y96.521 E101.80166
G1 X146.277 Y97.101 E101.82106
G1 X146.278 Y137.904 E103.17817
G1 X146.185 Y138.756 E103.20668
G1 X145.631 Y139.986 E103.25155
G1 X144.71 Y141.01 E103.29736
G1 X143.721 Y141.566 E103.33509
G1 X142.853 Y141.841 E103.36538
G0 F6000 X142.773 Y141.447
G1 F1200 X142.23 Y141.504 E103.38354
G1 X92.764 Y141.505 E105.02878
G1 X91.975 Y141.419 E105.05518
G1 X90.858 Y140.916 E105.09592
G1 X89.933 Y140.084 E105.1373
G1 X89.427 Y139.184 E105.17164
G1 X89.178 Y138.398 E105.19907
G1 X89.121 Y137.857 E105.21716
G1 X89.12 Y97.139 E106.57145
G1 X89.206 Y96.35 E106.59784
G1 X89.709 Y95.233 E106.63859
G1 X90.541 Y94.308 E106.67997
G1 X91.441 Y93.802 E106.71431
G1 X92.227 Y93.553 E106.74173
G1 X92.77 Y93.496 E106.75989
G1 X141.999 Y93.484 E108.39726
G1 X143.019 Y93.576 E108.43132
G1 X144.142 Y94.084 E108.47231
G1 X145.061 Y94.91 E108.51341
G1 X145.575 Y95.822 E108.54823
G1 X145.822 Y96.601 E108.57541
G1 X145.879 Y97.143 E108.59354
G1 X145.88 Y137.861 E109.94782
G1 X145.794 Y138.65 E109.97422
G1 X145.291 Y139.767 E110.01497
G1 X144.459 Y140.692 E110.05635
G1 X143.559 Y141.198 E110.09069
G1 X142.773 Y141.447 E110.11811
G0 F6000 X142.693 Y141.053
G1 F1200 X142.188 Y141.106 E110.135
G1 X92.807 Y141.107 E111.77742
G1 X92.081 Y141.028 E111.80171
G1 X91.079 Y140.577 E111.83825
G1 X90.25 Y139.831 E111.87535
G1 X89.795 Y139.022 E111.90622
G1 X89.572 Y138.318 E111.93078
G1 X89.519 Y137.815 E111.9476
G1 X89.518 Y97.182 E113.29906
G1 X89.597 Y96.456 E113.32335
G1 X90.048 Y95.454 E113.3599
G1 X90.794 Y94.625 E113.39699
G1 X91.603 Y94.17 E113.42786
G1 X92.307 Y93.947 E113.45242
G1 X92.812 Y93.894 E113.46931
G1 X141.999 Y93.884 E115.10528
G1 X142.916 Y93.968 E115.1359
G1 X143.92 Y94.422 E115.17255
G1 X144.746 Y95.165 E115.20951
G1 X145.206 Y95.981 E115.24066
G1 X145.428 Y96.681 E115.26509
G1 X145.481 Y97.185 E115.28194
G1 X145.482 Y137.818 E116.6334
G1 X145.403 Y138.544 E116.65769
G1 X144.952 Y139.546 E116.69424
G1 X144.206 Y140.375 E116.73133
G1 X143.397 Y140.83 E116.7622
G1 X142.693 Y141.053 E116.78676
G0 F6000 X142.613 Y140.659
G1 F1200 X142.146 Y140.708 E116.80238
G1 X92.85 Y140.709 E118.44197
G1 X92.187 Y140.637 E118.46415
G1 X91.3 Y140.238 E118.4965
G1 X90.567 Y139.578 E118.52931
G1 X90.163 Y138.86 E118.55671
G1 X89.966 Y138.238 E118.57841
G1 X89.917 Y137.773 E118.59396
G1 X89.916 Y97.225 E119.94259
G1 X89.988 Y96.562 E119.96478
G1 X90.387 Y95.675 E119.99712
G1 X91.047 Y94.942 E120.02993
G1 X91.765 Y94.538 E120.05733
G1 X92.387 Y94.341 E120.07903
G1 X92.854 Y94.292 E120.09465
G1 X141.999 Y94.284 E121.72922
G1 X142.81 Y94.36 E121.75631
G1 X143.7 Y94.762 E121.78879
G1 X144.429 Y95.418 E121.82141
G1 X144.838 Y96.144 E121.84913
G1 X145.034 Y96.761 E121.87066
G1 X145.083 Y97.227 E121.88624
G1 X145.084 Y137.775 E123.23488
G1 X145.012 Y138.438 E123.25706
G1 X144.613 Y139.325 E123.28941
G1 X143.953 Y140.058 E123.32221
G1 X143.235 Y140.462 E123.34961
G1 X142.613 Y140.659 E123.37131
G0 F6000 X142.533 Y140.265
G1 F1200 X142.104 Y140.31 E123.38566
G1 X92.893 Y140.311 E125.02243
G1 X92.293 Y140.246 E125.0425
G1 X91.521 Y139.899 E125.07065
G1 X90.882 Y139.323 E125.09926
G1 X90.532 Y138.702 E125.12297
G1 X90.36 Y138.158 E125.14195
G1 X90.315 Y137.731 E125.15623
G1 X90.314 Y97.268 E126.50203
G1 X90.379 Y96.668 E126.52211
