;FLAVOR:Marlin
;TIME:3567
;Filament used: 2.28307m
;Layer height: 0.2
;MINX:89.7
;MINY:94.072
;MINZ:0.2
;MAXX:150.3
;MAXY:140.924
;MAXZ:5.2
;TARGET_MACHINE.NAME:Creality Ender-3
;Generated with Cura_SteamEngine 5.10.2
M140 S90
M105
M190 S90
M104 S245
M105
M109 S245
; Ender 3 Custom Start G-code
G92 E0 ; Reset Extruder
G28 ; Home all axes
G1 Z2.0 F3000 ; Move Z Axis up little to prevent scratching of Heat Bed
G1 X0.1 Y20 Z0.3 F5000.0 ; Move to start position
G1 X0.1 Y200.0 Z0.3 F1500.0 E15 ; Draw the first line
G1 X0.4 Y200.0 Z0.3 F5000.0 ; Move to side a little
G1 X0.4 Y20 Z0.3 F1500.0 E30 ; Draw the second line
G92 E0 ; Reset Extruder
G1 Z2.0 F3000 ; Move Z Axis up little to prevent scratching of Heat Bed
G1 X5 Y20 Z0.3 F5000.0 ; Move over to prevent blob squish
M82 ;absolute extrusion mode
G92 E0
G92 E0
G1 F2700 E-5
;LAYER_COUNT:26
;LAYER:0
M107
G0 F6000 X135.218 Y109.973 Z0.2
;TYPE:SKIRT
G1 F2700 E0
G1 F1200 X136.788 Y108.506 E0.07147
G1 X138.435 Y107.55 E0.13481
G1 X139.218 Y107.237 E0.16285
G1 X141.244 Y106.965 E0.23084
G1 X143.335 Y106.937 E0.30039
G1 X145.255 Y107.412 E0.36618
G1 X147.272 Y108.464 E0.44184
G1 X148.748 Y110.042 E0.51371
G1 X149.787 Y111.786 E0.58123
G1 X149.97 Y112.221 E0.59692
G1 X150.251 Y114.086 E0.65965
G1 X150.3 Y121.112 E0.89334
G1 X149.843 Y122.978 E0.95724
G1 X148.781 Y125.027 E1.034
G1 X147.207 Y126.498 E1.10566
G1 X145.492 Y127.487 E1.1715
G1 X144.783 Y127.764 E1.19682
G1 X142.871 Y128.027 E1.26101
G1 X140.672 Y128.063 E1.33416
G1 X138.745 Y127.588 E1.40017
G1 X136.728 Y126.536 E1.47583
G1 X135.252 Y124.958 E1.5477
G1 X134.213 Y123.214 E1.61522
G1 X134.03 Y122.779 E1.63092
G1 X133.749 Y120.914 E1.69365
G1 X133.7 Y113.888 E1.92734
G1 X134.157 Y112.022 E1.99123
G1 X135.218 Y109.973 E2.06798
G0 F6000 X135.542 Y110.218
G1 F1200 X137.028 Y108.829 E2.13563
G1 X138.584 Y107.921 E2.19555
G1 X139.321 Y107.626 E2.22196
G1 X141.249 Y107.365 E2.28667
G1 X143.29 Y107.338 E2.35456
G1 X145.11 Y107.788 E2.41691
G1 X147.028 Y108.788 E2.48886
G1 X148.424 Y110.281 E2.55684
G1 X149.443 Y111.991 E2.62305
G1 X149.581 Y112.328 E2.63516
G1 X149.855 Y114.146 E2.69631
G1 X149.9 Y121.063 E2.92637
G1 X149.465 Y122.839 E2.98719
G1 X148.458 Y124.782 E3.05998
G1 X146.969 Y126.173 E3.12775
G1 X145.346 Y127.114 E3.19015
G1 X144.678 Y127.375 E3.214
G1 X142.864 Y127.627 E3.27491
G1 X140.716 Y127.662 E3.34637
G1 X138.89 Y127.212 E3.40892
G1 X136.972 Y126.212 E3.48086
G1 X135.576 Y124.719 E3.54884
G1 X134.557 Y123.009 E3.61505
G1 X134.419 Y122.672 E3.62716
G1 X134.145 Y120.854 E3.68831
G1 X134.1 Y113.937 E3.91838
G1 X134.535 Y112.161 E3.97919
G1 X135.542 Y110.218 E4.05198
G0 F6000 X135.865 Y110.463
G1 F1200 X137.268 Y109.152 E4.11585
G1 X138.733 Y108.292 E4.17235
G1 X139.424 Y108.015 E4.19711
G1 X141.254 Y107.765 E4.25854
G1 X143.245 Y107.739 E4.32477
G1 X144.965 Y108.164 E4.3837
G1 X146.784 Y109.112 E4.45192
G1 X148.1 Y110.52 E4.51602
G1 X149.099 Y112.196 E4.58092
G1 X149.194 Y112.439 E4.58959
G1 X149.455 Y114.149 E4.64713
G1 X149.5 Y121.014 E4.87546
G1 X149.087 Y122.7 E4.9332
G1 X148.135 Y124.537 E5.00201
G1 X146.731 Y125.849 E5.06593
G1 X145.201 Y126.741 E5.12483
G1 X144.575 Y126.985 E5.14718
G1 X142.858 Y127.227 E5.20485
G1 X140.76 Y127.261 E5.27464
G1 X139.035 Y126.836 E5.33373
G1 X137.216 Y125.888 E5.40195
G1 X135.9 Y124.48 E5.46605
G1 X134.901 Y122.804 E5.53095
G1 X134.806 Y122.561 E5.53963
G1 X134.545 Y120.851 E5.59716
G1 X134.5 Y113.986 E5.82549
G1 X134.913 Y112.3 E5.88323
G1 X135.865 Y110.463 E5.95205
G0 F6000 X136.188 Y110.708
G1 F1200 X137.51 Y109.473 E6.01222
G1 X138.882 Y108.663 E6.06521
G1 X139.527 Y108.404 E6.08833
G1 X141.259 Y108.165 E6.14648
G1 X143.2 Y108.14 E6.21104
G1 X144.82 Y108.54 E6.26654
G1 X146.54 Y109.436 E6.33105
G1 X147.776 Y110.759 E6.39126
G1 X148.755 Y112.401 E6.45485
G1 X148.806 Y112.544 E6.4599
G1 X149.055 Y114.152 E6.51402
G1 X149.1 Y120.965 E6.74062
G1 X148.709 Y122.561 E6.79528
G1 X147.812 Y124.292 E6.86012
G1 X146.491 Y125.526 E6.92025
G1 X145.056 Y126.368 E6.97558
G1 X144.473 Y126.595 E6.99639
G1 X142.852 Y126.827 E7.05086
G1 X140.804 Y126.86 E7.11898
G1 X139.18 Y126.46 E7.17461
G1 X137.46 Y125.564 E7.23911
G1 X136.224 Y124.241 E7.29933
G1 X135.245 Y122.599 E7.36292
G1 X135.194 Y122.456 E7.36797
G1 X134.945 Y120.848 E7.42209
G1 X134.9 Y114.035 E7.64869
G1 X135.291 Y112.439 E7.70335
G1 X136.188 Y110.708 E7.76819
G0 F6000 X136.511 Y110.953
G1 F1200 X137.75 Y109.796 E7.82457
G1 X139.031 Y109.034 E7.87415
G1 X139.63 Y108.794 E7.89561
G1 X141.264 Y108.565 E7.95049
G1 X143.155 Y108.541 E8.01339
G1 X144.675 Y108.916 E8.06546
G1 X146.296 Y109.76 E8.12624
G1 X147.452 Y110.998 E8.18258
G1 X148.411 Y112.606 E8.24485
G1 X148.655 Y114.155 E8.29701
G1 X148.7 Y120.916 E8.52188
G1 X148.331 Y122.422 E8.57345
G1 X147.489 Y124.047 E8.63433
G1 X146.249 Y125.205 E8.69076
G1 X144.911 Y125.995 E8.74244
G1 X144.37 Y126.206 E8.76175
G1 X142.846 Y126.427 E8.81297
G1 X140.848 Y126.459 E8.87943
G1 X139.325 Y126.084 E8.9316
G1 X137.704 Y125.24 E8.99239
G1 X136.548 Y124.002 E9.04872
G1 X135.589 Y122.394 E9.11099
G1 X135.345 Y120.845 E9.16315
G1 X135.3 Y114.084 E9.38803
G1 X135.669 Y112.578 E9.4396
G1 X136.511 Y110.953 E9.50047
G0 F6000 X136.834 Y111.198
G1 F1200 X137.991 Y110.118 E9.55311
G1 X139.235 Y109.378 E9.60125
G1 X139.735 Y109.183 E9.6191
G1 X141.269 Y108.965 E9.67064
G1 X143.11 Y108.942 E9.73187
G1 X144.53 Y109.292 E9.78052
G1 X146.052 Y110.084 E9.83758
G1 X147.128 Y111.237 E9.89004
G1 X148.028 Y112.746 E9.94847
G1 X148.255 Y114.158 E9.99604
G1 X148.3 Y120.867 E10.21919
G1 X147.953 Y122.283 E10.26768
G1 X147.166 Y123.802 E10.32458
G1 X146.009 Y124.882 E10.37722
G1 X144.765 Y125.622 E10.42536
G1 X144.266 Y125.817 E10.44318
G1 X142.84 Y126.027 E10.49112
G1 X140.892 Y126.058 E10.55592
G1 X139.47 Y125.708 E10.60463
G1 X137.948 Y124.916 E10.66169
G1 X136.872 Y123.763 E10.71415
G1 X135.972 Y122.254 E10.77259
G1 X135.745 Y120.842 E10.82015
G1 X135.7 Y114.133 E11.0433
G1 X136.047 Y112.717 E11.09179
G1 X136.834 Y111.198 E11.14869
G0 F6000 X137.157 Y111.443
G1 F1200 X138.232 Y110.44 E11.19759
G1 X139.439 Y109.722 E11.2443
G1 X139.835 Y109.573 E11.25837
G1 X141.274 Y109.365 E11.30673
G1 X143.065 Y109.343 E11.36631
G1 X144.387 Y109.669 E11.41159
G1 X145.807 Y110.407 E11.46482
G1 X146.807 Y111.479 E11.51358
G1 X147.645 Y112.883 E11.56796
G1 X147.855 Y114.161 E11.61104
G1 X147.9 Y120.818 E11.83246
G1 X147.575 Y122.144 E11.87787
G1 X146.843 Y123.557 E11.93079
G1 X145.768 Y124.56 E11.9797
G1 X144.561 Y125.278 E12.02641
G1 X144.166 Y125.427 E12.04045
G1 X142.834 Y125.627 E12.08525
G1 X140.936 Y125.657 E12.14838
G1 X139.613 Y125.331 E12.1937
G1 X138.193 Y124.593 E12.24693
G1 X137.193 Y123.521 E12.29569
G1 X136.355 Y122.117 E12.35007
G1 X136.145 Y120.839 E12.39315
G1 X136.1 Y114.182 E12.61457
G1 X136.425 Y112.856 E12.65997
G1 X137.157 Y111.443 E12.7129
G0 F6000 X137.479 Y111.69
G1 F1200 X138.474 Y110.762 E12.75816
G1 X139.644 Y110.066 E12.80343
G1 X139.934 Y109.963 E12.81367
G1 X141.279 Y109.765 E12.85889
G1 X143.02 Y109.744 E12.9168
G1 X144.244 Y110.046 E12.95873
G1 X145.56 Y110.729 E13.00804
G1 X146.488 Y111.724 E13.0533
G1 X147.262 Y113.021 E13.10353
G1 X147.46 Y114.226 E13.14415
G1 X147.5 Y120.773 E13.36191
G1 X147.199 Y122.001 E13.40396
G1 X146.521 Y123.31 E13.45299
G1 X145.526 Y124.238 E13.49824
G1 X144.356 Y124.934 E13.54352
G1 X144.066 Y125.037 E13.55376
G1 X142.775 Y125.231 E13.59718
G1 X140.98 Y125.256 E13.65689
G1 X139.756 Y124.954 E13.69882
G1 X138.44 Y124.271 E13.74813
G1 X137.512 Y123.276 E13.79339
G1 X136.738 Y121.979 E13.84362
G1 X136.54 Y120.774 E13.88424
G1 X136.5 Y114.227 E14.102
G1 X136.801 Y112.999 E14.14405
G1 X137.479 Y111.69 E14.19308
G0 F6000 X137.801 Y111.937
G1 F1200 X138.716 Y111.084 E14.23469
G1 X139.849 Y110.41 E14.27853
G1 X139.993 Y110.359 E14.28361
G1 X141.284 Y110.165 E14.32704
G1 X142.975 Y110.145 E14.38328
G1 X144.102 Y110.423 E14.42189
G1 X145.313 Y111.051 E14.46726
G1 X146.166 Y111.966 E14.50887
G1 X146.879 Y113.161 E14.55515
G1 X147.065 Y114.291 E14.59324
G1 X147.1 Y120.728 E14.80734
G1 X146.823 Y121.858 E14.84604
G1 X146.199 Y123.063 E14.89117
G1 X145.284 Y123.916 E14.93278
G1 X144.151 Y124.59 E14.97662
G1 X144.007 Y124.641 E14.9817
G1 X142.716 Y124.835 E15.02512
G1 X141.025 Y124.855 E15.08137
G1 X139.898 Y124.577 E15.11998
G1 X138.687 Y123.949 E15.16535
G1 X137.834 Y123.034 E15.20696
G1 X137.121 Y121.839 E15.25324
G1 X136.935 Y120.709 E15.29133
G1 X136.9 Y114.272 E15.50543
G1 X137.177 Y113.142 E15.54413
G1 X137.801 Y111.937 E15.58926
G0 F6000 X138.123 Y112.184
G1 F1200 X138.958 Y111.406 E15.62722
G1 X140.054 Y110.754 E15.66963
G1 X141.289 Y110.565 E15.71119
G1 X142.93 Y110.546 E15.76577
G1 X143.96 Y110.8 E15.80106
G1 X145.066 Y111.373 E15.84248
G1 X145.844 Y112.208 E15.88044
G1 X146.496 Y113.301 E15.92277
G1 X146.67 Y114.356 E15.95834
G1 X146.7 Y120.683 E16.16878
G1 X146.447 Y121.715 E16.20412
G1 X145.877 Y122.816 E16.24535
G1 X145.042 Y123.594 E16.28331
G1 X143.946 Y124.246 E16.32573
G1 X142.711 Y124.435 E16.36728
G1 X141.07 Y124.454 E16.42187
G1 X140.04 Y124.2 E16.45715
G1 X138.934 Y123.627 E16.49858
G1 X138.156 Y122.792 E16.53654
G1 X137.504 Y121.699 E16.57887
G1 X137.33 Y120.644 E16.61443
G1 X137.3 Y114.317 E16.82487
G1 X137.553 Y113.285 E16.86021
G1 X138.123 Y112.184 E16.90145
G0 F6000 X138.445 Y112.431
G1 F1200 X139.2 Y111.728 E16.93576
G1 X140.193 Y111.137 E16.97419
G1 X141.294 Y110.965 E17.01126
G1 X142.885 Y110.947 E17.06418
G1 X143.818 Y111.177 E17.09614
G1 X144.819 Y111.695 E17.13363
G1 X145.522 Y112.45 E17.16794
G1 X146.113 Y113.441 E17.20631
G1 X146.275 Y114.421 E17.23935
G1 X146.3 Y120.638 E17.44613
G1 X146.071 Y121.572 E17.47812
G1 X145.555 Y122.569 E17.51546
G1 X144.8 Y123.272 E17.54977
G1 X143.807 Y123.863 E17.5882
G1 X142.706 Y124.035 E17.62526
G1 X141.115 Y124.053 E17.67819
G1 X140.182 Y123.823 E17.71015
G1 X139.181 Y123.305 E17.74763
G1 X138.478 Y122.55 E17.78194
G1 X137.887 Y121.559 E17.82032
G1 X137.725 Y120.579 E17.85336
G1 X137.7 Y114.362 E18.06014
G1 X137.929 Y113.428 E18.09212
G1 X138.445 Y112.431 E18.12946
G0 F6000 X138.768 Y112.676
G1 F1200 X139.439 Y112.052 E18.15994
G1 X140.332 Y111.52 E18.19451
G1 X141.298 Y111.365 E18.22705
G1 X142.841 Y111.348 E18.27837
G1 X143.675 Y111.553 E18.30694
G1 X144.574 Y112.018 E18.3406
G1 X145.198 Y112.689 E18.37108
G1 X145.73 Y113.581 E18.40562
G1 X145.88 Y114.486 E18.43614
G1 X145.9 Y120.593 E18.63926
G1 X145.695 Y121.429 E18.66789
G1 X145.232 Y122.324 E18.7014
G1 X144.561 Y122.948 E18.73188
G1 X143.668 Y123.48 E18.76645
G1 X142.702 Y123.635 E18.79899
G1 X141.159 Y123.652 E18.85031
G1 X140.325 Y123.447 E18.87888
G1 X139.426 Y122.982 E18.91254
G1 X138.802 Y122.311 E18.94302
G1 X138.27 Y121.419 E18.97756
G1 X138.12 Y120.514 E19.00807
G1 X138.1 Y114.407 E19.21119
G1 X138.305 Y113.571 E19.23982
G1 X138.768 Y112.676 E19.27334
G0 F6000 X139.091 Y112.921
G1 F1200 X139.678 Y112.376 E19.29998
G1 X140.471 Y111.903 E19.33069
G1 X141.302 Y111.765 E19.35871
G1 X142.793 Y111.749 E19.4083
G1 X143.536 Y111.931 E19.43374
G1 X144.329 Y112.341 E19.46344
G1 X144.874 Y112.928 E19.49008
G1 X145.347 Y113.721 E19.52079
G1 X145.485 Y114.552 E19.54881
G1 X145.5 Y120.548 E19.74823
G1 X145.319 Y121.286 E19.77351
G1 X144.909 Y122.079 E19.8032
G1 X144.322 Y122.624 E19.82984
G1 X143.529 Y123.097 E19.86055
G1 X142.698 Y123.235 E19.88857
G1 X141.207 Y123.251 E19.93816
G1 X140.464 Y123.069 E19.96361
G1 X139.671 Y122.659 E19.9933
G1 X139.126 Y122.072 E20.01994
G1 X138.653 Y121.279 E20.05065
G1 X138.515 Y120.448 E20.07867
G1 X138.5 Y114.452 E20.2781
G1 X138.681 Y113.714 E20.30337
G1 X139.091 Y112.921 E20.33306
G0 F6000 X139.414 Y113.166
G1 F1200 X139.917 Y112.7 E20.35587
G1 X140.611 Y112.286 E20.38275
G1 X141.368 Y112.16 E20.40827
G1 X142.745 Y112.15 E20.45407
G1 X143.397 Y112.309 E20.47639
G1 X144.084 Y112.664 E20.50211
G1 X144.55 Y113.167 E20.52492
G1 X144.964 Y113.861 E20.55179
G1 X145.09 Y114.618 E20.57732
G1 X145.1 Y120.498 E20.77289
G1 X144.941 Y121.147 E20.79511
G1 X144.586 Y121.834 E20.82083
G1 X144.083 Y122.3 E20.84364
G1 X143.389 Y122.714 E20.87052
G1 X142.632 Y122.84 E20.89604
G1 X141.255 Y122.85 E20.94184
G1 X140.603 Y122.691 E20.96416
G1 X139.916 Y122.336 E20.98988
G1 X139.45 Y121.833 E21.01269
G1 X139.036 Y121.139 E21.03957
G1 X138.91 Y120.382 E21.06509
G1 X138.9 Y114.502 E21.26066
G1 X139.059 Y113.853 E21.28289
G1 X139.414 Y113.166 E21.30861
G0 F6000 X139.737 Y113.412
G1 F1200 X140.156 Y113.024 E21.3276
G1 X140.751 Y112.669 E21.35064
G1 X141.434 Y112.555 E21.37367
G1 X142.697 Y112.55 E21.41568
G1 X143.258 Y112.687 E21.43489
G1 X143.838 Y112.987 E21.45661
G1 X144.226 Y113.406 E21.4756
G1 X144.581 Y114.001 E21.49865
G1 X144.695 Y114.684 E21.52168
G1 X144.7 Y120.448 E21.71339
G1 X144.563 Y121.008 E21.73256
G1 X144.263 Y121.588 E21.75428
G1 X143.844 Y121.976 E21.77328
G1 X143.249 Y122.331 E21.79632
G1 X142.566 Y122.445 E21.81935
G1 X141.303 Y122.45 E21.86136
G1 X140.742 Y122.313 E21.88057
G1 X140.162 Y122.013 E21.90228
G1 X139.774 Y121.594 E21.92128
G1 X139.419 Y120.999 E21.94432
G1 X139.305 Y120.316 E21.96735
G1 X139.3 Y114.552 E22.15906
G1 X139.437 Y113.992 E22.17824
G1 X139.737 Y113.412 E22.19996
G0 F6000 X140.06 Y113.658
G1 F1200 X140.398 Y113.345 E22.21528
G1 X140.889 Y113.052 E22.2343
G1 X141.5 Y112.95 E22.2549
G1 X142.648 Y112.95 E22.29308
G1 X143.119 Y113.065 E22.30921
G1 X143.592 Y113.31 E22.32693
G1 X143.905 Y113.648 E22.34225
G1 X144.198 Y114.139 E22.36127
G1 X144.3 Y114.75 E22.38187
G1 X144.3 Y120.398 E22.56972
G1 X144.185 Y120.869 E22.58585
G1 X143.94 Y121.342 E22.60356
G1 X143.602 Y121.655 E22.61889
G1 X143.111 Y121.948 E22.6379
G1 X142.5 Y122.05 E22.65851
G1 X141.352 Y122.05 E22.69669
G1 X140.881 Y121.935 E22.71282
G1 X140.408 Y121.69 E22.73053
G1 X140.095 Y121.352 E22.74585
G1 X139.802 Y120.861 E22.76487
G1 X139.7 Y120.25 E22.78547
G1 X139.7 Y114.602 E22.97333
G1 X139.815 Y114.131 E22.98945
G1 X140.06 Y113.658 E23.00717
G0 F6000 X140.383 Y113.904
G1 F1200 X140.64 Y113.666 E23.01882
G1 X141.027 Y113.435 E23.03381
G1 X141.5 Y113.35 E23.0498
G1 X142.598 Y113.35 E23.08632
G1 X142.98 Y113.443 E23.09939
G1 X143.346 Y113.633 E23.11311
G1 X143.584 Y113.89 E23.12476
G1 X143.815 Y114.277 E23.13975
G1 X143.9 Y114.75 E23.15573
G1 X143.9 Y120.348 E23.34192
G1 X143.807 Y120.73 E23.355
G1 X143.617 Y121.096 E23.36871
G1 X143.36 Y121.334 E23.38036
G1 X142.973 Y121.565 E23.39536
G1 X142.5 Y121.65 E23.41134
G1 X141.402 Y121.65 E23.44786
G1 X141.02 Y121.557 E23.46094
G1 X140.654 Y121.367 E23.47465
G1 X140.416 Y121.11 E23.4863
G1 X140.185 Y120.723 E23.50129
G1 X140.1 Y120.25 E23.51728
G1 X140.1 Y114.652 E23.70347
G1 X140.193 Y114.27 E23.71654
G1 X140.383 Y113.904 E23.73026
G0 F6000 X140.707 Y114.149
G1 F1200 X140.845 Y114.01 E23.73677
G1 X141.172 Y113.815 E23.74944
G1 X141.5 Y113.75 E23.76056
G1 X142.549 Y113.75 E23.79545
G1 X142.838 Y113.82 E23.80534
G1 X143.101 Y113.957 E23.8152
G1 X143.24 Y114.095 E23.82172
G1 X143.435 Y114.422 E23.83438
G1 X143.5 Y114.75 E23.8455
G1 X143.5 Y120.299 E24.03006
G1 X143.43 Y120.588 E24.03995
G1 X143.293 Y120.851 E24.04981
G1 X143.155 Y120.99 E24.05633
G1 X142.828 Y121.185 E24.06899
G1 X142.5 Y121.25 E24.08011
G1 X141.451 Y121.25 E24.115
G1 X141.162 Y121.18 E24.12489
G1 X140.899 Y121.043 E24.13476
G1 X140.76 Y120.905 E24.14127
G1 X140.565 Y120.578 E24.15393
G1 X140.5 Y120.25 E24.16505
G1 X140.5 Y114.701 E24.34962
G1 X140.57 Y114.412 E24.35951
G1 X140.707 Y114.149 E24.36937
G0 F6000 X141.339 Y114.631
G1 F1200 X141.5 Y114.55 E24.37536
G1 X142.5 Y114.55 E24.40862
G1 X142.619 Y114.589 E24.41279
G1 X142.7 Y114.75 E24.41878
G1 X142.7 Y120.25 E24.60171
G1 X142.661 Y120.369 E24.60588
G1 X142.5 Y120.45 E24.61187
G1 X141.5 Y120.45 E24.64513
G1 X141.381 Y120.411 E24.6493
G1 X141.3 Y120.25 E24.65529
G1 X141.3 Y114.75 E24.83822
G1 X141.339 Y114.631 E24.84239
G0 F6000 X140.959 Y114.506
G1 F1200 X141.05 Y114.354 E24.84828
G1 X141.32 Y114.193 E24.85874
G1 X141.5 Y114.15 E24.86489
G1 X142.5 Y114.15 E24.89815
G1 X142.744 Y114.209 E24.9065
G1 X142.896 Y114.3 E24.91239
G1 X143.057 Y114.57 E24.92285
G1 X143.1 Y114.75 E24.929
G1 X143.1 Y120.25 E25.11193
G1 X143.041 Y120.494 E25.12028
