;FLAVOR:Marlin
;TIME:4633
;Filament used: 2.94388m
;Layer height: 0.2
;MINX:73.221
;MINY:77.596
;MINZ:0.2
;MAXX:146.779
;MAXY:142.404
;MAXZ:5.2
;TARGET_MACHINE.NAME:Creality Ender-3
;Generated with Cura_SteamEngine 5.10.2
M140 S90
M105
M190 S90
M104 S245
M105
M109 S245
; Ender 3 Custom Start G-code
G92 E0 ; Reset Extruder
G28 ; Home all axes
G1 Z2.0 F3000 ; Move Z Axis up little to prevent scratching of Heat Bed
G1 X0.1 Y20 Z0.3 F5000.0 ; Move to start position
G1 X0.1 Y200.0 Z0.3 F1500.0 E15 ; Draw the first line
G1 X0.4 Y200.0 Z0.3 F5000.0 ; Move to side a little
G1 X0.4 Y20 Z0.3 F1500.0 E30 ; Draw the second line
G92 E0 ; Reset Extruder
G1 Z2.0 F3000 ; Move Z Axis up little to prevent scratching of Heat Bed
G1 X5 Y20 Z0.3 F5000.0 ; Move over to prevent blob squish
M82 ;absolute extrusion mode
G92 E0
G92 E0
G1 F2700 E-5
;LAYER_COUNT:26
;LAYER:0
M107
G0 F6000 X77.024 Y80.96 Z0.2
;TYPE:SKIRT
G1 F2700 E0
G1 F1200 X78.657 Y79.649 E0.06965
G1 X79.118 Y79.356 E0.08782
G1 X80.841 Y78.493 E0.15191
G1 X81.713 Y78.173 E0.18281
G1 X83.219 Y77.791 E0.23448
G1 X84.27 Y77.652 E0.26974
G1 X88.552 Y77.609 E0.41217
G1 X89.898 Y77.921 E0.45813
G1 X90.606 Y78.023 E0.48192
G1 X91.444 Y78.342 E0.51174
G1 X128.49 Y78.336 E1.7439
G1 X128.995 Y78.111 E1.76228
G1 X129.886 Y77.952 E1.79239
G1 X130.263 Y77.861 E1.80529
G1 X130.385 Y77.841 E1.8094
G1 X131.235 Y77.596 E1.83882
G1 X136.027 Y77.68 E1.99823
G1 X137.139 Y77.865 E2.03572
G1 X138.698 Y78.317 E2.08971
G1 X139.491 Y78.637 E2.11815
G1 X140.984 Y79.429 E2.17436
G1 X141.444 Y79.73 E2.19265
G1 X143.03 Y81.011 E2.26045
G1 X143.415 Y81.399 E2.27863
G1 X144.726 Y83.034 E2.34834
G1 X145.055 Y83.557 E2.36889
G1 X145.704 Y84.822 E2.41618
G1 X146.308 Y86.456 E2.47412
G1 X146.592 Y87.628 E2.51423
G1 X146.719 Y88.588 E2.54643
G1 X146.774 Y93.009 E2.69349
G1 X146.53 Y93.963 E2.72624
G1 X146.453 Y94.377 E2.74025
G1 X146.146 Y95.49 E2.77865
G1 X146.033 Y95.794 E2.78943
G1 X146.039 Y124.262 E3.73628
G1 X146.347 Y125.179 E3.76846
G1 X146.517 Y125.907 E3.79332
G1 X146.543 Y126.061 E3.79852
G1 X146.779 Y126.881 E3.8269
G1 X146.695 Y131.644 E3.98534
G1 X146.484 Y132.907 E4.02793
G1 X146.217 Y133.861 E4.06088
G1 X145.57 Y135.472 E4.11862
G1 X145.001 Y136.522 E4.15834
G1 X144.672 Y137.032 E4.17853
G1 X143.364 Y138.655 E4.24786
G1 X142.976 Y139.04 E4.26604
G1 X141.343 Y140.351 E4.33569
G1 X140.882 Y140.644 E4.35386
G1 X139.159 Y141.507 E4.41795
G1 X138.287 Y141.827 E4.44884
G1 X136.781 Y142.209 E4.50052
G1 X135.73 Y142.348 E4.53578
G1 X131.448 Y142.391 E4.67821
G1 X130.102 Y142.079 E4.72416
G1 X129.394 Y141.977 E4.74795
G1 X128.556 Y141.658 E4.77778
G1 X91.509 Y141.664 E6.00997
G1 X91.004 Y141.89 E6.02837
G1 X90.131 Y142.045 E6.05786
G1 X89.831 Y142.118 E6.06813
G1 X89.616 Y142.155 E6.07538
G1 X88.758 Y142.404 E6.1051
G1 X83.973 Y142.32 E6.26427
G1 X82.861 Y142.135 E6.30177
G1 X81.302 Y141.683 E6.35575
G1 X80.509 Y141.363 E6.38419
G1 X79.016 Y140.571 E6.44041
G1 X78.556 Y140.27 E6.45869
G1 X76.97 Y138.989 E6.5265
G1 X76.585 Y138.601 E6.54468
G1 X75.274 Y136.968 E6.61433
G1 X74.981 Y136.507 E6.6325
G1 X74.118 Y134.784 E6.69659
G1 X73.798 Y133.912 E6.72749
G1 X73.416 Y132.405 E6.77919
G1 X73.277 Y131.354 E6.81445
G1 X73.234 Y127.013 E6.95884
G1 X73.448 Y126.139 E6.98877
G1 X73.495 Y125.857 E6.99828
G1 X73.883 Y124.419 E7.04782
G1 X73.967 Y124.192 E7.05587
G1 X73.962 Y95.772 E8.00112
G1 X73.763 Y95.204 E8.02114
G1 X73.478 Y94.027 E8.06142
G1 X73.221 Y93.158 E8.09156
G1 X73.305 Y88.348 E8.25156
G1 X73.49 Y87.236 E8.28906
G1 X73.942 Y85.677 E8.34305
G1 X74.262 Y84.884 E8.37149
G1 X75.054 Y83.391 E8.4277
G1 X75.355 Y82.931 E8.44598
G1 X76.636 Y81.345 E8.51379
G1 X77.024 Y80.96 E8.53197
G0 F6000 X77.306 Y81.244
G1 F1200 X78.872 Y79.987 E8.59876
G1 X79.333 Y79.694 E8.61693
G1 X80.979 Y78.869 E8.67817
G1 X81.851 Y78.549 E8.70906
G1 X83.271 Y78.188 E8.75779
G1 X84.322 Y78.049 E8.79305
G1 X88.507 Y78.009 E8.93225
G1 X89.822 Y78.314 E8.97715
G1 X90.505 Y78.413 E9.00011
G1 X91.37 Y78.742 E9.03089
G1 X128.575 Y78.736 E10.26833
G1 X129.113 Y78.497 E10.28791
G1 X129.966 Y78.344 E10.31673
G1 X130.329 Y78.256 E10.32916
G1 X130.467 Y78.233 E10.33381
G1 X131.287 Y77.997 E10.36219
G1 X135.961 Y78.075 E10.51767
G1 X137.073 Y78.26 E10.55516
G1 X138.548 Y78.688 E10.60625
G1 X139.341 Y79.008 E10.63469
G1 X140.766 Y79.764 E10.68834
G1 X141.193 Y80.042 E10.70529
G1 X142.746 Y81.293 E10.77161
G1 X143.131 Y81.681 E10.78979
G1 X144.388 Y83.247 E10.85658
G1 X144.699 Y83.74 E10.87597
G1 X145.348 Y85.005 E10.92326
G1 X145.919 Y86.551 E10.97807
G1 X146.195 Y87.68 E11.01673
G1 X146.322 Y88.64 E11.04894
G1 X146.373 Y92.96 E11.19263
G1 X146.142 Y93.864 E11.22366
G1 X146.067 Y94.271 E11.23743
G1 X145.771 Y95.351 E11.27468
G1 X145.633 Y95.722 E11.28784
G1 X145.639 Y124.328 E12.23928
G1 X145.957 Y125.27 E12.27235
G1 X146.127 Y125.998 E12.29721
G1 X146.151 Y126.144 E12.30213
G1 X146.378 Y126.933 E12.32944
G1 X146.3 Y131.578 E12.48396
G1 X146.089 Y132.841 E12.52655
G1 X145.846 Y133.712 E12.55662
G1 X145.218 Y135.281 E12.61283
G1 X144.649 Y136.331 E12.65255
G1 X144.336 Y136.815 E12.67172
G1 X143.082 Y138.371 E12.73819
G1 X142.694 Y138.756 E12.75637
G1 X141.128 Y140.013 E12.82316
G1 X140.667 Y140.306 E12.84133
G1 X139.021 Y141.131 E12.90257
G1 X138.149 Y141.451 E12.93346
G1 X136.729 Y141.812 E12.98219
G1 X135.678 Y141.951 E13.01745
G1 X131.493 Y141.991 E13.15665
G1 X130.178 Y141.686 E13.20155
G1 X129.495 Y141.587 E13.2245
G1 X128.63 Y141.258 E13.25529
G1 X91.424 Y141.264 E14.49276
G1 X90.887 Y141.504 E14.51233
G1 X90.044 Y141.654 E14.5408
G1 X89.736 Y141.729 E14.55135
G1 X89.527 Y141.765 E14.5584
G1 X88.706 Y142.003 E14.58683
G1 X84.039 Y141.925 E14.74208
G1 X82.927 Y141.74 E14.77957
G1 X81.452 Y141.312 E14.83065
G1 X80.659 Y140.992 E14.8591
G1 X79.234 Y140.236 E14.91275
G1 X78.807 Y139.958 E14.9297
G1 X77.254 Y138.707 E14.99602
G1 X76.869 Y138.319 E15.0142
G1 X75.612 Y136.753 E15.08099
G1 X75.319 Y136.292 E15.09916
G1 X74.494 Y134.646 E15.1604
G1 X74.174 Y133.774 E15.19129
G1 X73.813 Y132.353 E15.24006
G1 X73.674 Y131.302 E15.27532
G1 X73.634 Y127.058 E15.41648
G1 X73.842 Y126.212 E15.44546
G1 X73.89 Y125.922 E15.45523
G1 X74.258 Y124.558 E15.50222
G1 X74.367 Y124.264 E15.51265
G1 X74.362 Y95.703 E16.46259
G1 X74.141 Y95.072 E16.48483
G1 X73.862 Y93.913 E16.52448
G1 X73.622 Y93.102 E16.55261
G1 X73.7 Y88.414 E16.70855
G1 X73.885 Y87.302 E16.74605
G1 X74.313 Y85.827 E16.79713
G1 X74.633 Y85.034 E16.82557
G1 X75.389 Y83.609 E16.87922
G1 X75.667 Y83.182 E16.89617
G1 X76.918 Y81.629 E16.9625
G1 X77.306 Y81.244 E16.98068
G0 F6000 X77.588 Y81.528
G1 F1200 X79.087 Y80.325 E17.04461
G1 X79.548 Y80.032 E17.06277
G1 X81.117 Y79.245 E17.12116
G1 X81.989 Y78.925 E17.15205
G1 X83.323 Y78.585 E17.19784
G1 X84.374 Y78.446 E17.2331
G1 X88.461 Y78.409 E17.36904
G1 X89.743 Y78.707 E17.41281
G1 X90.404 Y78.803 E17.43503
G1 X91.296 Y79.142 E17.46677
G1 X128.66 Y79.136 E18.7095
G1 X129.231 Y78.883 E18.73027
G1 X130.05 Y78.736 E18.75795
G1 X130.424 Y78.645 E18.77075
G1 X130.555 Y78.623 E18.77517
G1 X131.338 Y78.398 E18.80226
G1 X135.895 Y78.47 E18.95385
G1 X137.007 Y78.655 E18.99134
G1 X138.398 Y79.059 E19.03952
G1 X139.191 Y79.379 E19.06796
G1 X140.549 Y80.1 E19.1191
G1 X140.942 Y80.354 E19.13466
G1 X142.462 Y81.575 E19.19951
G1 X142.847 Y81.963 E19.21769
G1 X144.05 Y83.462 E19.28162
G1 X144.343 Y83.923 E19.29979
G1 X144.992 Y85.188 E19.34707
G1 X145.53 Y86.646 E19.39876
G1 X145.806 Y87.775 E19.43742
G1 X145.922 Y88.645 E19.46661
G1 X145.972 Y92.911 E19.60851
G1 X145.751 Y93.778 E19.63827
G1 X145.681 Y94.166 E19.65138
G1 X145.396 Y95.211 E19.68741
G1 X145.233 Y95.649 E19.70295
G1 X145.239 Y124.394 E20.65901
G1 X145.567 Y125.361 E20.69298
G1 X145.737 Y126.089 E20.71784
G1 X145.761 Y126.232 E20.72266
G1 X145.977 Y126.984 E20.74869
G1 X145.905 Y131.512 E20.89931
G1 X145.694 Y132.775 E20.9419
G1 X145.474 Y133.564 E20.96914
G1 X144.866 Y135.091 E21.02381
G1 X144.313 Y136.114 E21.06248
G1 X144 Y136.598 E21.08166
G1 X142.8 Y138.087 E21.14526
G1 X142.412 Y138.472 E21.16344
G1 X140.913 Y139.675 E21.22737
G1 X140.452 Y139.968 E21.24554
G1 X138.883 Y140.755 E21.30392
G1 X138.011 Y141.075 E21.33481
G1 X136.677 Y141.415 E21.3806
G1 X135.626 Y141.554 E21.41586
G1 X131.539 Y141.591 E21.5518
G1 X130.257 Y141.293 E21.59558
G1 X129.596 Y141.197 E21.61779
G1 X128.704 Y140.858 E21.64953
G1 X91.339 Y140.864 E22.8923
G1 X90.77 Y141.118 E22.91302
G1 X89.957 Y141.263 E22.94049
G1 X89.641 Y141.34 E22.9513
G1 X89.435 Y141.375 E22.95825
G1 X88.653 Y141.602 E22.98534
G1 X84.105 Y141.53 E23.13662
G1 X82.993 Y141.345 E23.17412
G1 X81.602 Y140.941 E23.22229
G1 X80.809 Y140.621 E23.25074
G1 X79.451 Y139.9 E23.30187
G1 X79.058 Y139.646 E23.31744
G1 X77.538 Y138.425 E23.38228
G1 X77.153 Y138.037 E23.40046
G1 X75.95 Y136.538 E23.46439
G1 X75.657 Y136.077 E23.48256
G1 X74.87 Y134.508 E23.54094
G1 X74.55 Y133.636 E23.57184
G1 X74.21 Y132.301 E23.61766
G1 X74.071 Y131.25 E23.65292
G1 X74.034 Y127.103 E23.79085
G1 X74.236 Y126.283 E23.81894
G1 X74.285 Y125.988 E23.82889
G1 X74.633 Y124.697 E23.87336
G1 X74.767 Y124.336 E23.88616
G1 X74.762 Y95.634 E24.8408
G1 X74.519 Y94.94 E24.86525
G1 X74.246 Y93.799 E24.90427
G1 X74.023 Y93.046 E24.93039
G1 X74.095 Y88.48 E25.08228
G1 X74.28 Y87.368 E25.11977
G1 X74.684 Y85.977 E25.16795
G1 X75.004 Y85.184 E25.19639
G1 X75.725 Y83.826 E25.24753
G1 X75.979 Y83.433 E25.26309
G1 X77.2 Y81.913 E25.32794
G1 X77.588 Y81.528 E25.34612
G0 F6000 X77.87 Y81.812
G1 F1200 X79.302 Y80.663 E25.40719
G1 X79.763 Y80.37 E25.42535
G1 X81.255 Y79.621 E25.48088
G1 X82.127 Y79.301 E25.51177
G1 X83.375 Y78.982 E25.55462
G1 X84.426 Y78.843 E25.58988
G1 X88.415 Y78.809 E25.72256
G1 X89.666 Y79.1 E25.76528
G1 X90.304 Y79.193 E25.78672
G1 X91.222 Y79.542 E25.81939
G1 X128.745 Y79.536 E27.06741
G1 X129.349 Y79.268 E27.08938
G1 X130.137 Y79.127 E27.11601
G1 X130.519 Y79.034 E27.12908
G1 X130.637 Y79.015 E27.13306
G1 X131.389 Y78.799 E27.15908
G1 X135.829 Y78.865 E27.30677
G1 X136.941 Y79.05 E27.34427
G1 X138.248 Y79.43 E27.38954
G1 X139.041 Y79.75 E27.41798
G1 X140.332 Y80.436 E27.46661
G1 X140.725 Y80.69 E27.48217
G1 X142.178 Y81.857 E27.54415
G1 X142.563 Y82.245 E27.56233
G1 X143.712 Y83.677 E27.6234
G1 X144.005 Y84.138 E27.64157
G1 X144.636 Y85.37 E27.6876
G1 X145.142 Y86.742 E27.73624
G1 X145.41 Y87.829 E27.77348
G1 X145.522 Y88.65 E27.80104
G1 X145.571 Y92.863 E27.94117
G1 X145.359 Y93.698 E27.96983
G1 X145.287 Y94.094 E27.98321
G1 X145.021 Y95.071 E28.01689
G1 X144.833 Y95.576 E28.03481
G1 X144.839 Y124.461 E28.99553
G1 X145.177 Y125.452 E29.03036
G1 X145.347 Y126.18 E29.05522
G1 X145.371 Y126.323 E29.06004
G1 X145.576 Y127.036 E29.08472
G1 X145.51 Y131.446 E29.23141
G1 X145.299 Y132.709 E29.274
G1 X145.102 Y133.417 E29.29845
G1 X144.514 Y134.901 E29.35154
G1 X143.977 Y135.897 E29.38917
G1 X143.664 Y136.381 E29.40834
G1 X142.518 Y137.803 E29.46909
G1 X142.13 Y138.188 E29.48727
G1 X140.698 Y139.337 E29.54833
G1 X140.237 Y139.63 E29.5665
G1 X138.745 Y140.379 E29.62203
G1 X137.873 Y140.699 E29.65292
G1 X136.625 Y141.018 E29.69576
G1 X135.574 Y141.157 E29.73102
G1 X131.585 Y141.191 E29.8637
G1 X130.334 Y140.9 E29.90642
G1 X129.696 Y140.807 E29.92787
G1 X128.778 Y140.458 E29.96053
G1 X91.255 Y140.464 E31.20855
G1 X90.653 Y140.732 E31.23047
G1 X89.881 Y140.87 E31.25655
G1 X89.573 Y140.946 E31.2671
G1 X89.346 Y140.985 E31.27476
G1 X88.6 Y141.201 E31.3006
G1 X84.171 Y141.135 E31.44792
G1 X83.059 Y140.95 E31.48541
G1 X81.752 Y140.57 E31.53069
G1 X80.959 Y140.25 E31.55913
G1 X79.668 Y139.564 E31.60775
G1 X79.275 Y139.31 E31.62332
G1 X77.822 Y138.143 E31.6853
G1 X77.437 Y137.755 E31.70348
G1 X76.288 Y136.323 E31.76454
G1 X75.995 Y135.862 E31.78271
G1 X75.246 Y134.37 E31.83824
G1 X74.926 Y133.498 E31.86913
G1 X74.607 Y132.249 E31.91201
G1 X74.468 Y131.198 E31.94727
G1 X74.434 Y127.149 E32.08194
G1 X74.63 Y126.354 E32.10918
G1 X74.68 Y126.054 E32.11929
G1 X75.008 Y124.836 E32.16125
G1 X75.167 Y124.408 E32.17643
G1 X75.162 Y95.565 E33.13576
G1 X74.897 Y94.808 E33.16243
G1 X74.63 Y93.685 E33.20082
G1 X74.424 Y92.989 E33.22497
G1 X74.49 Y88.546 E33.37276
G1 X74.675 Y87.434 E33.41025
G1 X75.055 Y86.127 E33.45552
G1 X75.375 Y85.334 E33.48396
G1 X76.061 Y84.043 E33.53259
G1 X76.315 Y83.65 E33.54815
G1 X77.482 Y82.197 E33.61014
G1 X77.87 Y81.812 E33.62832
G0 F6000 X78.152 Y82.096
G1 F1200 X79.517 Y81.001 E33.68652
G1 X79.978 Y80.708 E33.70469
G1 X81.393 Y79.997 E33.75736
G1 X82.265 Y79.677 E33.78825
G1 X83.429 Y79.378 E33.82822
G1 X84.429 Y79.243 E33.86178
G1 X88.369 Y79.209 E33.99283
G1 X89.589 Y79.493 E34.0345
G1 X90.204 Y79.583 E34.05517
G1 X91.148 Y79.942 E34.08876
G1 X128.83 Y79.936 E35.34207
G1 X129.467 Y79.654 E35.36524
G1 X130.208 Y79.521 E35.39028
G1 X130.583 Y79.429 E35.40312
G1 X130.719 Y79.407 E35.4077
G1 X131.44 Y79.2 E35.43265
G1 X135.763 Y79.26 E35.57645
G1 X136.875 Y79.445 E35.61394
G1 X138.098 Y79.801 E35.65631
G1 X138.891 Y80.121 E35.68475
G1 X140.115 Y80.772 E35.73086
G1 X140.508 Y81.026 E35.74642
G1 X141.894 Y82.139 E35.80555
G1 X142.279 Y82.527 E35.82373
G1 X143.374 Y83.892 E35.88193
G1 X143.667 Y84.353 E35.9001
G1 X144.28 Y85.552 E35.94489
G1 X144.754 Y86.838 E35.99047
G1 X145.014 Y87.884 E36.02632
G1 X145.122 Y88.655 E36.05221
G1 X145.17 Y92.815 E36.19059
G1 X144.968 Y93.613 E36.21796
G1 X144.901 Y93.989 E36.23067
G1 X144.635 Y94.966 E36.26434
G1 X144.433 Y95.504 E36.28346
G1 X144.439 Y124.527 E37.24877
G1 X144.787 Y125.543 E37.28449
G1 X144.957 Y126.271 E37.30935
G1 X144.979 Y126.404 E37.31384
G1 X145.175 Y127.087 E37.33747
G1 X145.115 Y131.38 E37.48027
G1 X144.904 Y132.643 E37.52286
G1 X144.73 Y133.27 E37.5445
G1 X144.162 Y134.711 E37.59602
G1 X143.64 Y135.681 E37.63265
G1 X143.352 Y136.13 E37.6504
G1 X142.236 Y137.519 E37.70966
G1 X141.848 Y137.904 E37.72784
G1 X140.483 Y138.999 E37.78604
G1 X140.022 Y139.292 E37.80421
G1 X138.607 Y140.003 E37.85688
G1 X137.735 Y140.323 E37.88777
G1 X136.571 Y140.622 E37.92775
G1 X135.571 Y140.757 E37.96131
G1 X131.631 Y140.791 E38.09236
G1 X130.411 Y140.507 E38.13402
G1 X129.796 Y140.417 E38.15469
G1 X128.852 Y140.058 E38.18828
G1 X91.17 Y140.064 E39.44159
G1 X90.535 Y140.346 E39.4647
G1 X89.807 Y140.477 E39.4893
G1 X89.505 Y140.552 E39.49965
G1 X89.257 Y140.595 E39.50802
G1 X88.547 Y140.8 E39.5326
G1 X84.237 Y140.74 E39.67597
G1 X83.125 Y140.555 E39.71346
G1 X81.902 Y140.199 E39.75583
G1 X81.109 Y139.879 E39.78427
G1 X79.885 Y139.228 E39.83038
G1 X79.492 Y138.974 E39.84594
G1 X78.106 Y137.861 E39.90507
G1 X77.721 Y137.473 E39.92325
G1 X76.626 Y136.108 E39.98145
G1 X76.333 Y135.647 E39.99962
G1 X75.622 Y134.232 E40.05229
G1 X75.302 Y133.36 E40.08318
G1 X75.003 Y132.196 E40.12315
G1 X74.868 Y131.195 E40.15675
G1 X74.834 Y127.195 E40.28979
G1 X75.024 Y126.427 E40.31611
G1 X75.075 Y126.119 E40.32649
G1 X75.394 Y124.941 E40.36708
G1 X75.567 Y124.48 E40.38346
G1 X75.562 Y95.496 E41.34747
G1 X75.275 Y94.676 E41.37637
G1 X75.035 Y93.685 E41.41028
G1 X75.023 Y93.604 E41.413
G1 X74.825 Y92.933 E41.43627
G1 X74.885 Y88.612 E41.58
G1 X75.07 Y87.5 E41.6175
G1 X75.426 Y86.277 E41.65986
G1 X75.746 Y85.484 E41.6883
G1 X76.397 Y84.26 E41.73441
G1 X76.651 Y83.867 E41.74998
G1 X77.764 Y82.481 E41.8091
G1 X78.152 Y82.096 E41.82728
G0 F6000 X78.434 Y82.38
G1 F1200 X79.732 Y81.339 E41.88262
G1 X80.193 Y81.046 E41.90079
G1 X81.531 Y80.373 E41.9506
G1 X82.403 Y80.053 E41.9815
G1 X83.528 Y79.766 E42.02011
G1 X84.432 Y79.643 E42.05046
G1 X88.323 Y79.609 E42.17988
G1 X89.511 Y79.886 E42.22045
G1 X90.103 Y79.973 E42.24035
G1 X91.074 Y80.342 E42.2749
G1 X128.915 Y80.336 E43.5335
G1 X129.585 Y80.039 E43.55787
G1 X130.284 Y79.914 E43.58149
G1 X130.648 Y79.824 E43.59396
G1 X130.807 Y79.798 E43.59932
G1 X131.495 Y79.601 E43.62312
G1 X135.697 Y79.655 E43.76289
G1 X136.809 Y79.84 E43.80039
G1 X137.948 Y80.172 E43.83985
G1 X138.741 Y80.492 E43.86829
G1 X139.898 Y81.108 E43.91189
G1 X140.291 Y81.362 E43.92745
G1 X141.61 Y82.421 E43.98371
G1 X141.995 Y82.809 E44.00189
G1 X143.036 Y84.107 E44.05723
G1 X143.329 Y84.568 E44.0754
G1 X143.924 Y85.734 E44.11894
G1 X144.366 Y86.935 E44.1615
G1 X144.618 Y87.941 E44.196
G1 X144.722 Y88.66 E44.22016
