;FLAVOR:Marlin
;TIME:3566
;Filament used: 2.28325m
;Layer height: 0.2
;MINX:82.2
;MINY:86.572
;MINZ:0.2
;MAXX:142.8
;MAXY:133.424
;MAXZ:5.2
;TARGET_MACHINE.NAME:Creality Ender-3
;Generated with Cura_SteamEngine 5.10.2
M140 S90
M105
M190 S90
M104 S245
M105
M109 S245
; Ender 3 Custom Start G-code
G92 E0 ; Reset Extruder
G28 ; Home all axes
G1 Z2.0 F3000 ; Move Z Axis up little to prevent scratching of Heat Bed
G1 X0.1 Y20 Z0.3 F5000.0 ; Move to start position
G1 X0.1 Y200.0 Z0.3 F1500.0 E15 ; Draw the first line
G1 X0.4 Y200.0 Z0.3 F5000.0 ; Move to side a little
G1 X0.4 Y20 Z0.3 F1500.0 E30 ; Draw the second line
G92 E0 ; Reset Extruder
G1 Z2.0 F3000 ; Move Z Axis up little to prevent scratching of Heat Bed
G1 X5 Y20 Z0.3 F5000.0 ; Move over to prevent blob squish
M82 ;absolute extrusion mode
G92 E0
G92 E0
G1 F2700 E-5
;LAYER_COUNT:26
;LAYER:0
M107
G0 F6000 X127.718 Y102.473 Z0.2
;TYPE:SKIRT
G1 F2700 E0
G1 F1200 X129.288 Y101.006 E0.07147
G1 X130.935 Y100.05 E0.13481
G1 X131.718 Y99.737 E0.16285
G1 X133.744 Y99.465 E0.23084
G1 X135.835 Y99.437 E0.30039
G1 X137.755 Y99.912 E0.36618
G1 X139.772 Y100.964 E0.44184
G1 X141.248 Y102.542 E0.51371
G1 X142.287 Y104.286 E0.58123
G1 X142.47 Y104.721 E0.59692
G1 X142.751 Y106.586 E0.65965
G1 X142.8 Y113.612 E0.89334
G1 X142.343 Y115.478 E0.95724
G1 X141.281 Y117.527 E1.034
G1 X139.707 Y118.998 E1.10566
G1 X137.992 Y119.987 E1.1715
G1 X137.283 Y120.264 E1.19682
G1 X135.371 Y120.527 E1.26101
G1 X133.172 Y120.563 E1.33416
G1 X131.245 Y120.088 E1.40017
G1 X129.228 Y119.036 E1.47583
G1 X127.752 Y117.458 E1.5477
G1 X126.713 Y115.714 E1.61522
G1 X126.53 Y115.279 E1.63092
G1 X126.249 Y113.414 E1.69365
G1 X126.2 Y106.388 E1.92734
G1 X126.657 Y104.522 E1.99123
G1 X127.718 Y102.473 E2.06798
G0 F6000 X128.042 Y102.718
G1 F1200 X129.528 Y101.329 E2.13563
G1 X131.084 Y100.421 E2.19555
G1 X131.821 Y100.126 E2.22196
G1 X133.749 Y99.865 E2.28667
G1 X135.79 Y99.838 E2.35456
G1 X137.61 Y100.288 E2.41691
G1 X139.528 Y101.288 E2.48886
G1 X140.924 Y102.781 E2.55684
G1 X141.943 Y104.491 E2.62305
G1 X142.081 Y104.828 E2.63516
G1 X142.355 Y106.646 E2.69631
G1 X142.4 Y113.563 E2.92637
G1 X141.965 Y115.339 E2.98719
G1 X140.958 Y117.282 E3.05998
G1 X139.469 Y118.673 E3.12775
G1 X137.846 Y119.614 E3.19015
G1 X137.178 Y119.875 E3.214
G1 X135.364 Y120.127 E3.27491
G1 X133.216 Y120.162 E3.34637
G1 X131.39 Y119.712 E3.40892
G1 X129.472 Y118.712 E3.48086
G1 X128.076 Y117.219 E3.54884
G1 X127.057 Y115.509 E3.61505
G1 X126.919 Y115.172 E3.62716
G1 X126.645 Y113.354 E3.68831
G1 X126.6 Y106.437 E3.91838
G1 X127.035 Y104.661 E3.97919
G1 X128.042 Y102.718 E4.05198
G0 F6000 X128.365 Y102.963
G1 F1200 X129.768 Y101.652 E4.11585
G1 X131.233 Y100.792 E4.17235
G1 X131.924 Y100.515 E4.19711
G1 X133.754 Y100.265 E4.25854
G1 X135.745 Y100.239 E4.32477
G1 X137.465 Y100.664 E4.3837
G1 X139.284 Y101.612 E4.45192
G1 X140.6 Y103.02 E4.51602
G1 X141.599 Y104.696 E4.58092
G1 X141.694 Y104.939 E4.58959
G1 X141.955 Y106.649 E4.64713
G1 X142 Y113.514 E4.87546
G1 X141.587 Y115.2 E4.9332
G1 X140.635 Y117.037 E5.00201
G1 X139.231 Y118.349 E5.06593
G1 X137.701 Y119.241 E5.12483
G1 X137.075 Y119.485 E5.14718
G1 X135.358 Y119.727 E5.20485
G1 X133.26 Y119.761 E5.27464
G1 X131.535 Y119.336 E5.33373
G1 X129.716 Y118.388 E5.40195
G1 X128.4 Y116.98 E5.46605
G1 X127.401 Y115.304 E5.53095
G1 X127.306 Y115.061 E5.53963
G1 X127.045 Y113.351 E5.59716
G1 X127 Y106.486 E5.82549
G1 X127.413 Y104.8 E5.88323
G1 X128.365 Y102.963 E5.95205
G0 F6000 X128.688 Y103.208
G1 F1200 X130.01 Y101.973 E6.01222
G1 X131.382 Y101.163 E6.06521
G1 X132.027 Y100.904 E6.08833
G1 X133.759 Y100.665 E6.14648
G1 X135.7 Y100.64 E6.21104
G1 X137.32 Y101.04 E6.26654
G1 X139.04 Y101.936 E6.33105
G1 X140.276 Y103.259 E6.39126
G1 X141.255 Y104.901 E6.45485
G1 X141.306 Y105.044 E6.4599
G1 X141.555 Y106.652 E6.51402
G1 X141.6 Y113.465 E6.74062
G1 X141.209 Y115.061 E6.79528
G1 X140.312 Y116.792 E6.86012
G1 X138.991 Y118.026 E6.92025
G1 X137.556 Y118.868 E6.97558
G1 X136.973 Y119.095 E6.99639
G1 X135.352 Y119.327 E7.05086
G1 X133.304 Y119.36 E7.11898
G1 X131.68 Y118.96 E7.17461
G1 X129.96 Y118.064 E7.23911
G1 X128.724 Y116.741 E7.29933
G1 X127.745 Y115.099 E7.36292
G1 X127.694 Y114.956 E7.36797
G1 X127.445 Y113.348 E7.42209
G1 X127.4 Y106.535 E7.64869
G1 X127.791 Y104.939 E7.70335
G1 X128.688 Y103.208 E7.76819
G0 F6000 X129.011 Y103.453
G1 F1200 X130.25 Y102.296 E7.82457
G1 X131.531 Y101.534 E7.87415
G1 X132.13 Y101.294 E7.89561
G1 X133.764 Y101.065 E7.95049
G1 X135.655 Y101.041 E8.01339
G1 X137.175 Y101.416 E8.06546
G1 X138.796 Y102.26 E8.12624
G1 X139.952 Y103.498 E8.18258
G1 X140.911 Y105.106 E8.24485
G1 X141.155 Y106.655 E8.29701
G1 X141.2 Y113.416 E8.52188
G1 X140.831 Y114.922 E8.57345
G1 X139.989 Y116.547 E8.63433
G1 X138.749 Y117.705 E8.69076
G1 X137.411 Y118.495 E8.74244
G1 X136.87 Y118.706 E8.76175
G1 X135.346 Y118.927 E8.81297
G1 X133.348 Y118.959 E8.87943
G1 X131.825 Y118.584 E8.9316
G1 X130.204 Y117.74 E8.99239
G1 X129.048 Y116.502 E9.04872
G1 X128.089 Y114.894 E9.11099
G1 X127.845 Y113.345 E9.16315
G1 X127.8 Y106.584 E9.38803
G1 X128.169 Y105.078 E9.4396
G1 X129.011 Y103.453 E9.50047
G0 F6000 X129.334 Y103.698
G1 F1200 X130.491 Y102.618 E9.55311
G1 X131.735 Y101.878 E9.60125
G1 X132.235 Y101.683 E9.6191
G1 X133.769 Y101.465 E9.67064
G1 X135.61 Y101.442 E9.73187
G1 X137.03 Y101.792 E9.78052
G1 X138.552 Y102.584 E9.83758
G1 X139.628 Y103.737 E9.89004
G1 X140.528 Y105.246 E9.94847
G1 X140.755 Y106.658 E9.99604
G1 X140.8 Y113.367 E10.21919
G1 X140.453 Y114.783 E10.26768
G1 X139.666 Y116.302 E10.32458
G1 X138.509 Y117.382 E10.37722
G1 X137.265 Y118.122 E10.42536
G1 X136.766 Y118.317 E10.44318
G1 X135.34 Y118.527 E10.49112
G1 X133.392 Y118.558 E10.55592
G1 X131.97 Y118.208 E10.60463
G1 X130.448 Y117.416 E10.66169
G1 X129.372 Y116.263 E10.71415
G1 X128.472 Y114.754 E10.77259
G1 X128.245 Y113.342 E10.82015
G1 X128.2 Y106.633 E11.0433
G1 X128.547 Y105.217 E11.09179
G1 X129.334 Y103.698 E11.14869
G0 F6000 X129.657 Y103.943
G1 F1200 X130.732 Y102.94 E11.19759
G1 X131.939 Y102.222 E11.2443
G1 X132.335 Y102.073 E11.25837
G1 X133.774 Y101.865 E11.30673
G1 X135.565 Y101.843 E11.36631
G1 X136.887 Y102.169 E11.41159
G1 X138.307 Y102.907 E11.46482
G1 X139.307 Y103.979 E11.51358
G1 X140.145 Y105.383 E11.56796
G1 X140.355 Y106.661 E11.61104
G1 X140.4 Y113.318 E11.83246
G1 X140.075 Y114.644 E11.87787
G1 X139.343 Y116.057 E11.93079
G1 X138.268 Y117.06 E11.9797
G1 X137.061 Y117.778 E12.02641
G1 X136.666 Y117.927 E12.04045
G1 X135.334 Y118.127 E12.08525
G1 X133.436 Y118.157 E12.14838
G1 X132.113 Y117.831 E12.1937
G1 X130.693 Y117.093 E12.24693
G1 X129.693 Y116.021 E12.29569
G1 X128.855 Y114.617 E12.35007
G1 X128.645 Y113.339 E12.39315
G1 X128.6 Y106.682 E12.61457
G1 X128.925 Y105.356 E12.65997
G1 X129.657 Y103.943 E12.7129
G0 F6000 X129.979 Y104.19
G1 F1200 X130.974 Y103.262 E12.75816
G1 X132.144 Y102.566 E12.80343
G1 X132.434 Y102.463 E12.81367
G1 X133.779 Y102.265 E12.85889
G1 X135.52 Y102.244 E12.9168
G1 X136.744 Y102.546 E12.95873
G1 X138.06 Y103.229 E13.00804
G1 X138.988 Y104.224 E13.0533
G1 X139.762 Y105.521 E13.10353
G1 X139.96 Y106.726 E13.14415
G1 X140 Y113.273 E13.36191
G1 X139.699 Y114.501 E13.40396
G1 X139.021 Y115.81 E13.45299
G1 X138.026 Y116.738 E13.49824
G1 X136.856 Y117.434 E13.54352
G1 X136.566 Y117.537 E13.55376
G1 X135.275 Y117.731 E13.59718
G1 X133.48 Y117.756 E13.65689
G1 X132.256 Y117.454 E13.69882
G1 X130.94 Y116.771 E13.74813
G1 X130.012 Y115.776 E13.79339
G1 X129.238 Y114.479 E13.84362
G1 X129.04 Y113.274 E13.88424
G1 X129 Y106.727 E14.102
G1 X129.301 Y105.499 E14.14405
G1 X129.979 Y104.19 E14.19308
G0 F6000 X130.301 Y104.437
G1 F1200 X131.216 Y103.584 E14.23469
G1 X132.349 Y102.91 E14.27853
G1 X132.493 Y102.859 E14.28361
G1 X133.784 Y102.665 E14.32704
G1 X135.475 Y102.645 E14.38328
G1 X136.602 Y102.923 E14.42189
G1 X137.813 Y103.551 E14.46726
G1 X138.666 Y104.466 E14.50887
G1 X139.379 Y105.661 E14.55515
G1 X139.565 Y106.791 E14.59324
G1 X139.6 Y113.228 E14.80734
G1 X139.323 Y114.358 E14.84604
G1 X138.699 Y115.563 E14.89117
G1 X137.784 Y116.416 E14.93278
G1 X136.651 Y117.09 E14.97662
G1 X136.507 Y117.141 E14.9817
G1 X135.216 Y117.335 E15.02512
G1 X133.525 Y117.355 E15.08137
G1 X132.398 Y117.077 E15.11998
G1 X131.187 Y116.449 E15.16535
G1 X130.334 Y115.534 E15.20696
G1 X129.621 Y114.339 E15.25324
G1 X129.435 Y113.209 E15.29133
G1 X129.4 Y106.772 E15.50543
G1 X129.677 Y105.642 E15.54413
G1 X130.301 Y104.437 E15.58926
G0 F6000 X130.623 Y104.684
G1 F1200 X131.458 Y103.906 E15.62722
G1 X132.554 Y103.254 E15.66963
G1 X133.789 Y103.065 E15.71119
G1 X135.43 Y103.046 E15.76577
G1 X136.46 Y103.3 E15.80106
G1 X137.566 Y103.873 E15.84248
G1 X138.344 Y104.708 E15.88044
G1 X138.996 Y105.801 E15.92277
G1 X139.17 Y106.856 E15.95834
G1 X139.2 Y113.183 E16.16878
G1 X138.947 Y114.215 E16.20412
G1 X138.377 Y115.316 E16.24535
G1 X137.542 Y116.094 E16.28331
G1 X136.446 Y116.746 E16.32573
G1 X135.211 Y116.935 E16.36728
G1 X133.57 Y116.954 E16.42187
G1 X132.54 Y116.7 E16.45715
G1 X131.434 Y116.127 E16.49858
G1 X130.656 Y115.292 E16.53654
G1 X130.004 Y114.199 E16.57887
G1 X129.83 Y113.144 E16.61443
G1 X129.8 Y106.817 E16.82487
G1 X130.053 Y105.785 E16.86021
G1 X130.623 Y104.684 E16.90145
G0 F6000 X130.945 Y104.931
G1 F1200 X131.7 Y104.228 E16.93576
G1 X132.693 Y103.637 E16.97419
G1 X133.794 Y103.465 E17.01126
G1 X135.385 Y103.447 E17.06418
G1 X136.318 Y103.677 E17.09614
G1 X137.319 Y104.195 E17.13363
G1 X138.022 Y104.95 E17.16794
G1 X138.613 Y105.941 E17.20631
G1 X138.775 Y106.921 E17.23935
G1 X138.8 Y113.138 E17.44613
G1 X138.571 Y114.072 E17.47812
G1 X138.055 Y115.069 E17.51546
G1 X137.3 Y115.772 E17.54977
G1 X136.307 Y116.363 E17.5882
G1 X135.206 Y116.535 E17.62526
G1 X133.615 Y116.553 E17.67819
G1 X132.682 Y116.323 E17.71015
G1 X131.681 Y115.805 E17.74763
G1 X130.978 Y115.05 E17.78194
G1 X130.387 Y114.059 E17.82032
G1 X130.225 Y113.079 E17.85336
G1 X130.2 Y106.862 E18.06014
G1 X130.429 Y105.928 E18.09212
G1 X130.945 Y104.931 E18.12946
G0 F6000 X131.268 Y105.176
G1 F1200 X131.939 Y104.552 E18.15994
G1 X132.832 Y104.02 E18.19451
G1 X133.798 Y103.865 E18.22705
G1 X135.341 Y103.848 E18.27837
G1 X136.175 Y104.053 E18.30694
G1 X137.074 Y104.518 E18.3406
G1 X137.698 Y105.189 E18.37108
G1 X138.23 Y106.081 E18.40562
G1 X138.38 Y106.986 E18.43614
G1 X138.4 Y113.093 E18.63926
G1 X138.195 Y113.929 E18.66789
G1 X137.732 Y114.824 E18.7014
G1 X137.061 Y115.448 E18.73188
G1 X136.168 Y115.98 E18.76645
G1 X135.202 Y116.135 E18.79899
G1 X133.659 Y116.152 E18.85031
G1 X132.825 Y115.947 E18.87888
G1 X131.926 Y115.482 E18.91254
G1 X131.302 Y114.811 E18.94302
G1 X130.77 Y113.919 E18.97756
G1 X130.62 Y113.014 E19.00807
G1 X130.6 Y106.907 E19.21119
G1 X130.805 Y106.071 E19.23982
G1 X131.268 Y105.176 E19.27334
G0 F6000 X131.591 Y105.421
G1 F1200 X132.178 Y104.876 E19.29998
G1 X132.971 Y104.403 E19.33069
G1 X133.802 Y104.265 E19.35871
G1 X135.293 Y104.249 E19.4083
G1 X136.036 Y104.431 E19.43374
G1 X136.829 Y104.841 E19.46344
G1 X137.374 Y105.428 E19.49008
G1 X137.847 Y106.221 E19.52079
G1 X137.985 Y107.052 E19.54881
G1 X138 Y113.048 E19.74823
G1 X137.819 Y113.786 E19.77351
G1 X137.409 Y114.579 E19.8032
G1 X136.822 Y115.124 E19.82984
G1 X136.029 Y115.597 E19.86055
G1 X135.198 Y115.735 E19.88857
G1 X133.707 Y115.751 E19.93816
G1 X132.964 Y115.569 E19.96361
G1 X132.171 Y115.159 E19.9933
G1 X131.626 Y114.572 E20.01994
G1 X131.153 Y113.779 E20.05065
G1 X131.015 Y112.948 E20.07867
G1 X131 Y106.952 E20.2781
G1 X131.181 Y106.214 E20.30337
G1 X131.591 Y105.421 E20.33306
G0 F6000 X131.914 Y105.666
G1 F1200 X132.417 Y105.2 E20.35587
G1 X133.111 Y104.786 E20.38275
G1 X133.868 Y104.66 E20.40827
G1 X135.245 Y104.65 E20.45407
G1 X135.897 Y104.809 E20.47639
G1 X136.584 Y105.164 E20.50211
G1 X137.05 Y105.667 E20.52492
G1 X137.464 Y106.361 E20.55179
G1 X137.59 Y107.118 E20.57732
G1 X137.6 Y112.998 E20.77289
G1 X137.441 Y113.647 E20.79511
G1 X137.086 Y114.334 E20.82083
G1 X136.583 Y114.8 E20.84364
G1 X135.889 Y115.214 E20.87052
G1 X135.132 Y115.34 E20.89604
G1 X133.755 Y115.35 E20.94184
G1 X133.103 Y115.191 E20.96416
G1 X132.416 Y114.836 E20.98988
G1 X131.95 Y114.333 E21.01269
G1 X131.536 Y113.639 E21.03957
G1 X131.41 Y112.882 E21.06509
G1 X131.4 Y107.002 E21.26066
G1 X131.559 Y106.353 E21.28289
G1 X131.914 Y105.666 E21.30861
G0 F6000 X132.237 Y105.912
G1 F1200 X132.656 Y105.524 E21.3276
G1 X133.251 Y105.169 E21.35064
G1 X133.934 Y105.055 E21.37367
G1 X135.197 Y105.05 E21.41568
G1 X135.758 Y105.187 E21.43489
G1 X136.338 Y105.487 E21.45661
G1 X136.726 Y105.906 E21.4756
G1 X137.081 Y106.501 E21.49865
G1 X137.195 Y107.184 E21.52168
G1 X137.2 Y112.948 E21.71339
G1 X137.063 Y113.508 E21.73256
G1 X136.763 Y114.088 E21.75428
G1 X136.344 Y114.476 E21.77328
G1 X135.749 Y114.831 E21.79632
G1 X135.066 Y114.945 E21.81935
G1 X133.803 Y114.95 E21.86136
G1 X133.242 Y114.813 E21.88057
G1 X132.662 Y114.513 E21.90228
G1 X132.274 Y114.094 E21.92128
G1 X131.919 Y113.499 E21.94432
G1 X131.805 Y112.816 E21.96735
G1 X131.8 Y107.052 E22.15906
G1 X131.937 Y106.492 E22.17824
G1 X132.237 Y105.912 E22.19996
G0 F6000 X132.56 Y106.158
G1 F1200 X132.898 Y105.845 E22.21528
G1 X133.389 Y105.552 E22.2343
G1 X134 Y105.45 E22.2549
G1 X135.148 Y105.45 E22.29308
G1 X135.619 Y105.565 E22.30921
G1 X136.092 Y105.81 E22.32693
G1 X136.405 Y106.148 E22.34225
G1 X136.698 Y106.639 E22.36127
G1 X136.8 Y107.25 E22.38187
G1 X136.8 Y112.898 E22.56972
G1 X136.685 Y113.369 E22.58585
G1 X136.44 Y113.842 E22.60356
G1 X136.102 Y114.155 E22.61889
G1 X135.611 Y114.448 E22.6379
G1 X135 Y114.55 E22.65851
G1 X133.852 Y114.55 E22.69669
G1 X133.381 Y114.435 E22.71282
G1 X132.908 Y114.19 E22.73053
G1 X132.595 Y113.852 E22.74585
G1 X132.302 Y113.361 E22.76487
G1 X132.2 Y112.75 E22.78547
G1 X132.2 Y107.102 E22.97333
G1 X132.315 Y106.631 E22.98945
G1 X132.56 Y106.158 E23.00717
G0 F6000 X132.883 Y106.404
G1 F1200 X133.14 Y106.166 E23.01882
G1 X133.527 Y105.935 E23.03381
G1 X134 Y105.85 E23.0498
G1 X135.098 Y105.85 E23.08632
G1 X135.48 Y105.943 E23.09939
G1 X135.846 Y106.133 E23.11311
G1 X136.084 Y106.39 E23.12476
G1 X136.315 Y106.777 E23.13975
G1 X136.4 Y107.25 E23.15573
G1 X136.4 Y112.848 E23.34192
G1 X136.307 Y113.23 E23.355
G1 X136.117 Y113.596 E23.36871
G1 X135.86 Y113.834 E23.38036
G1 X135.473 Y114.065 E23.39536
G1 X135 Y114.15 E23.41134
G1 X133.902 Y114.15 E23.44786
G1 X133.52 Y114.057 E23.46094
G1 X133.154 Y113.867 E23.47465
G1 X132.916 Y113.61 E23.4863
G1 X132.685 Y113.223 E23.50129
G1 X132.6 Y112.75 E23.51728
G1 X132.6 Y107.152 E23.70347
G1 X132.693 Y106.77 E23.71654
G1 X132.883 Y106.404 E23.73026
G0 F6000 X133.207 Y106.649
G1 F1200 X133.345 Y106.51 E23.73677
G1 X133.672 Y106.315 E23.74944
G1 X134 Y106.25 E23.76056
G1 X135.049 Y106.25 E23.79545
G1 X135.338 Y106.32 E23.80534
G1 X135.601 Y106.457 E23.8152
G1 X135.74 Y106.595 E23.82172
G1 X135.935 Y106.922 E23.83438
G1 X136 Y107.25 E23.8455
G1 X136 Y112.799 E24.03006
G1 X135.93 Y113.088 E24.03995
G1 X135.793 Y113.351 E24.04981
G1 X135.655 Y113.49 E24.05633
G1 X135.328 Y113.685 E24.06899
G1 X135 Y113.75 E24.08011
G1 X133.951 Y113.75 E24.115
G1 X133.662 Y113.68 E24.12489
G1 X133.399 Y113.543 E24.13476
G1 X133.26 Y113.405 E24.14127
G1 X133.065 Y113.078 E24.15393
G1 X133 Y112.75 E24.16505
G1 X133 Y107.201 E24.34962
G1 X133.07 Y106.912 E24.35951
G1 X133.207 Y106.649 E24.36937
G0 F6000 X133.839 Y107.131
G1 F1200 X134 Y107.05 E24.37536
G1 X135 Y107.05 E24.40862
G1 X135.119 Y107.089 E24.41279
G1 X135.2 Y107.25 E24.41878
G1 X135.2 Y112.75 E24.60171
G1 X135.161 Y112.869 E24.60588
G1 X135 Y112.95 E24.61187
G1 X134 Y112.95 E24.64513
G1 X133.881 Y112.911 E24.6493
G1 X133.8 Y112.75 E24.65529
G1 X133.8 Y107.25 E24.83822
G1 X133.839 Y107.131 E24.84239
G0 F6000 X133.459 Y107.006
G1 F1200 X133.55 Y106.854 E24.84828
G1 X133.82 Y106.693 E24.85874
G1 X134 Y106.65 E24.86489
G1 X135 Y106.65 E24.89815
G1 X135.244 Y106.709 E24.9065
G1 X135.396 Y106.8 E24.91239
G1 X135.557 Y107.07 E24.92285
G1 X135.6 Y107.25 E24.929
G1 X135.6 Y112.75 E25.11193
G1 X135.541 Y112.994 E25.12028
G1 X135.45 Y113.146 E25.12618
G1 X135.18 Y113.307 E25.13663
